ThomasAsmussen/golf_robot/log/run1_20251013_153059.csv
t,x,y,z,rx,ry,rz,vx,vy,vz,wx,wy,wz,q1,q2,q3,q4,q5,q6,dq1,dq2,dq3,dq4,dq5,dq6
2.382946014404296875e-01,-1.000000822680490037e-01,-5.000002094581326162e-01,3.000001472795442714e-01,-4.422814919258157490e-09,2.221441698759650141e+00,2.221440329442017081e+00,0.000000000000000000e+00,0.000000000000000000e+00,0.000000000000000000e+00,0.000000000000000000e+00,0.000000000000000000e+00,0.000000000000000000e+00,-1.461602036152974904e+00,-2.043482128773824513e+00,-2.118884865437642873e+00,1.020774960517883301e+00,-1.679991070424215138e+00,-3.141593043004171193e+00,0.000000000000000000e+00,0.000000000000000000e+00,0.000000000000000000e+00,0.000000000000000000e+00,0.000000000000000000e+00,0.000000000000000000e+00
2.463731765747070312e-01,-1.000000822680490037e-01,-5.000002094581326162e-01,3.000001472795442714e-01,-4.422814919258157490e-09,2.221441698759650141e+00,2.221440329442017081e+00,0.000000000000000000e+00,0.000000000000000000e+00,0.000000000000000000e+00,0.000000000000000000e+00,0.000000000000000000e+00,0.000000000000000000e+00,-1.461602036152974904e+00,-2.043482128773824513e+00,-2.118884865437642873e+00,1.020774960517883301e+00,-1.679991070424215138e+00,-3.141593043004171193e+00,0.000000000000000000e+00,0.000000000000000000e+00,0.000000000000000000e+00,0.000000000000000000e+00,0.000000000000000000e+00,0.000000000000000000e+00
2.548875808715820312e-01,-1.000000822680490037e-01,-5.000002094581326162e-01,3.000001472795442714e-01,-4.422814919258157490e-09,2.221441698759650141e+00,2.221440329442017081e+00,0.000000000000000000e+00,0.000000000000000000e+00,0.000000000000000000e+00,0.000000000000000000e+00,0.000000000000000000e+00,0.000000000000000000e+00,-1.461602036152974904e+00,-2.043482128773824513e+00,-2.118884865437642873e+00,1.020774960517883301e+00,-1.679991070424215138e+00,-3.141593043004171193e+00,0.000000000000000000e+00,0.000000000000000000e+00,0.000000000000000000e+00,0.000000000000000000e+00,0.000000000000000000e+00,0.000000000000000000e+00
2.632894515991210938e-01,-1.000000822680490037e-01,-5.000002094581326162e-01,3.000001472795442714e-01,-4.422814919258157490e-09,2.221441698759650141e+00,2.221440329442017081e+00,-9.681128728859451687e-06,2.099495936951541621e-06,-5.245774940206645490e-10,-5.914779205849833923e-14,4.091183671950820454e-13,-1.853355439607197498e-05,-1.461602036152974904e+00,-2.043482128773824513e+00,-2.118884865437642873e+00,1.020774960517883301e+00,-1.679991070424215138e+00,-3.141593043004171193e+00,-1.920000067912042141e-05,1.798347142312195501e-07,-3.490908966341521591e-07,1.692561966137873242e-07,6.664462830485717859e-07,0.000000000000000000e+00
2.720799446105957031e-01,-1.000000822680490037e-01,-5.000002094581326162e-01,3.000001472795442714e-01,-4.422814919258157490e-09,2.221441698759650141e+00,2.221440329442017081e+00,-2.962105823155495039e-05,6.426612255153925051e-06,5.678230371137855939e-10,4.718699637934137410e-09,5.185612735047163696e-10,-5.674989051840325537e-05,-1.461602036152974904e+00,-2.043482128773824513e+00,-2.118884865437642873e+00,1.020774960517883301e+00,-1.679991070424215138e+00,-3.141593043004171193e+00,-5.875200076843611896e-05,5.558494535762292799e-07,-1.073137923413014505e-06,5.125413622408814263e-07,2.002110250032274053e-06,0.000000000000000000e+00
2.799296379089355469e-01,-1.000003206867166317e-01,-5.000001617743204951e-01,3.000001472795442714e-01,5.252101020741351578e-07,2.221441460341464946e+00,2.221440091023129337e+00,-6.044024782183233439e-05,1.312089925399534054e-05,-4.456346435973418765e-11,4.423046347002148586e-09,4.873746944667981061e-10,-1.159286630354470945e-04,-1.461602512990133107e+00,-2.043482128773824513e+00,-2.118884865437642873e+00,1.020774960517883301e+00,-1.679991070424215138e+00,-3.141593043004171193e+00,-1.199001635541208088e-04,1.138159632319002412e-06,-2.199782556999707595e-06,1.057173108165443409e-06,3.971500518673565239e-06,0.000000000000000000e+00
2.882461547851562500e-01,-1.000007975239836366e-01,-5.000000664063558586e-01,3.000001472795442714e-01,1.584435535124798521e-06,2.221440983461627550e+00,2.221439614122423745e+00,-1.028228756644285538e-04,2.232694112483087765e-05,5.424025339858444434e-10,5.858878436701214487e-09,6.464723712817271669e-10,-1.973032967725885914e-04,-1.461603466664449513e+00,-2.043482128773824513e+00,-2.118884865437642873e+00,1.020774960517883301e+00,-1.679991070424215138e+00,-3.141593043004171193e+00,-2.039900136878713965e-04,1.941313030329183675e-06,-3.749493771465495229e-06,1.802286305974121206e-06,6.686716915282886475e-06,0.000000000000000000e+00
2.996578216552734375e-01,-1.000012758641989352e-01,-4.999999573275704101e-01,3.000001363538995491e-01,2.629290293184769026e-06,2.221440631806929300e+00,2.221438999231642342e+00,-1.574804472782396364e-04,3.422148330793928645e-05,1.062562847424246197e-09,1.013911555884783181e-08,1.118910206448490652e-09,-3.025535133929230648e-04,-1.461604420338765919e+00,-2.043482128773824513e+00,-2.118884865437642873e+00,1.020775079727172852e+00,-1.679991070424215138e+00,-3.141593043004171193e+00,-3.124788054265081882e-04,2.994410806422820315e-06,-5.783053893537726253e-06,2.778442421913496219e-06,9.925292033585719764e-06,0.000000000000000000e+00
3.084893226623535156e-01,-1.000032465160684697e-01,-4.999993994303346678e-01,3.000000374132487102e-01,6.394450509574845979e-06,2.221438462377558931e+00,2.221437882786517104e+00,-3.869251045982820074e-04,8.408571934644913919e-05,2.637847986430834239e-09,2.504092431369515267e-08,2.751513340509139731e-09,-7.434070339513666401e-04,-1.461608235036031544e+00,-2.043482128773824513e+00,-2.118885342274801076e+00,1.020775079727172852e+00,-1.679990593587056935e+00,-3.141593043004171193e+00,-7.677585817873477936e-04,7.359513801930006593e-06,-1.421325669070938602e-05,6.828551249782321975e-06,2.435154783597681671e-05,0.000000000000000000e+00
3.167121410369873047e-01,-1.000046770254155587e-01,-4.999991133167050461e-01,3.000000374132487102e-01,9.572253866007840101e-06,2.221437031842227849e+00,2.221436452239694770e+00,-3.328037653025585807e-04,7.236250858381238925e-05,4.101385680918391159e-09,1.711407847075273365e-08,1.881478053589709706e-09,-6.399273734132265423e-04,-1.461611096058980763e+00,-2.043482128773824513e+00,-2.118885342274801076e+00,1.020775079727172852e+00,-1.679990593587056935e+00,-3.141593043004171193e+00,-6.604413501918315887e-04,6.363470220094313845e-06,-1.228213659487664700e-05,5.901449185330420732e-06,2.051397677860222757e-05,0.000000000000000000e+00
3.253102302551269531e-01,-1.000063549252124262e-01,-4.999986976527934224e-01,3.000002692153937445e-01,1.322192598272615119e-05,2.221435863404548794e+00,2.221434230846737634e+00,-4.081758674977014278e-04,8.878260437590178734e-05,5.741909885921562624e-09,1.790510000170060655e-08,1.981149148750192615e-09,-7.852906965126779486e-04,-1.461614433919088185e+00,-2.043481651936666310e+00,-2.118885342274801076e+00,1.020775079727172852e+00,-1.679990593587056935e+00,-3.141593043004171193e+00,-8.100794511847198009e-04,7.830031790945213288e-06,-1.510943911853246391e-05,7.261392966029234231e-06,2.478875467204488814e-05,0.000000000000000000e+00
3.426544666290283203e-01,-1.000111687469835003e-01,-4.999977301837875698e-01,3.000002582897425274e-01,2.327045560627678868e-05,2.221431458532204584e+00,2.221429562737392338e+00,-8.888659259591442886e-04,1.933523320815112845e-04,1.263526742083782563e-08,3.842378810435117593e-08,4.258112535903379367e-09,-1.710174929030484556e-03,-1.461623970662252248e+00,-2.043481651936666310e+00,-2.118885342274801076e+00,1.020775198936462402e+00,-1.679990116749898732e+00,-3.141593043004171193e+00,-1.764088287018239498e-03,1.705579416011460125e-05,-3.291158282081596553e-05,1.581712967890780419e-05,5.391335798776708543e-05,0.000000000000000000e+00
3.509001731872558594e-01,-1.000145065897097424e-01,-4.999970625260654611e-01,3.000002582897425274e-01,3.068523919264321269e-05,2.221428120630942971e+00,2.221426224832793395e+00,-7.275931958088395317e-04,1.583143129869607599e-04,7.328829116348476141e-09,3.872944994387834325e-08,4.282506384689590814e-09,-1.400432738591924665e-03,-1.461630646382467091e+00,-2.043481651936666310e+00,-2.118885342274801076e+00,1.020775198936462402e+00,-1.679990116749898732e+00,-3.141593043004171193e+00,-1.444099470973014832e-03,1.398646054440177977e-05,-2.700122968235518783e-05,1.297580365644535050e-05,4.366673238109797239e-05,0.000000000000000000e+00
3.592352867126464844e-01,-1.000181036819354219e-01,-4.999961570240616382e-01,3.000001484234616211e-01,3.867290417387867738e-05,2.221424168921456666e+00,2.221423062832336814e+00,-8.129330310879969270e-04,1.770297891702029972e-04,1.011319545576320181e-08,4.445112262187593099e-08,4.895266810923099493e-09,-1.566764276503814857e-03,-1.461637798939840138e+00,-2.043481651936666310e+00,-2.118885819111959279e+00,1.020775318145751953e+00,-1.679990116749898732e+00,-3.141593043004171193e+00,-1.613783882930874825e-03,1.574110501678660512e-05,-3.038266004296019673e-05,1.459683517168741673e-05,4.701960642705671489e-05,0.000000000000000000e+00
3.678607940673828125e-01,-1.000224406465406030e-01,-4.999952848310271203e-01,3.000001374978143454e-01,4.766208179497655910e-05,2.221420240843751781e+00,2.221418871517757410e+00,-9.656132471458817078e-04,2.104332206369977630e-04,1.248906064200715939e-08,5.491754411821698977e-08,6.051877300462256609e-09,-1.863124358351341513e-03,-1.461646382008687794e+00,-2.043481651936666310e+00,-2.118885819111959279e+00,1.020775437355041504e+00,-1.679989639912740529e+00,-3.141593043004171193e+00,-1.917183748446404934e-03,1.881450043583754450e-05,-3.631397703429684043e-05,1.744422661431599408e-05,5.405939009506255388e-05,0.000000000000000000e+00
3.764240741729736328e-01,-1.000277297646988556e-01,-4.999942355239980207e-01,3.000001374978113478e-01,5.878413581527119810e-05,2.221415233923351717e+00,2.221413864594476539e+00,-1.150186593785987484e-03,2.508393963306104627e-04,1.411489420724063320e-08,6.706250874479716741e-08,7.387203953445211290e-09,-2.221730865130664909e-03,-1.461656872426168263e+00,-2.043481651936666310e+00,-2.118885819111959279e+00,1.020775437355041504e+00,-1.679989163075582326e+00,-3.141593043004171193e+00,-2.284011570736765862e-03,2.254437276860699058e-05,-4.351625466370023787e-05,2.090441375912632793e-05,6.228070560609921813e-05,0.000000000000000000e+00
3.845469951629638672e-01,-1.000339583685027345e-01,-4.999927233747490929e-01,3.000002594335380857e-01,7.253980395104338340e-05,2.221409159964848890e+00,2.221407527398011617e+00,-1.360052010751135491e-03,2.968354151034151961e-04,1.342107628408228327e-08,8.903938085623726664e-08,9.808207317770943918e-09,-2.630128197779414614e-03,-1.461669270192281544e+00,-2.043481175099508107e+00,-2.118886295949117482e+00,1.020775556564331055e+00,-1.679989163075582326e+00,-3.141593043004171193e+00,-2.701203338801860809e-03,2.681908335944171995e-05,-5.178160790819674730e-05,2.487294659658800811e-05,7.107514102244749665e-05,0.000000000000000000e+00
3.934154510498046875e-01,-1.000416539349129608e-01,-4.999909930746763709e-01,3.000001386417203153e-01,8.898674266021162590e-05,2.221401518444655387e+00,2.221400412346233200e+00,-1.595001567246364001e-03,3.483948630817282365e-04,1.813558983139831956e-08,9.751216486437454984e-08,1.072255259641976457e-08,-3.088176534220100650e-03,-1.461684528981344044e+00,-2.043481175099508107e+00,-2.118886772786275685e+00,1.020775794982910156e+00,-1.679988686238424123e+00,-3.141593043004171193e+00,-3.168385010212659836e-03,3.165925954817794263e-05,-6.111691618571057916e-05,2.935955672001000494e-05,8.020847599254921079e-05,0.000000000000000000e+00
4.019539356231689453e-01,-1.000507591273697011e-01,-4.999891665417908748e-01,3.000001277160712632e-01,1.085679481754092061e-04,2.221392821649483817e+00,2.221391452311949344e+00,-1.856597331299821539e-03,4.057623740650786581e-04,2.109744001967387368e-08,1.068064226987252132e-07,1.175509077120919713e-08,-3.597464579797810761e-03,-1.461702648793355763e+00,-2.043481175099508107e+00,-2.118886772786275685e+00,1.020775914192199707e+00,-1.679988209401265919e+00,-3.141593043004171193e+00,-3.688450902700424194e-03,3.700446904986165464e-05,-7.143375114537775517e-05,3.432183075346983969e-05,9.098632290260866284e-05,0.000000000000000000e+00
4.108130931854248047e-01,-1.000613245464468115e-01,-4.999867815753991640e-01,3.000002387260189973e-01,1.313122181245182229e-04,2.221382819292085475e+00,2.221380923482896730e+00,-2.146665994362504087e-03,4.695371918870610509e-04,2.491421978955614782e-08,1.218691182768693109e-07,1.343285729620972385e-08,-4.164337762631488069e-03,-1.461723629628316701e+00,-2.043480698262349904e+00,-2.118887249623433888e+00,1.020776152610778809e+00,-1.679987732564107716e+00,-3.141593043004171193e+00,-4.265442490577697754e-03,4.305105903767980635e-05,-8.310413250001147389e-05,3.993046630057506263e-05,1.011047279462218285e-04,0.000000000000000000e+00
4.198091030120849609e-01,-1.000737882355810515e-01,-4.999840964988624958e-01,3.000001179343182445e-01,1.583507575109728397e-04,2.221370408819337783e+00,2.221369039473467311e+00,-2.467421907330354536e-03,5.403540639652616327e-04,2.547006935459066434e-08,1.445787373370181434e-07,1.589668804716437258e-08,-4.795203647518056153e-03,-1.461748425160543263e+00,-2.043480698262349904e+00,-2.118887726460592091e+00,1.020776391029357910e+00,-1.679987255726949513e+00,-3.141593043004171193e+00,-4.904068075120449066e-03,4.995032941224053502e-05,-9.643472731113433838e-05,4.633894786820746958e-05,1.088644276023842394e-04,0.000000000000000000e+00
4.276790618896484375e-01,-1.000881680900266024e-01,-4.999809474482656557e-01,3.000002289441398018e-01,1.895680624943964427e-04,2.221356591159867389e+00,2.221354695344738950e+00,-2.821557150213073895e-03,6.187856344012165151e-04,3.019809548243814081e-08,1.711996206470472465e-07,1.883739742760654363e-08,-5.494922552315990860e-03,-1.461777035390035451e+00,-2.043480221425191701e+00,-2.118888203297750294e+00,1.020776629447937012e+00,-1.679986778889791310e+00,-3.141593043004171193e+00,-5.609627347439527512e-03,5.775100362370721996e-05,-1.114934930228628218e-04,5.357025656849145889e-05,1.147047951235435903e-04,0.000000000000000000e+00
4.364838600158691406e-01,-1.001049966936852914e-01,-4.999771305097581720e-01,3.000002300879004991e-01,2.255944965968626934e-04,2.221340251896465556e+00,2.221338619307866136e+00,-3.212505875630420650e-03,7.051652772339928174e-04,3.628403802872654807e-08,1.922520123063719862e-07,2.112839129462603552e-08,-6.263936418690712639e-03,-1.461810413991109669e+00,-2.043479744588033498e+00,-2.118889156972066701e+00,1.020776987075805664e+00,-1.679985825215474904e+00,-3.141593043004171193e+00,-6.388043519109487534e-03,6.617691542487591505e-05,-1.277536357520148158e-04,6.138331082183867693e-05,1.241071004187688231e-04,0.000000000000000000e+00
4.452404975891113281e-01,-1.001243843554006641e-01,-4.999729642723469425e-01,3.000003301718103810e-01,2.679176626167184419e-04,2.221321551448221854e+00,2.221319129168104034e+00,-3.642851080404411329e-03,8.007704154687448218e-04,3.932040564423378862e-08,2.218224811402622343e-07,2.440475786650457485e-08,-7.117478831787624888e-03,-1.461849037800924123e+00,-2.043479267750875294e+00,-2.118889633809224904e+00,1.020777344703674316e+00,-1.679985348378316701e+00,-3.141593043004171193e+00,-7.245939224958419800e-03,7.582871330669149756e-05,-1.463942462578415871e-04,7.034237205516546965e-05,1.284603931708261371e-04,0.000000000000000000e+00
4.540696144104003906e-01,-1.001464485874229010e-01,-4.999681774262376144e-01,3.000000995146328009e-01,3.156510526961213013e-04,2.221299465020566188e+00,2.221298358872874523e+00,-4.116708430203288964e-03,9.061519099287449874e-04,4.650621532603689661e-08,2.428503291843688538e-07,2.661900438848578790e-08,-8.058264400460724355e-03,-1.461892906819478810e+00,-2.043479267750875294e+00,-2.118890587483541310e+00,1.020777702331542969e+00,-1.679984394704000294e+00,-3.141593043004171193e+00,-8.190732449293136597e-03,8.651294047012925148e-05,-1.670125930104404688e-04,8.025534771149978042e-05,1.324680488323792815e-04,0.000000000000000000e+00
4.619288444519042969e-01,-1.001718271306900471e-01,-4.999625297662985690e-01,3.000003106077401838e-01,3.711827367893041668e-04,2.221275052424444674e+00,2.221272630142036242e+00,-4.637753945155800514e-03,1.022616850233942125e-03,5.405590846327524220e-08,2.765341674033742718e-07,3.036482017110367600e-08,-9.100388982915340319e-03,-1.461943451558248341e+00,-2.043478314076558888e+00,-2.118891541157857716e+00,1.020778298377990723e+00,-1.679983917866842091e+00,-3.141593043004171193e+00,-9.230751544237136841e-03,9.867964399745687842e-05,-1.904966338770464063e-04,9.153879364021122456e-05,1.303625613218173385e-04,0.000000000000000000e+00
4.705553054809570312e-01,-1.002008341222671850e-01,-4.999560832689411427e-01,3.000002018858685116e-01,4.342564023550214767e-04,2.221246174403093576e+00,2.221244805006908685e+00,-5.211140964368667777e-03,1.150904425204312201e-03,6.281904020580259041e-08,3.034349313287482617e-07,3.322262321685865368e-08,-1.024789072107519863e-02,-1.462001148854390919e+00,-2.043477837239400685e+00,-2.118892971669332326e+00,1.020778775215148926e+00,-1.679982964192525685e+00,-3.141593043004171193e+00,-1.037537585943937302e-02,1.121075110859237611e-04,-2.164105826523154974e-04,1.039978233166038990e-04,1.274851383641362190e-04,0.000000000000000000e+00
4.787814617156982422e-01,-1.002336580069609073e-01,-4.999488429587954919e-01,3.000000713129997720e-01,5.057720297965091543e-04,2.221213730089139027e+00,2.221212887118129586e+00,-5.842530094044152966e-03,1.291960900335537661e-03,6.889066020764851443e-08,3.430337702522481447e-07,3.749482066061364293e-08,-1.150716685515356524e-02,-1.462066475545064748e+00,-2.043477360402242482e+00,-2.118894402180806935e+00,1.020779490470886230e+00,-1.679982010518209279e+00,-3.141593043004171193e+00,-1.163519546389579773e-02,1.266494946321472526e-04,-2.444892888888716698e-04,1.174947174149565399e-04,1.280286087421700358e-04,0.000000000000000000e+00
4.871859550476074219e-01,-1.002709757589079625e-01,-4.999406102271511942e-01,3.000001725399746300e-01,5.878181515746053404e-04,2.221177015385616738e+00,2.221175645961519507e+00,-6.537698203318533657e-03,1.447326303421259336e-03,7.723898155320353574e-08,3.918634793890377165e-07,4.282711769515576207e-08,-1.289286260725924609e-02,-1.462140862141744435e+00,-2.043476406727926076e+00,-2.118895832692281544e+00,1.020780205726623535e+00,-1.679981533681051076e+00,-3.141593043004171193e+00,-1.302220579236745834e-02,1.426185481250286102e-04,-2.753192966338247061e-04,1.323065516771748662e-04,1.293431851081550121e-04,0.000000000000000000e+00
4.957756996154785156e-01,-1.003133636385452748e-01,-4.999311800698182928e-01,3.000001639016362520e-01,6.804944881900923219e-04,2.221135153796707673e+00,2.221134047567982606e+00,-7.303346092735596602e-03,1.618647952298083890e-03,8.681486222814376080e-08,4.371046350541019481e-07,4.770976763405800409e-08,-1.441998533846337339e-02,-1.462225262318746388e+00,-2.043475453053609669e+00,-2.118897740040914357e+00,1.020781040191650391e+00,-1.679980580006734669e+00,-3.141593043004171193e+00,-1.455003488808870316e-02,1.602536940481513739e-04,-3.093621053267270327e-04,1.486687106080353260e-04,1.300495496252551675e-04,0.000000000000000000e+00
5.040111541748046875e-01,-1.003611924258133586e-01,-4.999206182693389233e-01,3.000001334119375973e-01,7.858457415072224537e-04,2.221087816265186365e+00,2.221086446805385695e+00,-8.147179325529685726e-03,1.807767789923254032e-03,9.551505859077500467e-08,4.949441548184447292e-07,5.398162033533630507e-08,-1.610492354666340914e-02,-1.462320629750387013e+00,-2.043474499379293263e+00,-2.118899647389547169e+00,1.020782113075256348e+00,-1.679980103169576466e+00,-3.141593043004171193e+00,-1.623422093689441681e-02,1.797878358047455549e-04,-3.470794763416051865e-04,1.667937613092362881e-04,1.292973902309313416e-04,0.000000000000000000e+00
5.124413967132568359e-01,-1.004150515623432605e-01,-4.999085965500414397e-01,3.000002357814484100e-01,9.038990770522203986e-04,2.221034751626906889e+00,2.221033118942741247e+00,-9.078026844810337462e-03,2.016771438299796732e-03,1.072881597104460873e-07,5.505868658355016182e-07,5.999488101689475440e-08,-1.796611252939320572e-02,-1.462427918110982716e+00,-2.043473068867818654e+00,-2.118902031575338185e+00,1.020783185958862305e+00,-1.679979149495260060e+00,-3.141593043004171193e+00,-1.809253171086311340e-02,2.014703932218253613e-04,-3.889352083206176758e-04,1.869109692052006721e-04,1.264191814698278904e-04,0.000000000000000000e+00
5.206573009490966797e-01,-1.005050220553296431e-01,-4.998886402269656637e-01,3.000002075782637889e-01,1.101386267895227257e-03,2.220945651834957069e+00,2.220944282318241925e+00,-1.385882498099881045e-02,3.082323083101999334e-03,1.642847799205321773e-07,8.400189454328486708e-07,9.135117011432230624e-08,-2.744077391980667344e-02,-1.462607208882467091e+00,-2.043471161519185841e+00,-2.118905846272603810e+00,1.020784974098205566e+00,-1.679977718983785451e+00,-3.141593043004171193e+00,-2.762361615896224976e-02,3.082387847825884819e-04,-5.950484191998839378e-04,2.859646629076451063e-04,1.828422391554340720e-04,0.000000000000000000e+00
5.293703079223632812e-01,-1.005923242260813866e-01,-4.998691816838815027e-01,3.000001684492157317e-01,1.293549723246324983e-03,2.220859054129535437e+00,2.220857684578284807e+00,-1.364438160183002041e-02,3.039502643252381831e-03,1.604837686344600518e-07,8.311252296817618997e-07,9.021890784841952914e-08,-2.705143098137327215e-02,-1.462781254445211232e+00,-2.043469254170553029e+00,-2.118909660969869435e+00,1.020786881446838379e+00,-1.679976765309469044e+00,-3.141593043004171193e+00,-2.720231376588344574e-02,3.053564578294754028e-04,-5.894912173971533775e-04,2.832987520378082991e-04,1.508827845100313425e-04,0.000000000000000000e+00
5.377914905548095703e-01,-1.006820046517341999e-01,-4.998492415211539530e-01,3.000001402456217714e-01,1.491005677135438974e-03,2.220769937015389051e+00,2.220768830608047306e+00,-1.408684881635629930e-02,3.143321657400492686e-03,1.690943569850701608e-07,8.557682368919715386e-07,9.270457979835762001e-08,-2.796731203852671072e-02,-1.462960068379537404e+00,-2.043467346821920216e+00,-2.118913475667135060e+00,1.020788669586181641e+00,-1.679975811635152638e+00,-3.141593043004171193e+00,-2.809112705290317535e-02,3.173338482156395912e-04,-6.126032094471156597e-04,2.944085863418877125e-04,1.238150143763050437e-04,0.000000000000000000e+00
5.462629795074462891e-01,-1.007771498267258231e-01,-4.998278943668466034e-01,3.000002230476619403e-01,1.701119600774238586e-03,2.220675334516668542e+00,2.220673964892174279e+00,-1.497561908434336987e-02,3.348593988328908266e-03,1.808885475566470215e-07,9.145257513910881509e-07,9.887920854504257524e-08,-2.979023519583262267e-02,-1.463149849568502248e+00,-2.043464962636129201e+00,-2.118917767201558888e+00,1.020790696144104004e+00,-1.679975334797994435e+00,-3.141593043004171193e+00,-2.987316623330116272e-02,3.405082097742706537e-04,-6.573408027179539204e-04,3.159127372782677412e-04,8.293103746837005019e-05,0.000000000000000000e+00
5.544722080230712891e-01,-1.008808732165295541e-01,-4.998047700122533188e-01,3.000002839970435375e-01,1.930238956247483893e-03,2.220572381068429024e+00,2.220570221917759657e+00,-1.620495692933625678e-02,3.630893120904671312e-03,1.958014563160515314e-07,1.004711926131520447e-06,1.084043749317244258e-07,-3.229318901503556299e-02,-1.463356796895162404e+00,-2.043462578450338185e+00,-2.118922058735982716e+00,1.020792961120605469e+00,-1.679974857960836232e+00,-3.141593043004171193e+00,-3.233521804213523865e-02,3.715527709573507309e-04,-7.172782206907868385e-04,3.447149065323174000e-04,4.202902709948830307e-05,0.000000000000000000e+00
5.624647140502929688e-01,-1.009953109725795634e-01,-4.997790905757957813e-01,3.000001361475332917e-01,2.183778853816526096e-03,2.220457560639063299e+00,2.220456454079522413e+00,-1.772435263638203265e-02,3.979578284150046483e-03,2.168083331403038958e-07,1.087124079030718851e-06,1.169989192094454778e-07,-3.538032883261598566e-02,-1.463585201893941701e+00,-2.043460194264547169e+00,-2.118927303944722951e+00,1.020795345306396484e+00,-1.679974857960836232e+00,-3.141593043004171193e+00,-3.537735715508460999e-02,4.095680487807840109e-04,-7.906567188911139965e-04,3.799952683039009571e-04,-2.971677531604655087e-06,0.000000000000000000e+00
5.708250999450683594e-01,-1.011221660363385705e-01,-4.997505782249429540e-01,3.000000883770991833e-01,2.464763260184652058e-03,2.220330688229762650e+00,2.220329844748695436e+00,-1.951684331415650883e-02,4.391481941612293376e-03,2.459174166267551650e-07,1.184675186389420273e-06,1.271746065049519672e-07,-3.902170629953591319e-02,-1.463838402424947560e+00,-2.043457333241597951e+00,-2.118933025990621388e+00,1.020798087120056152e+00,-1.679974857960836232e+00,-3.141593043004171193e+00,-3.896644338965415955e-02,4.543764225672930479e-04,-8.771326974965631962e-04,4.215647932142019272e-04,-5.526290988200344145e-05,0.000000000000000000e+00
5.790631771087646484e-01,-1.012639692529621882e-01,-4.997186925759719012e-01,3.000001406835318130e-01,2.780060389961257292e-03,2.220188654907199410e+00,2.220187285089768814e+00,-2.158688681845823479e-02,4.868316182634263752e-03,2.783922573478728595e-07,1.297778992814141084e-06,1.388942796251752512e-07,-4.322984621830953944e-02,-1.464121643696920216e+00,-2.043453995381490529e+00,-2.118939224873678029e+00,1.020801186561584473e+00,-1.679975811635152638e+00,-3.141593043004171193e+00,-4.311209544539451599e-02,5.062595591880381107e-04,-9.772659977898001671e-04,4.697012482210993767e-04,-1.177507729153148830e-04,0.000000000000000000e+00
5.877947807312011719e-01,-1.014645486679924408e-01,-4.996732500024949064e-01,3.000000865562905683e-01,3.225525459567237484e-03,2.219987104722680904e+00,2.219986787262586247e+00,-2.739587375131195476e-02,6.193096335579470826e-03,3.575929772563771934e-07,1.638449109257504165e-06,1.747562545839843788e-07,-5.491333542158793185e-02,-1.464522186909810841e+00,-2.043449227009908498e+00,-2.118948761616842091e+00,1.020805478096008301e+00,-1.679976765309469044e+00,-3.141593043004171193e+00,-5.472550541162490845e-02,6.450343644246459007e-04,-1.245136838406324387e-03,5.984547315165400505e-04,-1.878300099633634090e-04,0.000000000000000000e+00
5.967812538146972656e-01,-1.014645486679924408e-01,-4.996732500024949064e-01,3.000000865562905683e-01,3.225525459567237484e-03,2.219987104722680904e+00,2.219986787262586247e+00,0.000000000000000000e+00,0.000000000000000000e+00,0.000000000000000000e+00,0.000000000000000000e+00,0.000000000000000000e+00,0.000000000000000000e+00,-1.464522186909810841e+00,-2.043449227009908498e+00,-2.118948761616842091e+00,1.020805478096008301e+00,-1.679976765309469044e+00,-3.141593043004171193e+00,0.000000000000000000e+00,0.000000000000000000e+00,0.000000000000000000e+00,0.000000000000000000e+00,0.000000000000000000e+00,0.000000000000000000e+00
6.054806709289550781e-01,-1.014645486679924408e-01,-4.996732500024949064e-01,3.000000865562905683e-01,3.225525459567237484e-03,2.219987104722680904e+00,2.219986787262586247e+00,0.000000000000000000e+00,0.000000000000000000e+00,0.000000000000000000e+00,0.000000000000000000e+00,0.000000000000000000e+00,0.000000000000000000e+00,-1.464522186909810841e+00,-2.043449227009908498e+00,-2.118948761616842091e+00,1.020805478096008301e+00,-1.679976765309469044e+00,-3.141593043004171193e+00,0.000000000000000000e+00,0.000000000000000000e+00,0.000000000000000000e+00,0.000000000000000000e+00,0.000000000000000000e+00,0.000000000000000000e+00
6.138987541198730469e-01,-1.014867167219900695e-01,-4.996682466901689601e-01,3.000000658475772686e-01,3.275231114084138813e-03,2.219964782144205007e+00,2.219964201560000738e+00,-5.710748106705764750e-03,1.298908679255435412e-03,7.476145637897093483e-08,3.563391087963957494e-07,3.796155489840144182e-08,-1.155788022151674720e-02,-1.464566532765523732e+00,-2.043448750172750294e+00,-2.118949715291158498e+00,1.020806074142456055e+00,-1.679977242146627248e+00,-3.141593043004171193e+00,-1.142400037497282028e-02,1.405544171575456858e-04,-2.713284047786146402e-04,1.304156321566551924e-04,-1.338798465440049767e-04,0.000000000000000000e+00
6.220073699951171875e-01,-1.015422336426060612e-01,-4.996557033079658261e-01,3.000001572826899721e-01,3.400026901015342200e-03,2.219908671865239214e+00,2.219907565039515251e+00,-1.015629740119022850e-02,2.312978547126828908e-03,1.360027348192839542e-07,6.318343011027684412e-07,6.717155962144119593e-08,-2.058083954034357205e-02,-1.464677635823385060e+00,-2.043447319661275685e+00,-2.118952099476949513e+00,1.020807266235351562e+00,-1.679978672658101857e+00,-3.141593043004171193e+00,-2.032127976417541504e-02,2.513615763746201992e-04,-4.852225829381495714e-04,2.332256117369979620e-04,-2.595597761683166027e-04,0.000000000000000000e+00
6.308219432830810547e-01,-1.016256387124087335e-01,-4.996365194073434379e-01,3.000002400760392596e-01,3.587766066432828468e-03,2.219824010715129248e+00,2.219822640754128162e+00,-1.390312103502031917e-02,3.171404051270114086e-03,1.905890627180898365e-07,8.455837420174227270e-07,8.968580949524673931e-08,-2.821324908290964717e-02,-1.464844528828756154e+00,-2.043444935475484669e+00,-2.118956391011373341e+00,1.020809292793273926e+00,-1.679981056843892873e+00,-3.141593043004171193e+00,-2.782494761049747467e-02,3.462404711171984673e-04,-6.683556130155920982e-04,3.212648152839392424e-04,-3.883014724124222994e-04,0.000000000000000000e+00
6.387784481048583984e-01,-1.017340102270672952e-01,-4.996118210602281118e-01,3.000000813012138612e-01,3.832131084930699098e-03,2.219713281731785504e+00,2.219712700980905673e+00,-1.730583351309797693e-02,3.955216425587680662e-03,2.376697246305843066e-07,1.058253030183701934e-06,1.121736927520849778e-07,-3.517302859108871471e-02,-1.465061489735738576e+00,-2.043442551289693654e+00,-2.118961636220113576e+00,1.020811796188354492e+00,-1.679984394704000294e+00,-3.141593043004171193e+00,-3.464455902576446533e-02,4.339111328590661287e-04,-8.375917095690965652e-04,4.026163951493799686e-04,-5.284695653244853020e-04,0.000000000000000000e+00
6.472125053405761719e-01,-1.018668865585533601e-01,-4.995815116657390531e-01,3.000001336001055785e-01,4.131919767602383955e-03,2.219578079851970642e+00,2.219576972867057130e+00,-2.059905266077800140e-02,4.718377588303232680e-03,2.863059860336442265e-07,1.262288456433284054e-06,1.332818900833493257e-07,-4.193707887316087957e-02,-1.465327564870015919e+00,-2.043439213429586232e+00,-2.118967835103170216e+00,1.020814895629882812e+00,-1.679988686238424123e+00,-3.141593043004171193e+00,-4.124995693564414978e-02,5.202607717365026474e-04,-1.004267600364983082e-03,4.827375232707709074e-04,-6.871219375170767307e-04,0.000000000000000000e+00
6.559596061706542969e-01,-1.020247577964449454e-01,-4.995452978678521783e-01,3.000002980368992045e-01,4.488226103726445509e-03,2.219417415307142871e+00,2.219415519072279075e+00,-2.394974474458939559e-02,5.499729841986934244e-03,3.345944387691997636e-07,1.468823859105730533e-06,1.542706817815402271e-07,-4.884700634283882514e-02,-1.465643707905904591e+00,-2.043434921895162404e+00,-2.118975464497701466e+00,1.020818591117858887e+00,-1.679993931447164357e+00,-3.141593043004171193e+00,-4.797596484422683716e-02,6.095756543800234795e-04,-1.176671590656042099e-03,5.656190332956612110e-04,-8.710414986126124859e-04,0.000000000000000000e+00
6.643548011779785156e-01,-1.022084739485368821e-01,-4.995030433023726069e-01,3.000003428295859864e-01,4.904253659334442857e-03,2.219229339810155910e+00,2.219227443536336608e+00,-2.748818567358356224e-02,6.330083619023202726e-03,3.866849530577324815e-07,1.686676124737214578e-06,1.764487926256849811e-07,-5.617162748239859504e-02,-1.466011826192037404e+00,-2.043430153523580373e+00,-2.118984524403707326e+00,1.020822882652282715e+00,-1.680001084004537404e+00,-3.141593043004171193e+00,-5.508429184556007385e-02,7.053427980281412601e-04,-1.361528178676962852e-03,6.544895004481077194e-04,-1.087335636839270592e-03,0.000000000000000000e+00
6.723053455352783203e-01,-1.024211450722782163e-01,-4.994538806042460033e-01,3.000001472006935122e-01,5.386870357769417590e-03,2.219010478440119893e+00,2.219009897224337724e+00,-3.132710689147456817e-02,7.236741176201072490e-03,4.468977566437142531e-07,1.923117491967232305e-06,2.010704096967146038e-07,-6.414606014732228412e-02,-1.466438118611470998e+00,-2.043424908314840138e+00,-2.118995491658345998e+00,1.020828008651733398e+00,-1.680010143910543263e+00,-3.141593043004171193e+00,-6.280200183391571045e-02,8.106852183118462563e-04,-1.564857666380703449e-03,7.522388477809727192e-04,-1.344058313407003880e-03,0.000000000000000000e+00
6.805996894836425781e-01,-1.026653525981566228e-01,-4.993975054252601242e-01,3.000001407838347456e-01,5.941679516519447063e-03,2.218759681219372393e+00,2.218758573842310344e+00,-3.557063978247223396e-02,8.249316688075479867e-03,5.014156345211893687e-07,2.211116017787478769e-06,2.296403816803621577e-07,-7.304462778847599369e-02,-1.466927830372945607e+00,-2.043418709431783498e+00,-2.119007412587301076e+00,1.020833969116210938e+00,-1.680021111165181935e+00,-3.141593043004171193e+00,-7.134732604026794434e-02,9.316174546256661415e-04,-1.798330456949770451e-03,8.644899935461580753e-04,-1.697301748208701611e-03,0.000000000000000000e+00
6.902515888214111328e-01,-1.029453021648807087e-01,-4.993323771716661752e-01,3.000002585613774642e-01,6.579837852129124046e-03,2.218470896458535346e+00,2.218469525972291745e+00,-4.033582488871791105e-02,9.393446242378191910e-03,5.757303073107900298e-07,2.531174702783017939e-06,2.611064201565939692e-07,-8.305934816598799231e-02,-1.467489544545308888e+00,-2.043411080037252248e+00,-2.119021717702047169e+00,1.020840764045715332e+00,-1.680035416279928029e+00,-3.141593043004171193e+00,-8.094884455204010010e-02,1.068530022166669369e-03,-2.062609419226646423e-03,9.915347909554839134e-04,-2.110503613948822021e-03,0.000000000000000000e+00
6.983680725097656250e-01,-1.031995283006633957e-01,-4.992729784898518597e-01,3.000001543487829658e-01,7.159796887979442102e-03,2.218207839470299536e+00,2.218207257725210546e+00,-4.545151819674803778e-02,1.061773413128866070e-02,6.527333180500569617e-07,2.865556977399422871e-06,2.949570093873197829e-07,-9.372720308601788231e-02,-1.467999760304586232e+00,-2.043404404317037404e+00,-2.119035069142476857e+00,1.020847082138061523e+00,-1.680048767720357716e+00,-3.141593043004171193e+00,-9.124522656202316284e-02,1.210877206176519394e-03,-2.337381243705749512e-03,1.123623340390622616e-03,-2.481976523995399475e-03,0.000000000000000000e+00
7.068197727203369141e-01,-1.031995283006633957e-01,-4.992729784898518597e-01,3.000001543487829658e-01,7.159796887979442102e-03,2.218207839470299536e+00,2.218207257725210546e+00,0.000000000000000000e+00,0.000000000000000000e+00,0.000000000000000000e+00,0.000000000000000000e+00,0.000000000000000000e+00,0.000000000000000000e+00,-1.467999760304586232e+00,-2.043404404317037404e+00,-2.119035069142476857e+00,1.020847082138061523e+00,-1.680048767720357716e+00,-3.141593043004171193e+00,0.000000000000000000e+00,0.000000000000000000e+00,0.000000000000000000e+00,0.000000000000000000e+00,0.000000000000000000e+00,0.000000000000000000e+00
7.149298191070556641e-01,-1.031995283006633957e-01,-4.992729784898518597e-01,3.000001543487829658e-01,7.159796887979442102e-03,2.218207839470299536e+00,2.218207257725210546e+00,0.000000000000000000e+00,0.000000000000000000e+00,0.000000000000000000e+00,0.000000000000000000e+00,0.000000000000000000e+00,0.000000000000000000e+00,-1.467999760304586232e+00,-2.043404404317037404e+00,-2.119035069142476857e+00,1.020847082138061523e+00,-1.680048767720357716e+00,-3.141593043004171193e+00,0.000000000000000000e+00,0.000000000000000000e+00,0.000000000000000000e+00,0.000000000000000000e+00,0.000000000000000000e+00,0.000000000000000000e+00
7.234766483306884766e-01,-1.032300995478027672e-01,-4.992658551690501989e-01,3.000002555537765181e-01,7.230532604260889173e-03,2.218176027004559625e+00,2.218174919349409357e+00,-7.826942555412344515e-03,1.843557105847791694e-03,1.231026065095340863e-07,4.897557968901483100e-07,5.018689434440557229e-08,-1.635186193743702956e-02,-1.468061272297994435e+00,-2.043403450642720998e+00,-2.119036499653951466e+00,1.020847797393798828e+00,-1.680051151906148732e+00,-3.141593043004171193e+00,-1.574400067329406738e-02,2.201527677243575454e-04,-4.249407793395221233e-04,2.042956912191584706e-04,-6.078612641431391239e-04,0.000000000000000000e+00
7.374081611633300781e-01,-1.033135334347059786e-01,-4.992460896252980396e-01,3.000002175532879845e-01,7.423816286297147196e-03,2.218088321440595312e+00,2.218087476680464132e+00,-1.478789952626040176e-02,3.489918201829351682e-03,2.310517895712838583e-07,9.288778779699142586e-07,9.514782965906482305e-08,-3.095587494317414076e-02,-1.468229118977681935e+00,-2.043401066456929982e+00,-2.119041268025533498e+00,1.020850062370300293e+00,-1.680057827626363576e+00,-3.141593043004171193e+00,-2.975616045296192169e-02,4.192597116343677044e-04,-8.092685602605342865e-04,3.890751104336231947e-04,-1.199714490212500095e-03,0.000000000000000000e+00
7.467639446258544922e-01,-1.034312978464915073e-01,-4.992183722120863143e-01,3.000002698301863502e-01,7.696769035291438181e-03,2.217964844238751621e+00,2.217963473558626220e+00,-2.082644622675575152e-02,4.921699964404975883e-03,3.245817888243233980e-07,1.309646170641192620e-06,1.334218327934297522e-07,-4.362055764067858388e-02,-1.468466107045308888e+00,-2.043397728596822560e+00,-2.119047466908590138e+00,1.020853161811828613e+00,-1.680067364369527638e+00,-3.141593043004171193e+00,-4.191264137625694275e-02,5.916695808991789818e-04,-1.142063178122043610e-03,5.490771727636456490e-04,-1.707916264422237873e-03,0.000000000000000000e+00
7.548687458038330078e-01,-1.034312978464915073e-01,-4.992183722120863143e-01,3.000002698301863502e-01,7.696769035291438181e-03,2.217964844238751621e+00,2.217963473558626220e+00,0.000000000000000000e+00,0.000000000000000000e+00,0.000000000000000000e+00,0.000000000000000000e+00,0.000000000000000000e+00,0.000000000000000000e+00,-1.468466107045308888e+00,-2.043397728596822560e+00,-2.119047466908590138e+00,1.020853161811828613e+00,-1.680067364369527638e+00,-3.141593043004171193e+00,0.000000000000000000e+00,0.000000000000000000e+00,0.000000000000000000e+00,0.000000000000000000e+00,0.000000000000000000e+00,0.000000000000000000e+00
7.638103961944580078e-01,-1.034312978464915073e-01,-4.992183722120863143e-01,3.000002698301863502e-01,7.696769035291438181e-03,2.217964844238751621e+00,2.217963473558626220e+00,0.000000000000000000e+00,0.000000000000000000e+00,0.000000000000000000e+00,0.000000000000000000e+00,0.000000000000000000e+00,0.000000000000000000e+00,-1.468466107045308888e+00,-2.043397728596822560e+00,-2.119047466908590138e+00,1.020853161811828613e+00,-1.680067364369527638e+00,-3.141593043004171193e+00,0.000000000000000000e+00,0.000000000000000000e+00,0.000000000000000000e+00,0.000000000000000000e+00,0.000000000000000000e+00,0.000000000000000000e+00
7.721238136291503906e-01,-1.034588965011151440e-01,-4.992116373503521221e-01,3.000002611848297529e-01,7.762779607603027821e-03,2.217934801735086836e+00,2.217933693966071651e+00,-7.035940284712743041e-03,1.694985427149562447e-03,1.243448067895495629e-07,4.397253066085111163e-07,4.464207229821681552e-08,-1.519686181563862856e-02,-1.468521896992818654e+00,-2.043396774922506154e+00,-2.119049374257222951e+00,1.020853996276855469e+00,-1.680071179066793263e+00,-3.141593043004171193e+00,-1.422720029950141907e-02,2.251882397104054689e-04,-4.346460627857595682e-04,2.090158377541229129e-04,-9.696615161374211311e-04,0.000000000000000000e+00
7.805635929107666016e-01,-1.035314754741188115e-01,-4.991941986706413537e-01,3.000003330306256211e-01,7.936974145034135161e-03,2.217856065709841840e+00,2.217854432074263915e+00,-1.302818943876463305e-02,3.146574414840155789e-03,2.316716293537095659e-07,8.439233779179735152e-07,8.509955277454790806e-08,-2.822752157226136177e-02,-1.468668762837545216e+00,-2.043394390736715138e+00,-2.119053665791646779e+00,1.020856142044067383e+00,-1.680081669484273732e+00,-3.141593043004171193e+00,-2.635776065289974213e-02,4.217645910102874041e-04,-8.140767458826303482e-04,3.914639528375118971e-04,-1.869760919362306595e-03,0.000000000000000000e+00
7.888112068176269531e-01,-1.036500190285311179e-01,-4.991654720203558271e-01,3.000002765961484741e-01,8.221538894852081780e-03,2.217726789491743844e+00,2.217725681625836387e+00,-1.911268813661555835e-02,4.623253477112226374e-03,3.402675529558262059e-07,1.249574426996317263e-06,1.263637180859304488e-07,-4.144659312441884014e-02,-1.468908611928121388e+00,-2.043390576039449513e+00,-2.119061295186178029e+00,1.020859718322753906e+00,-1.680098835621969044e+00,-3.141593043004171193e+00,-3.867494314908981323e-02,6.206131656654179096e-04,-1.197891775518655777e-03,5.760226631537079811e-04,-2.771649975329637527e-03,0.000000000000000000e+00
7.977626323699951172e-01,-1.036500190285311179e-01,-4.991654720203558271e-01,3.000002765961484741e-01,8.221538894852081780e-03,2.217726789491743844e+00,2.217725681625836387e+00,0.000000000000000000e+00,0.000000000000000000e+00,0.000000000000000000e+00,0.000000000000000000e+00,0.000000000000000000e+00,0.000000000000000000e+00,-1.468908611928121388e+00,-2.043390576039449513e+00,-2.119061295186178029e+00,1.020859718322753906e+00,-1.680098835621969044e+00,-3.141593043004171193e+00,0.000000000000000000e+00,0.000000000000000000e+00,0.000000000000000000e+00,0.000000000000000000e+00,0.000000000000000000e+00,0.000000000000000000e+00
8.062269687652587891e-01,-1.036500190285311179e-01,-4.991654720203558271e-01,3.000002765961484741e-01,8.221538894852081780e-03,2.217726789491743844e+00,2.217725681625836387e+00,0.000000000000000000e+00,0.000000000000000000e+00,0.000000000000000000e+00,0.000000000000000000e+00,0.000000000000000000e+00,0.000000000000000000e+00,-1.468908611928121388e+00,-2.043390576039449513e+00,-2.119061295186178029e+00,1.020859718322753906e+00,-1.680098835621969044e+00,-3.141593043004171193e+00,0.000000000000000000e+00,0.000000000000000000e+00,0.000000000000000000e+00,0.000000000000000000e+00,0.000000000000000000e+00,0.000000000000000000e+00
8.143510818481445312e-01,-1.036744141069142755e-01,-4.991595449761356273e-01,3.000003668714654181e-01,8.281673140140532671e-03,2.217699873419941348e+00,2.217697976840775631e+00,-6.292703305998596439e-03,1.547827895125652954e-03,1.191929602500581164e-07,4.140051089425812566e-07,4.125101867958136514e-08,-1.401212182827240270e-02,-1.468958202992574513e+00,-2.043389622365133107e+00,-2.119062725697652638e+00,1.020860552787780762e+00,-1.680103603993551076e+00,-3.141593043004171193e+00,-1.278719957917928696e-02,2.244511997560039163e-04,-4.332310345489531755e-04,2.083637809846550226e-04,-1.224922249093651772e-03,0.000000000000000000e+00
8.225998878479003906e-01,-1.037375344703379831e-01,-4.991439246624759241e-01,3.000001189606156249e-01,8.437482798573798723e-03,2.217628370120126480e+00,2.217628313783289506e+00,-1.141624975286276329e-02,2.817384105021334979e-03,2.163883548853019542e-07,7.620017778525480397e-07,7.771588078158109082e-08,-2.553398045711203698e-02,-1.469086472188131154e+00,-2.043387715016500294e+00,-2.119067494069234669e+00,1.020862579345703125e+00,-1.680116001759664357e+00,-3.141593043004171193e+00,-2.321587130427360535e-02,4.133774491492658854e-04,-7.979032234288752079e-04,3.837598196696490049e-04,-2.318109152838587761e-03,0.000000000000000000e+00
8.311579227447509766e-01,-1.038340600391925023e-01,-4.991200381972229483e-01,3.000002822165117045e-01,8.677573657743320804e-03,2.217519927139924185e+00,2.217518819178911471e+00,-1.588699894102783144e-02,3.936416680374132775e-03,3.034260051979504599e-07,1.078650129171921621e-06,1.081744460433737544e-07,-3.571477252989942175e-02,-1.469282929097310841e+00,-2.043383900319234669e+00,-2.119074169789449513e+00,1.020865917205810547e+00,-1.680136505757467091e+00,-3.141593043004171193e+00,-3.233557939529418945e-02,5.851602181792259216e-04,-1.129487296566367149e-03,5.432430189102888107e-04,-3.379193134605884552e-03,0.000000000000000000e+00
8.409197330474853516e-01,-1.039619298055289437e-01,-4.990883264126581009e-01,3.000003160511134359e-01,8.996311525947554497e-03,2.217375412434396953e+00,2.217374041537675478e+00,-2.004763477959971285e-02,4.990535672498298304e-03,3.905512045519214140e-07,1.387388065990740405e-06,1.381660112972501537e-07,-4.532745666801814288e-02,-1.469543282185689748e+00,-2.043379131947652638e+00,-2.119083229695455373e+00,1.020870327949523926e+00,-1.680164162312642873e+00,-3.141593043004171193e+00,-4.084446281194686890e-02,7.525379769504070282e-04,-1.452560303732752800e-03,6.986280786804854870e-04,-4.482993856072425842e-03,0.000000000000000000e+00
8.490638732910156250e-01,-1.041202484163289560e-01,-4.990489019819078775e-01,3.000002095403317970e-01,9.394179368831688179e-03,2.217194694739358596e+00,2.217193586629575108e+00,-2.413963600986565247e-02,6.041238982775315979e-03,4.830433874437048891e-07,1.677170687285413978e-06,1.669894953711191838e-07,-5.492923455312741926e-02,-1.469866100941793263e+00,-2.043373409901754201e+00,-2.119094673787252248e+00,1.020875930786132812e+00,-1.680200878773824513e+00,-3.141593043004171193e+00,-4.923646152019500732e-02,9.251933079212903976e-04,-1.785802189260721207e-03,8.589234203100204468e-04,-5.692773032933473587e-03,0.000000000000000000e+00
8.575260639190673828e-01,-1.043101874256115030e-01,-4.990011472505742063e-01,3.000003272666392218e-01,9.874248149411674405e-03,2.216976816037681264e+00,2.216975444997308475e+00,-2.834672765982460332e-02,7.136767174143974872e-03,5.885162288388646450e-07,1.963482746385806790e-06,1.936771375043765831e-07,-6.495891697704615775e-02,-1.470253769551412404e+00,-2.043365780507222951e+00,-2.119108978901998341e+00,1.020882725715637207e+00,-1.680247131978170216e+00,-3.141593043004171193e+00,-5.788982659578323364e-02,1.111273770220577717e-03,-2.144925761967897415e-03,1.031678984872996807e-03,-7.069090381264686584e-03,0.000000000000000000e+00
8.656480312347412109e-01,-1.045336268580965705e-01,-4.989444442663741319e-01,3.000003057807424378e-01,1.044444982794801371e-02,2.216717528766482204e+00,2.216716683246418018e+00,-3.280259750719412976e-02,8.332993978295337445e-03,7.119213347073793496e-07,2.280738423922661313e-06,2.256207660121661764e-07,-7.602725271135456209e-02,-1.470710579548970998e+00,-2.043356720601217091e+00,-2.119126621876851857e+00,1.020891070365905762e+00,-1.680305782948629201e+00,-3.141593043004171193e+00,-6.712285429239273071e-02,1.332716317847371101e-03,-2.572295255959033966e-03,1.237287069670855999e-03,-8.904398418962955475e-03,0.000000000000000000e+00
8.741090297698974609e-01,-1.047936029791682738e-01,-4.988782141843264850e-01,3.000002330726274646e-01,1.111519709802242899e-02,2.216412629436722348e+00,2.216411783749697051e+00,-3.766708202983644338e-02,9.656932582319310843e-03,8.406555368574129305e-07,2.656605368198399782e-06,2.611126868137805938e-07,-8.828537259250744673e-02,-1.471243206654683888e+00,-2.043346230183736623e+00,-2.119147125874654591e+00,1.020901083946228027e+00,-1.680379692708150685e+00,-3.141593043004171193e+00,-7.723131030797958374e-02,1.583909383043646812e-03,-3.057121997699141502e-03,1.470543211326003075e-03,-1.105406228452920914e-02,0.000000000000000000e+00
8.824527263641357422e-01,-1.050946630501956303e-01,-4.988006795592818121e-01,3.000002540243077442e-01,1.190013912513214131e-02,2.216055586434754865e+00,2.216054740552872993e+00,-4.308039132506880781e-02,1.115250902269160349e-02,9.979639677832004001e-07,3.105187414713712308e-06,3.029938190669445857e-07,-1.021449398249371504e-01,-1.471861187611715138e+00,-2.043333355580465138e+00,-2.119171921406881154e+00,1.020913004875183105e+00,-1.680471722279683888e+00,-3.141593043004171193e+00,-8.851617574691772461e-02,1.875269808806478977e-03,-3.619448747485876083e-03,1.741059008054435253e-03,-1.362876407802104950e-02,0.000000000000000000e+00
8.909237384796142578e-01,-1.054423381693382761e-01,-4.987100107237247282e-01,3.000003479050245003e-01,1.281759315821860527e-02,2.215638066472835011e+00,2.215636957662157958e+00,-4.919416239819567049e-02,1.286960481228997637e-02,1.176604116478477890e-06,3.593231415688476737e-06,3.456298549398827452e-07,-1.180749777704448999e-01,-1.472576443349019826e+00,-2.043317619954244435e+00,-2.119201962147847951e+00,1.020927429199218750e+00,-1.680586640034810841e+00,-3.141593043004171193e+00,-1.013068854808807373e-01,2.219301648437976837e-03,-4.283437039703130722e-03,2.060525584965944290e-03,-1.676809228956699371e-02,0.000000000000000000e+00
8.991725444793701172e-01,-1.058432995202275989e-01,-4.986044939213225557e-01,3.000001731432982988e-01,1.388857218014620358e-02,2.215149508280873203e+00,2.215149712523766468e+00,-5.618111363321420804e-02,1.486797251201714236e-02,1.380387386545697941e-06,4.195694125442875504e-06,4.119075991620414919e-07,-1.366407424211492638e-01,-1.473403278981344044e+00,-2.043299500142232716e+00,-2.119237724934713185e+00,1.020944476127624512e+00,-1.680729214345113576e+00,-3.141593043004171193e+00,-1.159836724400520325e-01,2.631926210597157478e-03,-5.079850088804960251e-03,2.443708013743162155e-03,-2.065706998109817505e-02,0.000000000000000000e+00
9.074571132659912109e-01,-1.061360194955061342e-01,-4.985267865780060870e-01,3.000001744415435878e-01,1.467683786515239057e-02,2.214790054350725512e+00,2.214790258258522382e+00,-6.044951767289961919e-02,1.609705872891611239e-02,1.501473893250715821e-06,4.561376379359783213e-06,4.450743886274574270e-07,-1.479345913976420346e-01,-1.474007908497945607e+00,-2.043285671864644826e+00,-2.119264427815572560e+00,1.020957350730895996e+00,-1.680838410054342091e+00,-3.141593043004171193e+00,-1.249492615461349487e-01,2.881027758121490479e-03,-5.560643970966339111e-03,2.675033174455165863e-03,-2.298532985150814056e-02,0.000000000000000000e+00
9.155962467193603516e-01,-1.061360194955061342e-01,-4.985267865780060870e-01,3.000001744415435878e-01,1.467683786515239057e-02,2.214790054350725512e+00,2.214790258258522382e+00,0.000000000000000000e+00,0.000000000000000000e+00,0.000000000000000000e+00,0.000000000000000000e+00,0.000000000000000000e+00,0.000000000000000000e+00,-1.474007908497945607e+00,-2.043285671864644826e+00,-2.119264427815572560e+00,1.020957350730895996e+00,-1.680838410054342091e+00,-3.141593043004171193e+00,0.000000000000000000e+00,0.000000000000000000e+00,0.000000000000000000e+00,0.000000000000000000e+00,0.000000000000000000e+00,0.000000000000000000e+00
9.243557453155517578e-01,-1.061360194955061342e-01,-4.985267865780060870e-01,3.000001744415435878e-01,1.467683786515239057e-02,2.214790054350725512e+00,2.214790258258522382e+00,0.000000000000000000e+00,0.000000000000000000e+00,0.000000000000000000e+00,0.000000000000000000e+00,0.000000000000000000e+00,0.000000000000000000e+00,-1.474007908497945607e+00,-2.043285671864644826e+00,-2.119264427815572560e+00,1.020957350730895996e+00,-1.680838410054342091e+00,-3.141593043004171193e+00,0.000000000000000000e+00,0.000000000000000000e+00,0.000000000000000000e+00,0.000000000000000000e+00,0.000000000000000000e+00,0.000000000000000000e+00
9.326176643371582031e-01,-1.061695028647904882e-01,-4.985170262384541195e-01,3.000002462415524151e-01,1.478105111689598759e-02,2.214742751276928434e+00,2.214742429912514243e+00,-8.569307503480191532e-03,2.494189954187545338e-03,3.022936784984537863e-07,7.402087156173654490e-07,7.097173740700501625e-08,-2.403089124709346242e-02,-1.474078957234517873e+00,-2.043283287678853810e+00,-2.119268719349996388e+00,1.020959496498107910e+00,-1.680861775075094044e+00,-3.141593043004171193e+00,-1.816320046782493591e-02,5.765395471826195717e-04,-1.112713362090289593e-03,5.354302120395004749e-04,-5.867690779268741608e-03,0.000000000000000000e+00
9.415602684020996094e-01,-1.062378932649388069e-01,-4.984971950313408229e-01,3.000003898379212663e-01,1.499262280492826005e-02,2.214646696582950547e+00,2.214645324732473775e+00,-1.443618344131241717e-02,4.203958449987207913e-03,5.084584070881242291e-07,1.247556929164374856e-06,1.146988858128422836e-07,-4.048544634133361547e-02,-1.474223915730611623e+00,-2.043278519307271779e+00,-2.119277302418844044e+00,1.020963788032531738e+00,-1.680908505116597951e+00,-3.141593043004171193e+00,-3.060000017285346985e-02,9.713106555864214897e-04,-1.874616253189742565e-03,9.020527941174805164e-04,-9.885446168482303619e-03,0.000000000000000000e+00
9.499137401580810547e-01,-1.062378932649388069e-01,-4.984971950313408229e-01,3.000003898379212663e-01,1.499262280492826005e-02,2.214646696582950547e+00,2.214645324732473775e+00,0.000000000000000000e+00,0.000000000000000000e+00,0.000000000000000000e+00,0.000000000000000000e+00,0.000000000000000000e+00,0.000000000000000000e+00,-1.474223915730611623e+00,-2.043278519307271779e+00,-2.119277302418844044e+00,1.020963788032531738e+00,-1.680908505116597951e+00,-3.141593043004171193e+00,0.000000000000000000e+00,0.000000000000000000e+00,0.000000000000000000e+00,0.000000000000000000e+00,0.000000000000000000e+00,0.000000000000000000e+00
9.579033851623535156e-01,-1.062378932649388069e-01,-4.984971950313408229e-01,3.000003898379212663e-01,1.499262280492826005e-02,2.214646696582950547e+00,2.214645324732473775e+00,0.000000000000000000e+00,0.000000000000000000e+00,0.000000000000000000e+00,0.000000000000000000e+00,0.000000000000000000e+00,0.000000000000000000e+00,-1.474223915730611623e+00,-2.043278519307271779e+00,-2.119277302418844044e+00,1.020963788032531738e+00,-1.680908505116597951e+00,-3.141593043004171193e+00,0.000000000000000000e+00,0.000000000000000000e+00,0.000000000000000000e+00,0.000000000000000000e+00,0.000000000000000000e+00,0.000000000000000000e+00
9.663231372833251953e-01,-1.062658041334335196e-01,-4.984878002768756700e-01,3.000003638672621986e-01,1.509689091517042378e-02,2.214598760095509267e+00,2.214598176027517074e+00,-7.139882416525191247e-03,2.366203354724502259e-03,3.782113357954620033e-07,7.368791039573749698e-07,6.911933084421986253e-08,-2.416604384779886400e-02,-1.474285427724019826e+00,-2.043275658284322560e+00,-2.119283024464742482e+00,1.020966291427612305e+00,-1.680941406880513966e+00,-3.141593043004171193e+00,-1.574400067329406738e-02,7.080490468069911003e-04,-1.366445911116898060e-03,6.576567539013922215e-04,-8.422043174505233765e-03,0.000000000000000000e+00
9.744973182678222656e-01,-1.063413476012627368e-01,-4.984622634618499637e-01,3.000002290623647316e-01,1.538852004113801068e-02,2.214465422308751652e+00,2.214465363327631220e+00,-1.335017147487566752e-02,4.574982055295082756e-03,7.549990397089486624e-07,1.422295690382533373e-06,1.370326365609546996e-07,-4.733550548553436266e-02,-1.474453274403707326e+00,-2.043268028889791310e+00,-2.119298283253804982e+00,1.020973682403564453e+00,-1.681037727986470998e+00,-3.141593043004171193e+00,-2.975616045296192169e-02,1.441920758225023746e-03,-2.782749710604548454e-03,1.339400070719420910e-03,-1.757934503257274628e-02,0.000000000000000000e+00
9.833135604858398438e-01,-1.064602291844125026e-01,-4.984202693546627705e-01,3.000002303063279419e-01,1.587269175183038394e-02,2.214244368481588232e+00,2.214244309316876436e+00,-1.896493352203005092e-02,6.810298767100064245e-03,1.215138564967180699e-06,2.115310982566679569e-06,2.031683514091966530e-07,-7.168091461062386927e-02,-1.474720780049459279e+00,-2.043254200612203419e+00,-2.119324986134664357e+00,1.020986557006835938e+00,-1.681208912526265919e+00,-3.141593043004171193e+00,-4.292789846658706665e-02,2.292016986757516861e-03,-4.423234611749649048e-03,2.129092579707503319e-03,-2.875301614403724670e-02,0.000000000000000000e+00
9.915397167205810547e-01,-1.066187706031723054e-01,-4.983610073725727174e-01,3.000002381561465703e-01,1.657090164008508462e-02,2.213925304272246208e+00,2.213925507366661272e+00,-2.382490979819369345e-02,9.158554783446825817e-03,1.704173605202684814e-06,3.013476053036304982e-06,2.934728845978266158e-07,-9.867093712091364044e-02,-1.475084606801168263e+00,-2.043233219777242482e+00,-2.119365517293111623e+00,1.021005988121032715e+00,-1.681477848683492482e+00,-3.141593043004171193e+00,-5.520508438348770142e-02,3.352613188326358795e-03,-6.470210850238800049e-03,3.114569932222366333e-03,-4.346585273742675781e-02,0.000000000000000000e+00
9.998204708099365234e-01,-1.068031821572486550e-01,-4.982865531398698034e-01,3.000004416713712430e-01,1.746972391929629484e-02,2.213515017285895947e+00,2.213513907609635289e+00,-2.574918124586965743e-02,1.081105329775401518e-02,2.179098619141178996e-06,3.685204534374568161e-06,3.229448053883488485e-07,-1.197290681302466964e-01,-1.475519482289449513e+00,-2.043204132710592091e+00,-2.119420830403463185e+00,1.021032810211181641e+00,-1.681857887898580373e+00,-3.141593043004171193e+00,-6.160179898142814636e-02,4.341979045420885086e-03,-8.379558101296424866e-03,4.033879842609167099e-03,-5.812726914882659912e-02,0.000000000000000000e+00
1.008671045303344727e+00,-1.069925038201784695e-01,-4.982015060656126426e-01,3.000004210960723339e-01,1.852967719570563360e-02,2.213029930340596252e+00,2.213029082910380030e+00,-2.466736350719861762e-02,1.179576748050820134e-02,2.613634177365266491e-06,4.147890738877508972e-06,3.663449038980233592e-07,-1.354290544986662959e-01,-1.475984398518697560e+00,-2.043167893086568654e+00,-2.119490925465719044e+00,1.021066546440124512e+00,-1.682354275380269826e+00,-3.141593043004171193e+00,-6.207996606826782227e-02,5.297798663377761841e-03,-1.022415421903133392e-02,4.922191612422466278e-03,-7.334908843040466309e-02,0.000000000000000000e+00
1.016476869583129883e+00,-1.071462433515588397e-01,-4.981146170342476420e-01,3.000002861729294534e-01,1.967222669375269517e-02,2.212506176985386208e+00,2.212506378738203328e+00,-1.606187130038745636e-02,1.107891071563305192e-02,2.972995521656953153e-06,4.376856520838189296e-06,4.229842851199585257e-07,-1.373873166739927598e-01,-1.476399723683492482e+00,-2.043124500905172169e+00,-2.119575325642720998e+00,1.021107077598571777e+00,-1.682975594197408498e+00,-3.141593043004171193e+00,-4.768397286534309387e-02,6.152256391942501068e-03,-1.187312975525856018e-02,5.716476123780012131e-03,-8.970334380865097046e-02,0.000000000000000000e+00
1.024908781051635742e+00,-1.072142659217435595e-01,-4.980600063733878757e-01,3.000004425200702429e-01,2.043600306514627499e-02,2.212156429849259975e+00,2.212155844333857146e+00,-1.120127737822528349e-02,1.071471222965881057e-02,3.180669264255000317e-06,4.534121854037765176e-06,4.020685821001463376e-07,-1.391570232808546637e-01,-1.476618115101949513e+00,-2.043092075978414357e+00,-2.119637314473287404e+00,1.021136999130249023e+00,-1.683450524006978810e+00,-3.141593043004171193e+00,-3.964935615658760071e-02,6.671395152807235718e-03,-1.287499070167541504e-02,6.199043709784746170e-03,-9.950766712427139282e-02,0.000000000000000000e+00
1.033258914947509766e+00,-1.072142659217435595e-01,-4.980600063733878757e-01,3.000004425200702429e-01,2.043600306514627499e-02,2.212156429849259975e+00,2.212155844333857146e+00,0.000000000000000000e+00,0.000000000000000000e+00,0.000000000000000000e+00,0.000000000000000000e+00,0.000000000000000000e+00,0.000000000000000000e+00,-1.476618115101949513e+00,-2.043092075978414357e+00,-2.119637314473287404e+00,1.021136999130249023e+00,-1.683450524006978810e+00,-3.141593043004171193e+00,0.000000000000000000e+00,0.000000000000000000e+00,0.000000000000000000e+00,0.000000000000000000e+00,0.000000000000000000e+00,0.000000000000000000e+00
1.042210578918457031e+00,-1.072142659217435595e-01,-4.980600063733878757e-01,3.000004425200702429e-01,2.043600306514627499e-02,2.212156429849259975e+00,2.212155844333857146e+00,0.000000000000000000e+00,0.000000000000000000e+00,0.000000000000000000e+00,0.000000000000000000e+00,0.000000000000000000e+00,0.000000000000000000e+00,-1.476618115101949513e+00,-2.043092075978414357e+00,-2.119637314473287404e+00,1.021136999130249023e+00,-1.683450524006978810e+00,-3.141593043004171193e+00,0.000000000000000000e+00,0.000000000000000000e+00,0.000000000000000000e+00,0.000000000000000000e+00,0.000000000000000000e+00,0.000000000000000000e+00
1.049975872039794922e+00,-1.071848100214047167e-01,-4.980612412492940733e-01,3.000003859725207667e-01,2.046281745271841604e-02,2.212143896562969392e+00,2.212143835661417146e+00,7.580545623688346793e-03,-3.332347946895550619e-04,4.886225869926516232e-07,2.148593988105465461e-07,1.987012408939427741e-08,-6.117211654782246655e-03,-1.476571385060445607e+00,-2.043088261281148732e+00,-2.119644943867818654e+00,1.021140575408935547e+00,-1.683521572743551076e+00,-3.141593043004171193e+00,1.204598881304264069e-02,9.946229401975870132e-04,-1.919311354868113995e-03,9.244726388715207577e-04,-1.816320046782493591e-02,0.000000000000000000e+00
1.058661699295043945e+00,-1.070926229972224281e-01,-4.980667987872623437e-01,3.000004347856451425e-01,2.052057874200629781e-02,2.212117527979894582e+00,2.212117204756494537e+00,1.670836067467221936e-02,-1.110691928149012530e-03,9.224091763877823650e-07,2.901039145720824467e-07,2.237959094721965441e-08,-7.994813844561153571e-03,-1.476421658192769826e+00,-2.043077294026510060e+00,-2.119665924702779591e+00,1.021150708198547363e+00,-1.683723751698629201e+00,-3.141593043004171193e+00,2.736006490886211395e-02,1.890750485472381115e-03,-3.648533485829830170e-03,1.757492078468203545e-03,-3.535487875342369080e-02,0.000000000000000000e+00
1.067063808441162109e+00,-1.069273668343987543e-01,-4.980797623730208179e-01,3.000004878145914322e-01,2.057727442410410904e-02,2.212091765343890959e+00,2.212090917532488099e+00,2.686676560174792658e-02,-2.269228262228539100e-03,1.253369001607438278e-06,2.310698336656306973e-07,2.475126567258038684e-09,-5.743246525522313628e-03,-1.476146999989644826e+00,-2.043060127888814748e+00,-2.119698826466695607e+00,1.021166682243347168e+00,-1.684049908314840138e+00,-3.141593043004171193e+00,4.504325985908508301e-02,2.649520058184862137e-03,-5.112769547849893570e-03,2.463019220158457756e-03,-5.078650638461112976e-02,0.000000000000000000e+00
1.075374603271484375e+00,-1.066836761384351434e-01,-4.981022888897121415e-01,3.000004766751912522e-01,2.060198652260000762e-02,2.212080194710555059e+00,2.212079871484470939e+00,3.697334330057267665e-02,-3.626068196670008490e-03,1.516980220141821135e-06,6.738265689498594223e-08,-2.697331309215601659e-09,-3.818273544304723321e-04,-1.475734059010640919e+00,-2.043037716542379201e+00,-2.119742218648092091e+00,1.021187424659729004e+00,-1.684485260640279591e+00,-3.141593043004171193e+00,6.309586018323898315e-02,3.232974559068679810e-03,-6.238605827093124390e-03,3.005564445629715919e-03,-6.347768753767013550e-02,0.000000000000000000e+00
1.083442211151123047e+00,-1.063585900328420236e-01,-4.981362346780059402e-01,3.000004870384789246e-01,2.057151057876306643e-02,2.212094289636328259e+00,2.212093704174843634e+00,4.750633012730422905e-02,-5.174549407190088580e-03,1.730464083979916786e-06,-5.606758263296109483e-08,-2.509752286760108168e-08,7.383517920973498017e-03,-1.475174729024068654e+00,-2.043011013661519826e+00,-2.119793717061178029e+00,1.021212339401245117e+00,-1.685016934071676076e+00,-3.141593043004171193e+00,8.222962915897369385e-02,3.721328219398856163e-03,-7.180942222476005554e-03,3.459672210738062859e-03,-7.484611123800277710e-02,0.000000000000000000e+00
1.092253208160400391e+00,-1.059455318309546340e-01,-4.981832426468046915e-01,3.000004407242310434e-01,2.046648007306037589e-02,2.212142335503888280e+00,2.212142012362268595e+00,5.890961527157913269e-02,-6.933875038583181723e-03,1.938654319497880628e-06,-3.772677330678468871e-07,-4.880003089125129297e-08,1.730088889598926927e-02,-1.474455181752340138e+00,-2.042980496083394826e+00,-2.119852844868795216e+00,1.021240830421447754e+00,-1.685641113911763966e+00,-3.141593043004171193e+00,1.031642332673072815e-01,4.166956990957260132e-03,-8.040708489716053009e-03,3.874131711199879646e-03,-8.586334437131881714e-02,0.000000000000000000e+00
1.100455999374389648e+00,-1.054336898999575084e-01,-4.982455669657623876e-01,3.000004474707247404e-01,2.026425699578854669e-02,2.212235057383700187e+00,2.212234734334991515e+00,7.163885387405874439e-02,-8.942396318155586971e-03,2.140743070464132825e-06,-7.601161515772275098e-07,-8.812898397127972276e-08,2.942664921283807966e-02,-1.473553959523336232e+00,-2.042946163808004201e+00,-2.119919125233785451e+00,1.021272778511047363e+00,-1.686358753834859669e+00,-3.141593043004171193e+00,1.266842335462570190e-01,4.606169182807207108e-03,-8.888064883649349213e-03,4.282660782337188721e-03,-9.725758433341979980e-02,0.000000000000000000e+00
1.109197616577148438e+00,-1.051215386103776100e-01,-4.982849045036806257e-01,3.000003632510839235e-01,2.011459098898008002e-02,2.212303315274268822e+00,2.212303778989229919e+00,7.447480794831240480e-02,-9.492642075344297561e-03,2.134014258033336752e-06,-9.187329994763654483e-07,-6.897696223116900660e-08,3.406769782304970573e-02,-1.473000828419820607e+00,-2.042926613484517873e+00,-2.119957272206441701e+00,1.021291017532348633e+00,-1.686775986348287404e+00,-3.141593043004171193e+00,1.322060227394104004e-01,4.597259685397148132e-03,-8.870798163115978241e-03,4.274459555745124817e-03,-9.813832491636276245e-02,0.000000000000000000e+00
1.117217779159545898e+00,-1.051215386103776100e-01,-4.982849045036806257e-01,3.000003632510839235e-01,2.011459098898008002e-02,2.212303315274268822e+00,2.212303778989229919e+00,0.000000000000000000e+00,0.000000000000000000e+00,0.000000000000000000e+00,0.000000000000000000e+00,0.000000000000000000e+00,0.000000000000000000e+00,-1.473000828419820607e+00,-2.042926613484517873e+00,-2.119957272206441701e+00,1.021291017532348633e+00,-1.686775986348287404e+00,-3.141593043004171193e+00,0.000000000000000000e+00,0.000000000000000000e+00,0.000000000000000000e+00,0.000000000000000000e+00,0.000000000000000000e+00,0.000000000000000000e+00
1.129004001617431641e+00,-1.051215386103776100e-01,-4.982849045036806257e-01,3.000003632510839235e-01,2.011459098898008002e-02,2.212303315274268822e+00,2.212303778989229919e+00,0.000000000000000000e+00,0.000000000000000000e+00,0.000000000000000000e+00,0.000000000000000000e+00,0.000000000000000000e+00,0.000000000000000000e+00,-1.473000828419820607e+00,-2.042926613484517873e+00,-2.119957272206441701e+00,1.021291017532348633e+00,-1.686775986348287404e+00,-3.141593043004171193e+00,0.000000000000000000e+00,0.000000000000000000e+00,0.000000000000000000e+00,0.000000000000000000e+00,0.000000000000000000e+00,0.000000000000000000e+00
1.139401197433471680e+00,-1.050793573406460235e-01,-4.982915861157987125e-01,3.000005654041971170e-01,2.007198411634530250e-02,2.212323319681165579e+00,2.212322734479846176e+00,1.079000927565008754e-02,-1.709635152469040362e-03,1.747018281972096879e-07,-2.982220009964371004e-07,-3.193088219861690308e-08,9.818566963076877721e-03,-1.472923103963033498e+00,-2.042924706135885060e+00,-2.119960133229390919e+00,1.021292448043823242e+00,-1.686815086995260060e+00,-3.141593043004171193e+00,1.987200044095516205e-02,3.977089072577655315e-04,-7.673777290619909763e-04,3.699687367770820856e-04,-1.005343347787857056e-02,0.000000000000000000e+00
1.149282932281494141e+00,-1.049560751609010523e-01,-4.983112753435703923e-01,3.000004989834507696e-01,1.994540755532974927e-02,2.212381101408334771e+00,2.212381040722899428e+00,2.134963023500078064e-02,-3.431936482160873308e-03,3.275161427615507445e-07,-5.642877159849549535e-07,-5.599580447409901576e-08,2.021799609065044398e-02,-1.472695652638570607e+00,-2.042920414601461232e+00,-2.119968716298238576e+00,1.021296501159667969e+00,-1.686927620564595998e+00,-3.141593043004171193e+00,3.943488001823425293e-02,7.434201543219387531e-04,-1.434419886209070683e-03,6.915667909197509289e-04,-1.921688392758369446e-02,0.000000000000000000e+00
1.157044649124145508e+00,-1.047502812623502810e-01,-4.983449213251018861e-01,3.000004932989968620e-01,1.972053540038096534e-02,2.212484277157796608e+00,2.212483954319548474e+00,3.204217275153992822e-02,-5.293260951959925971e-03,4.375737083104803743e-07,-9.414341547649989850e-07,-9.688345196828685472e-08,3.260766156017788631e-02,-1.472314182912008107e+00,-2.042913738881246388e+00,-2.119981590901510060e+00,1.021302819252014160e+00,-1.687105003987447560e+00,-3.141593043004171193e+00,5.951508507132530212e-02,9.912017267197370529e-04,-1.912447391077876091e-03,9.221920627169311047e-04,-2.690742351114749908e-02,0.000000000000000000e+00
1.165420532226562500e+00,-1.044573161521412524e-01,-4.983939822810194431e-01,3.000005799843909471e-01,1.938160466433301934e-02,2.212639803936092164e+00,2.212638956728492534e+00,4.336808789778975881e-02,-7.306426552350753223e-03,5.341492229465687803e-07,-1.362200398675690487e-06,-1.485009346491364439e-07,4.656838625669700721e-02,-1.471768681203023732e+00,-2.042905155812398732e+00,-2.119997803364888966e+00,1.021310687065124512e+00,-1.687342945729390919e+00,-3.141593043004171193e+00,8.090398460626602173e-02,1.207445864565670490e-03,-2.329598879441618919e-03,1.123523223213851452e-03,-3.433559834957122803e-02,0.000000000000000000e+00
1.173997879028320312e+00,-1.040686760177235576e-01,-4.984599268748062251e-01,3.000004067855102652e-01,1.891236092813860029e-02,2.212854367690360036e+00,2.212854307402822851e+00,5.580467600804377148e-02,-9.512749650947947486e-03,6.414516583276348808e-07,-1.831739417062986765e-06,-1.843445072023898264e-07,6.216469034552537382e-02,-1.471042458211080373e+00,-2.042895142232076466e+00,-2.120017830525533498e+00,1.021320343017578125e+00,-1.687643353139058888e+00,-3.141593043004171193e+00,1.044239848852157593e-01,1.429998083040118217e-03,-2.758881077170372009e-03,1.330723986029624939e-03,-4.225929453969001770e-02,0.000000000000000000e+00
1.182488203048706055e+00,-1.035714127199790363e-01,-4.985449512443688169e-01,3.000004368206622418e-01,1.829211276117062232e-02,2.213138308360727891e+00,2.213138248311775858e+00,6.846945951128573238e-02,-1.175262103894772481e-02,7.344247064480685235e-07,-2.359250375092419014e-06,-2.395468521943710460e-07,7.843387126922560237e-02,-1.470110718403951466e+00,-2.042882744465963185e+00,-2.120041672383443654e+00,1.021331787109375000e+00,-1.688012425099508107e+00,-3.141593043004171193e+00,1.284239888191223145e-01,1.634934451431035995e-03,-3.154169069603085518e-03,1.521605998277664185e-03,-4.999011754989624023e-02,0.000000000000000000e+00
1.190759181976318359e+00,-1.029731080895712331e-01,-4.986478741794369562e-01,3.000004483260507171e-01,1.752658693221656114e-02,2.213488418221354337e+00,2.213488620756477676e+00,8.111241455472917306e-02,-1.397148853203977747e-02,8.169686206757068350e-07,-2.893205466789569195e-06,-2.900746778793927571e-07,9.502828493714302049e-02,-1.468987290059224904e+00,-2.042868916188375294e+00,-2.120068375264303029e+00,1.021344542503356934e+00,-1.688441578541890919e+00,-3.141593043004171193e+00,1.524239778518676758e-01,1.819567871280014515e-03,-3.510278416797518730e-03,1.693618251010775566e-03,-5.739569291472434998e-02,0.000000000000000000e+00
1.199736356735229492e+00,-1.022738235214473712e-01,-4.987685013612968010e-01,3.000005292292362569e-01,1.661399603109640216e-02,2.213905966632264910e+00,2.213905382604157257e+00,9.373704861309709035e-02,-1.616028030061105250e-02,9.021688387780343363e-07,-3.429550965534863674e-06,-3.719359313207616269e-07,1.119214519858375140e-01,-1.467672173176900685e+00,-2.042853657399312794e+00,-2.120097462330953419e+00,1.021358728408813477e+00,-1.688929382954732716e+00,-3.141593043004171193e+00,1.764239817857742310e-01,1.985566923394799232e-03,-3.830387722700834274e-03,1.848270418122410774e-03,-6.450252979993820190e-02,0.000000000000000000e+00
1.208616495132446289e+00,-1.014735727576172308e-01,-4.989063943747973906e-01,3.000003709583860534e-01,1.555011122388224101e-02,2.214391538771713908e+00,2.214391742115571216e+00,1.063465723047018335e-01,-1.831005470147920033e-02,9.693848139429048523e-07,-3.975623432821347496e-06,-4.106600208920381030e-07,1.290893852710718881e-01,-1.466164890919820607e+00,-2.042837444935933888e+00,-2.120129410420553029e+00,1.021374106407165527e+00,-1.689472500477926076e+00,-3.141593043004171193e+00,2.004239857196807861e-01,2.134395297616720200e-03,-4.117394797503948212e-03,1.986996270716190338e-03,-7.133460044860839844e-02,0.000000000000000000e+00
1.217821836471557617e+00,-1.005724721484876766e-01,-4.990613733047172262e-01,3.000004245774740008e-01,1.433195602792590971e-02,2.214947472727814226e+00,2.214947414200942433e+00,1.189247603939797976e-01,-2.042574307650870530e-02,1.016606832378434778e-06,-4.526860606677077745e-06,-4.850307728198057522e-07,1.467356309294691741e-01,-1.464465443287984669e+00,-2.042819801961080373e+00,-2.120163265858785451e+00,1.021390438079833984e+00,-1.690068546925679982e+00,-3.141593043004171193e+00,2.244239896535873413e-01,2.253358252346515656e-03,-4.346786532551050186e-03,2.097981050610542297e-03,-7.768835872411727905e-02,0.000000000000000000e+00
1.226179361343383789e+00,-9.957067456703083685e-02,-4.992331717283439163e-01,3.000005682936878193e-01,1.295615278494716138e-02,2.215574956325851996e+00,2.215573848707335092e+00,1.314959010156997454e-01,-2.248357832435431483e-02,1.060731456152530342e-06,-5.078514662232720385e-06,-5.939866924913388829e-07,1.645904481411074594e-01,-1.462573830281392873e+00,-2.042801205311910451e+00,-2.120198551808492482e+00,1.021407604217529297e+00,-1.690714661275045216e+00,-3.141593043004171193e+00,2.484239786863327026e-01,2.359295729547739029e-03,-4.551030229777097702e-03,2.196847461163997650e-03,-8.383353054523468018e-02,0.000000000000000000e+00
1.234238862991333008e+00,-9.846846961485164473e-02,-4.994210518792380205e-01,3.000004717246922414e-01,1.142150263638722768e-02,2.216273327044729680e+00,2.216272482301687496e+00,1.440623250605724825e-01,-2.447527497944437802e-02,1.102588132095386897e-06,-5.638604992912322250e-06,-6.589662710800606043e-07,1.826386600732857191e-01,-1.460490528737203419e+00,-2.042782131825582326e+00,-2.120235745106832326e+00,1.021425604820251465e+00,-1.691409413014547169e+00,-3.141593043004171193e+00,2.724239826202392578e-01,2.453170018270611763e-03,-4.731984343379735947e-03,2.284491201862692833e-03,-8.978532254695892334e-02,0.000000000000000000e+00
1.242498159408569336e+00,-9.787953260956704093e-02,-4.995209081946145879e-01,3.000005397362640047e-01,1.059367624218824494e-02,2.216649823884542236e+00,2.216648716928763196e+00,1.428327670830089602e-01,-2.416754917123517532e-02,1.066797845103596803e-06,-5.621267003097366143e-06,-6.733219500117432413e-07,1.820796355605223682e-01,-1.459376637135640919e+00,-2.042772118245260060e+00,-2.120254818593160451e+00,1.021434783935546875e+00,-1.691774670277730763e+00,-3.141593043004171193e+00,2.702027857303619385e-01,2.375101670622825623e-03,-4.581337794661521912e-03,2.211897401139140129e-03,-8.812315016984939575e-02,0.000000000000000000e+00
1.250909805297851562e+00,-9.781904693788370797e-02,-4.995311595999248344e-01,3.000005201111192177e-01,1.050824288119604766e-02,2.216688650987527875e+00,2.216687544055660375e+00,7.565261318563161301e-03,-1.279135380937587501e-03,5.648983529969387737e-08,-2.977118103413241402e-07,-3.569494139206932401e-08,9.643835946918057761e-03,-1.459262196217672169e+00,-2.042771164570943654e+00,-2.120256725941793263e+00,1.021435737609863281e+00,-1.691811863576070607e+00,-3.141593043004171193e+00,1.431127358227968216e-02,1.257971161976456642e-04,-2.426502906018868089e-04,1.171530093415640295e-04,-4.667437635362148285e-03,0.000000000000000000e+00
1.259237289428710938e+00,-9.781904693788370797e-02,-4.995311595999248344e-01,3.000005201111192177e-01,1.050824288119604766e-02,2.216688650987527875e+00,2.216687544055660375e+00,0.000000000000000000e+00,0.000000000000000000e+00,0.000000000000000000e+00,0.000000000000000000e+00,0.000000000000000000e+00,0.000000000000000000e+00,-1.459262196217672169e+00,-2.042771164570943654e+00,-2.120256725941793263e+00,1.021435737609863281e+00,-1.691811863576070607e+00,-3.141593043004171193e+00,0.000000000000000000e+00,0.000000000000000000e+00,0.000000000000000000e+00,0.000000000000000000e+00,0.000000000000000000e+00,0.000000000000000000e+00
1.267575263977050781e+00,-9.781904693788370797e-02,-4.995311595999248344e-01,3.000005201111192177e-01,1.050824288119604766e-02,2.216688650987527875e+00,2.216687544055660375e+00,0.000000000000000000e+00,0.000000000000000000e+00,0.000000000000000000e+00,0.000000000000000000e+00,0.000000000000000000e+00,0.000000000000000000e+00,-1.459262196217672169e+00,-2.042771164570943654e+00,-2.120256725941793263e+00,1.021435737609863281e+00,-1.691811863576070607e+00,-3.141593043004171193e+00,0.000000000000000000e+00,0.000000000000000000e+00,0.000000000000000000e+00,0.000000000000000000e+00,0.000000000000000000e+00,0.000000000000000000e+00
1.275696277618408203e+00,-9.778302153735313196e-02,-4.995374740649800582e-01,3.000005321199101793e-01,1.045026161610029640e-02,2.216714765428380751e+00,2.216714183452126452e+00,9.257360770370044734e-03,-1.675047946141964943e-03,2.527528676903692744e-08,-4.128980544411767729e-07,-4.741449782892910680e-08,1.342285610735422657e-02,-1.459193054829732716e+00,-2.042770687733785451e+00,-2.120257679616109669e+00,1.021435976028442383e+00,-1.691828552876607716e+00,-3.141593043004171193e+00,1.774800010025501251e-02,6.464996113209053874e-05,-1.246358879143372178e-04,6.040153675712645054e-05,-4.325143992900848389e-03,0.000000000000000000e+00
1.285592079162597656e+00,-9.768054231592730730e-02,-4.995562119789436206e-01,3.000005113967083026e-01,1.028569567786238002e-02,2.216789661141429946e+00,2.216788816742949031e+00,1.792565555061714777e-02,-3.246060045610474863e-03,4.445708176942724103e-08,-7.862783303223684056e-07,-9.145831262194139705e-08,2.608318533748432005e-02,-1.458996597920553029e+00,-2.042770210896627248e+00,-2.120258633290426076e+00,1.021436572074890137e+00,-1.691876236592428029e+00,-3.141593043004171193e+00,3.437891975045204163e-02,1.200892511405982077e-04,-2.315172896487638354e-04,1.122196117648854852e-04,-8.295734412968158722e-03,0.000000000000000000e+00
1.293844461441040039e+00,-9.751352511148468627e-02,-4.995862991171447498e-01,3.000006135372883520e-01,1.001615212383360348e-02,2.216912234381512192e+00,2.216911127578062857e+00,2.643855822895549088e-02,-4.787865277779137889e-03,6.988473739568668235e-08,-1.172693160444060175e-06,-1.381422484172977894e-07,3.860381804406771283e-02,-1.458676163350240529e+00,-2.042768780385152638e+00,-2.120261017476217091e+00,1.021437644958496094e+00,-1.691953007374898732e+00,-3.141593043004171193e+00,5.072241649031639099e-02,1.696437102509662509e-04,-3.270091838203370571e-04,1.585462596267461777e-04,-1.211859844624996185e-02,0.000000000000000000e+00
1.302506923675537109e+00,-9.727966586818867500e-02,-4.996286336856827770e-01,3.000005950096221174e-01,9.637934281856597868e-03,2.217083894332313232e+00,2.217083050122545362e+00,3.516416675957394211e-02,-6.363348782040571631e-03,8.519697416978201379e-08,-1.554555563560675636e-06,-1.818665688123705768e-07,5.151804722845639006e-02,-1.458227459584371388e+00,-2.042767349873678029e+00,-2.120263878499166310e+00,1.021438956260681152e+00,-1.692059818898336232e+00,-3.141593043004171193e+00,6.748304516077041626e-02,2.158262650482356548e-04,-4.160247626714408398e-04,2.017636434175074100e-04,-1.596499793231487274e-02,0.000000000000000000e+00
1.310936689376831055e+00,-9.708362351600334506e-02,-4.996642592519923154e-01,3.000005535636197096e-01,9.319762448357547802e-03,2.217228589345277445e+00,2.217227220218405126e+00,4.066728995081821812e-02,-7.348243439496505991e-03,9.517861221025261280e-08,-1.794879661756220404e-06,-2.150657904021277874e-07,5.965454503894170035e-02,-1.457851235066549123e+00,-2.042766396199361623e+00,-2.120265785847799123e+00,1.021440148353576660e+00,-1.692148510609762013e+00,-3.141593043004171193e+00,7.805017381906509399e-02,2.452916232869029045e-04,-4.728187050204724073e-04,2.293347642989829183e-04,-1.839562878012657166e-02,0.000000000000000000e+00
1.319399118423461914e+00,-9.708362351600334506e-02,-4.996642592519923154e-01,3.000005535636197096e-01,9.319762448357547802e-03,2.217228589345277445e+00,2.217227220218405126e+00,0.000000000000000000e+00,0.000000000000000000e+00,0.000000000000000000e+00,0.000000000000000000e+00,0.000000000000000000e+00,0.000000000000000000e+00,-1.457851235066549123e+00,-2.042766396199361623e+00,-2.120265785847799123e+00,1.021440148353576660e+00,-1.692148510609762013e+00,-3.141593043004171193e+00,0.000000000000000000e+00,0.000000000000000000e+00,0.000000000000000000e+00,0.000000000000000000e+00,0.000000000000000000e+00,0.000000000000000000e+00
1.327427864074707031e+00,-9.708362351600334506e-02,-4.996642592519923154e-01,3.000005535636197096e-01,9.319762448357547802e-03,2.217228589345277445e+00,2.217227220218405126e+00,0.000000000000000000e+00,0.000000000000000000e+00,0.000000000000000000e+00,0.000000000000000000e+00,0.000000000000000000e+00,0.000000000000000000e+00,-1.457851235066549123e+00,-2.042766396199361623e+00,-2.120265785847799123e+00,1.021440148353576660e+00,-1.692148510609762013e+00,-3.141593043004171193e+00,0.000000000000000000e+00,0.000000000000000000e+00,0.000000000000000000e+00,0.000000000000000000e+00,0.000000000000000000e+00,0.000000000000000000e+00
1.346004247665405273e+00,-9.708362351600334506e-02,-4.996642592519923154e-01,3.000005535636197096e-01,9.319762448357547802e-03,2.217228589345277445e+00,2.217227220218405126e+00,0.000000000000000000e+00,0.000000000000000000e+00,0.000000000000000000e+00,0.000000000000000000e+00,0.000000000000000000e+00,0.000000000000000000e+00,-1.457851235066549123e+00,-2.042766396199361623e+00,-2.120265785847799123e+00,1.021440148353576660e+00,-1.692148510609762013e+00,-3.141593043004171193e+00,0.000000000000000000e+00,0.000000000000000000e+00,0.000000000000000000e+00,0.000000000000000000e+00,0.000000000000000000e+00,0.000000000000000000e+00
1.354627847671508789e+00,-9.705163464429061859e-02,-4.996700506205867809e-01,3.000004438060432932e-01,9.267045212981240079e-03,2.217252168812964275e+00,2.217251587217575093e+00,8.192886631697997649e-03,-1.489256806561477329e-03,1.757903075468112807e-08,-3.621231745402337909e-07,-4.204442804409394113e-08,1.215613493695860171e-02,-1.457789723073140919e+00,-2.042766396199361623e+00,-2.120266262684957326e+00,1.021440267562866211e+00,-1.692162338887349904e+00,-3.141593043004171193e+00,1.574400067329406738e-02,4.181474650977179408e-05,-8.057936793193221092e-05,3.912917600246146321e-05,-3.587865736335515976e-03,0.000000000000000000e+00
1.363171577453613281e+00,-9.696430236639014266e-02,-4.996858864493771146e-01,3.000004449035300058e-01,9.123537805008647555e-03,2.217317191919029540e+00,2.217316872880686685e+00,1.548025961644999664e-02,-2.815436852891040065e-03,2.971326366439860217e-08,-6.995175416168601414e-07,-8.047555819624796191e-08,2.303093066439024922e-02,-1.457621876393453419e+00,-2.042765919362203419e+00,-2.120267216359273732e+00,1.021440625190734863e+00,-1.692200485860006154e+00,-3.141593043004171193e+00,2.975616045296192169e-02,7.553865725640207529e-05,-1.455600868212059140e-04,7.072556036291643977e-05,-6.725229788571596146e-03,0.000000000000000000e+00
1.378401994705200195e+00,-9.682520138203848381e-02,-4.997112659697027781e-01,3.000006557036301036e-01,8.893383970283934292e-03,2.217422231259772225e+00,2.217420599711628082e+00,2.231825327683045063e-02,-4.066696691354990470e-03,4.163853708042565374e-08,-1.022748404265717627e-06,-1.236047961088550646e-07,3.340771514922619839e-02,-1.457354370747701466e+00,-2.042764965687887013e+00,-2.120268170033590138e+00,1.021441221237182617e+00,-1.692260090504781544e+00,-3.141593043004171193e+00,4.292789846658706665e-02,9.761798719409853220e-05,-1.880584895843639970e-04,9.147066884906962514e-05,-9.520183317363262177e-03,0.000000000000000000e+00
1.386791467666625977e+00,-9.666653354796013453e-02,-4.997401464839694718e-01,3.000005252230744102e-01,8.630595027258103347e-03,2.217541234265535177e+00,2.217540127821507667e+00,2.836948711218991934e-02,-5.166430000008184927e-03,5.237092384325754093e-08,-1.307031839096038844e-06,-1.553737955517871955e-07,4.255613032728557121e-02,-1.457049194966451466e+00,-2.042764488850728810e+00,-2.120269600545064748e+00,1.021441936492919922e+00,-1.692327801381246388e+00,-3.141593043004171193e+00,5.457761138677597046e-02,1.189749891636893153e-04,-2.291781565872952342e-04,1.115193881560117006e-04,-1.202148105949163437e-02,0.000000000000000000e+00
1.395232200622558594e+00,-9.666653354796013453e-02,-4.997401464839694718e-01,3.000005252230744102e-01,8.630595027258103347e-03,2.217541234265535177e+00,2.217540127821507667e+00,0.000000000000000000e+00,0.000000000000000000e+00,0.000000000000000000e+00,0.000000000000000000e+00,0.000000000000000000e+00,0.000000000000000000e+00,-1.457049194966451466e+00,-2.042764488850728810e+00,-2.120269600545064748e+00,1.021441936492919922e+00,-1.692327801381246388e+00,-3.141593043004171193e+00,0.000000000000000000e+00,0.000000000000000000e+00,0.000000000000000000e+00,0.000000000000000000e+00,0.000000000000000000e+00,0.000000000000000000e+00
1.403671503067016602e+00,-9.666653354796013453e-02,-4.997401464839694718e-01,3.000005252230744102e-01,8.630595027258103347e-03,2.217541234265535177e+00,2.217540127821507667e+00,0.000000000000000000e+00,0.000000000000000000e+00,0.000000000000000000e+00,0.000000000000000000e+00,0.000000000000000000e+00,0.000000000000000000e+00,-1.457049194966451466e+00,-2.042764488850728810e+00,-2.120269600545064748e+00,1.021441936492919922e+00,-1.692327801381246388e+00,-3.141593043004171193e+00,0.000000000000000000e+00,0.000000000000000000e+00,0.000000000000000000e+00,0.000000000000000000e+00,0.000000000000000000e+00,0.000000000000000000e+00
1.412274360656738281e+00,-9.663614422532486314e-02,-4.997456472862658039e-01,3.000004263752122369e-01,8.578934302108954038e-03,2.217564202435704956e+00,2.217564146116936641e+00,7.769543196063994316e-03,-1.428035071901222848e-03,7.844353040773552843e-09,-3.514493453844276965e-07,-4.024547752737030043e-08,1.185443322174243794e-02,-1.456990543995992482e+00,-2.042764488850728810e+00,-2.120270077382222951e+00,1.021441936492919922e+00,-1.692339722310201466e+00,-3.141593043004171193e+00,1.497600041329860687e-02,2.158822826459072530e-05,-4.155512579018250108e-05,2.032064367085695267e-05,-3.121567191556096077e-03,0.000000000000000000e+00
1.421139240264892578e+00,-9.655448396847619852e-02,-4.997607612243388231e-01,3.000006360783747938e-01,8.441083871055170967e-03,2.217627439733793615e+00,2.217625808273345545e+00,1.453381304011006590e-02,-2.673943369026576897e-03,1.578854603751971235e-08,-6.732567158763696984e-07,-8.135684817004199292e-08,2.224891912192250229e-02,-1.456833187733785451e+00,-2.042764012013570607e+00,-2.120270077382222951e+00,1.021442174911499023e+00,-1.692372624074117482e+00,-3.141593043004171193e+00,2.802431955933570862e-02,3.628337799455039203e-05,-6.980756006669253111e-05,3.420232314965687692e-05,-5.775400437414646149e-03,0.000000000000000000e+00
1.429844379425048828e+00,-9.642570786420955053e-02,-4.997843872465176362e-01,3.000004165623575969e-01,8.222122259896781291e-03,2.217726049133149413e+00,2.217725992951008696e+00,2.077250485050819231e-02,-3.825438908465874158e-03,1.566344672126654669e-08,-9.706136996718181522e-07,-1.115352367837210676e-07,3.193274419754724147e-02,-1.456584755574361623e+00,-2.042764012013570607e+00,-2.120271031056539357e+00,1.021442413330078125e+00,-1.692423168812887013e+00,-3.141593043004171193e+00,4.007162898778915405e-02,4.442722638486884534e-05,-8.544319280190393329e-05,4.199296745355241001e-05,-8.138884790241718292e-03,0.000000000000000000e+00
1.438125848770141602e+00,-9.625119916150917665e-02,-4.998165657466724365e-01,3.000005165078170610e-01,7.924868452944986916e-03,2.217861192535125703e+00,2.217860348819943095e+00,2.684499190994377865e-02,-4.941876235367953854e-03,1.729855149037062428e-08,-1.262643303085424172e-06,-1.492708153208933806e-07,4.137887526303579699e-02,-1.456248108540670216e+00,-2.042763535176412404e+00,-2.120271507893697560e+00,1.021442770957946777e+00,-1.692491356526510060e+00,-3.141593043004171193e+00,5.179920047521591187e-02,5.115285239298827946e-05,-9.833571675699204206e-05,4.845429430133663118e-05,-1.042032521218061447e-02,0.000000000000000000e+00
1.446652412414550781e+00,-9.602959284921046279e-02,-4.998572663751086886e-01,3.000005176048680111e-01,7.545800509380440682e-03,2.218032913751667223e+00,2.218032332706224796e+00,3.303104466677564410e-02,-6.073099512799160979e-03,1.707554013863147616e-08,-1.553301498622599868e-06,-1.827435533214447731e-07,5.101938731968414659e-02,-1.455820385609762013e+00,-2.042763058339254201e+00,-2.120272461568013966e+00,1.021443128585815430e+00,-1.692576710377828419e+00,-3.141593043004171193e+00,6.374649703502655029e-02,5.691529440809972584e-05,-1.093748578568920493e-04,5.402357419370673597e-05,-1.272710971534252167e-02,0.000000000000000000e+00
1.455522775650024414e+00,-9.575856147238345772e-02,-4.999071778490638551e-01,3.000006066415493167e-01,7.081571188382202245e-03,2.218243745820945634e+00,2.218242114619223493e+00,3.957259809360143266e-02,-7.261418231714438822e-03,2.169567325005114334e-08,-1.875903077687166649e-06,-2.289069485293241199e-07,6.122877635062116963e-02,-1.455297295247213185e+00,-2.042762581502095998e+00,-2.120272938405172169e+00,1.021443605422973633e+00,-1.692680660878316701e+00,-3.141593043004171193e+00,7.637985050678253174e-02,6.206445686984807253e-05,-1.192035779240541160e-04,5.902890552533790469e-05,-1.515107415616512299e-02,0.000000000000000000e+00
1.464508771896362305e+00,-9.543342460882318912e-02,-4.999667470497864419e-01,3.000005968294302550e-01,6.524349674821614854e-03,2.218496131632924140e+00,2.218494500537286918e+00,4.669711529044539428e-02,-8.547357778341313495e-03,2.388418514766752863e-08,-2.225096613060030054e-06,-2.727720494682986768e-07,7.238693162799320069e-02,-1.454669777547017873e+00,-2.042762104664937794e+00,-2.120273892079488576e+00,1.021444082260131836e+00,-1.692805115376607716e+00,-3.141593043004171193e+00,9.014146029949188232e-02,6.536118598887696862e-05,-1.254549570148810744e-04,6.233548629097640514e-05,-1.775452867150306702e-02,0.000000000000000000e+00
1.472905874252319336e+00,-9.504761764661905088e-02,-5.000372698465499477e-01,3.000005870174773936e-01,5.860800854248881912e-03,2.218796511175245012e+00,2.218794880205789077e+00,5.464231017372613020e-02,-9.969722784601581927e-03,2.193444612426999334e-08,-2.601562745762404683e-06,-3.207931405593290590e-07,8.485745266080413352e-02,-1.453924957905904591e+00,-2.042761627827779591e+00,-2.120274845753804982e+00,1.021444559097290039e+00,-1.692951027547017873e+00,-3.141593043004171193e+00,1.054881736636161804e-01,6.733767804689705372e-05,-1.291622029384598136e-04,6.444574682973325253e-05,-2.063072100281715393e-02,0.000000000000000000e+00
1.481439828872680664e+00,-9.459289457909894616e-02,-5.001200970318796513e-01,3.000005772057231512e-01,5.077625192892946081e-03,2.219150812410138673e+00,2.219149181589801678e+00,6.367161787206923607e-02,-1.157022917656467913e-02,2.423068738016438427e-08,-3.044395420112503690e-06,-3.779144179357095766e-07,9.904580190778367044e-02,-1.453047100697652638e+00,-2.042761150990621388e+00,-2.120275799428121388e+00,1.021445035934448242e+00,-1.693122212086812794e+00,-3.141593043004171193e+00,1.229262426495552063e-01,6.844154268037527800e-05,-1.311495871050283313e-04,6.577575550181791186e-05,-2.388044074177742004e-02,0.000000000000000000e+00
1.490258932113647461e+00,-9.405796400526089673e-02,-5.002169301884135111e-01,3.000004685418002359e-01,4.154151495167002044e-03,2.219567793047142246e+00,2.219567213082678681e+00,7.409410113926541419e-02,-1.339493604760737949e-02,2.499922733104568225e-08,-3.550473157988333361e-06,-4.310262765610972358e-07,1.154124140739443138e-01,-1.452014271412984669e+00,-2.042760674153463185e+00,-2.120277229939595998e+00,1.021445512771606445e+00,-1.693322006856099904e+00,-3.141593043004171193e+00,1.430469155311584473e-01,6.998711614869534969e-05,-1.339755690423771739e-04,6.756498623872175813e-05,-2.763450145721435547e-02,0.000000000000000000e+00
1.498980522155761719e+00,-9.342933054368889045e-02,-5.003302602492624152e-01,3.000004478210141490e-01,3.067861992267544458e-03,2.220058512223905822e+00,2.220057669901290165e+00,8.628157898529829894e-02,-1.549992588785790645e-02,2.334231605987543190e-08,-4.131123246948961476e-06,-5.104104507875392790e-07,1.345537453889861512e-01,-1.450800720845357716e+00,-2.042760197316304982e+00,-2.120278183613912404e+00,1.021446108818054199e+00,-1.693556133900777638e+00,-3.141593043004171193e+00,1.665669232606887817e-01,7.118833309505134821e-05,-1.361215836368501186e-04,6.909576768521219492e-05,-3.201317787170410156e-02,0.000000000000000000e+00
1.507521867752075195e+00,-9.305686266549234587e-02,-5.003970546080209747e-01,3.000005586790869261e-01,2.422925758522655963e-03,2.220349791287838936e+00,2.220348423699816109e+00,8.811416651823680835e-02,-1.576750100948404870e-02,2.139417307071756490e-08,-4.216416305784400945e-06,-5.318392093067046670e-07,1.374748498201424363e-01,-1.450081650410787404e+00,-2.042759720479146779e+00,-2.120278660451070607e+00,1.021446347236633301e+00,-1.693693939839498341e+00,-3.141593043004171193e+00,1.700945794582366943e-01,6.823442527092993259e-05,-1.303972676396369934e-04,6.641262007178738713e-05,-3.261972963809967041e-02,0.000000000000000000e+00
1.515633106231689453e+00,-9.305686266549234587e-02,-5.003970546080209747e-01,3.000005586790869261e-01,2.422925758522655963e-03,2.220349791287838936e+00,2.220348423699816109e+00,0.000000000000000000e+00,0.000000000000000000e+00,0.000000000000000000e+00,0.000000000000000000e+00,0.000000000000000000e+00,0.000000000000000000e+00,-1.450081650410787404e+00,-2.042759720479146779e+00,-2.120278660451070607e+00,1.021446347236633301e+00,-1.693693939839498341e+00,-3.141593043004171193e+00,0.000000000000000000e+00,0.000000000000000000e+00,0.000000000000000000e+00,0.000000000000000000e+00,0.000000000000000000e+00,0.000000000000000000e+00
1.524224519729614258e+00,-9.305686266549234587e-02,-5.003970546080209747e-01,3.000005586790869261e-01,2.422925758522655963e-03,2.220349791287838936e+00,2.220348423699816109e+00,0.000000000000000000e+00,0.000000000000000000e+00,0.000000000000000000e+00,0.000000000000000000e+00,0.000000000000000000e+00,0.000000000000000000e+00,-1.450081650410787404e+00,-2.042759720479146779e+00,-2.120278660451070607e+00,1.021446347236633301e+00,-1.693693939839498341e+00,-3.141593043004171193e+00,0.000000000000000000e+00,0.000000000000000000e+00,0.000000000000000000e+00,0.000000000000000000e+00,0.000000000000000000e+00,0.000000000000000000e+00
1.533836126327514648e+00,-9.301665036656471541e-02,-5.004042886767049447e-01,3.000005586791871792e-01,2.352552743234297833e-03,2.220381538775775709e+00,2.220380171203337305e+00,1.028478878783005077e-02,-1.848318660424390575e-03,-3.061940362140330483e-09,-4.844067298223896097e-07,-6.110743353650435731e-08,1.617507915943922417e-02,-1.450003925954000294e+00,-2.042759720479146779e+00,-2.120278660451070607e+00,1.021446347236633301e+00,-1.693708244954244435e+00,-3.141593043004171193e+00,1.987200044095516205e-02,8.486082947456452530e-07,-1.499595441600831691e-06,1.139227606472559273e-06,-3.696921281516551971e-03,0.000000000000000000e+00
1.542269229888916016e+00,-9.294507811122430796e-02,-5.004171512270478850e-01,3.000005586793676460e-01,2.227675377404329717e-03,2.220437869920107943e+00,2.220436502375448651e+00,1.658277041609611605e-02,-2.977723932564481629e-03,-4.936589379624037249e-09,-7.810044429807474066e-07,-9.863266407960651809e-08,2.607938414439657515e-02,-1.449865643178121388e+00,-2.042759720479146779e+00,-2.120278660451070607e+00,1.021446347236633301e+00,-1.693733994160787404e+00,-3.141593043004171193e+00,3.203999996185302734e-02,1.368227117382048164e-06,-2.417825953671126626e-06,1.836798105614434462e-06,-5.960615817457437515e-03,0.000000000000000000e+00
1.550482511520385742e+00,-9.294507811122430796e-02,-5.004171512270478850e-01,3.000005586793676460e-01,2.227675377404329717e-03,2.220437869920107943e+00,2.220436502375448651e+00,0.000000000000000000e+00,0.000000000000000000e+00,0.000000000000000000e+00,0.000000000000000000e+00,0.000000000000000000e+00,0.000000000000000000e+00,-1.449865643178121388e+00,-2.042759720479146779e+00,-2.120278660451070607e+00,1.021446347236633301e+00,-1.693733994160787404e+00,-3.141593043004171193e+00,0.000000000000000000e+00,0.000000000000000000e+00,0.000000000000000000e+00,0.000000000000000000e+00,0.000000000000000000e+00,0.000000000000000000e+00
1.558978319168090820e+00,-9.294507811122430796e-02,-5.004171512270478850e-01,3.000005586793676460e-01,2.227675377404329717e-03,2.220437869920107943e+00,2.220436502375448651e+00,0.000000000000000000e+00,0.000000000000000000e+00,0.000000000000000000e+00,0.000000000000000000e+00,0.000000000000000000e+00,0.000000000000000000e+00,-1.449865643178121388e+00,-2.042759720479146779e+00,-2.120278660451070607e+00,1.021446347236633301e+00,-1.693733994160787404e+00,-3.141593043004171193e+00,0.000000000000000000e+00,0.000000000000000000e+00,0.000000000000000000e+00,0.000000000000000000e+00,0.000000000000000000e+00,0.000000000000000000e+00
1.567620754241943359e+00,-9.291000717810234122e-02,-5.004234457822293036e-01,3.000005586794578516e-01,2.166821825339832266e-03,2.220465318146408684e+00,2.220463950615310988e+00,8.972231169836942036e-03,-1.612173928904613984e-03,-4.754319927499443220e-10,-4.262199403287391597e-07,-5.382985888450711487e-08,1.412720978260093019e-02,-1.449797932301656544e+00,-2.042759720479146779e+00,-2.120278660451070607e+00,1.021446347236633301e+00,-1.693746868764058888e+00,-3.141593043004171193e+00,1.733759976923465729e-02,-7.518020765928667970e-07,1.581713377163396217e-06,-4.003101707894529682e-07,-3.210389986634254456e-03,0.000000000000000000e+00
1.576039075851440430e+00,-9.281158652497631389e-02,-5.004411193099659316e-01,3.000005586797018786e-01,1.994307067638927729e-03,2.220543123370759542e+00,2.220541755877902812e+00,1.729578333484813393e-02,-3.104611119035807863e-03,-8.006548031357257944e-10,-8.249449230628253252e-07,-1.043315338666431339e-07,2.723070280626518555e-02,-1.449607674275533498e+00,-2.042759720479146779e+00,-2.120278660451070607e+00,1.021446347236633301e+00,-1.693781677876607716e+00,-3.141593043004171193e+00,3.342028707265853882e-02,-1.783249217623961158e-06,3.695483655974385329e-06,-1.080727088265120983e-06,-6.189584266394376755e-03,0.000000000000000000e+00
1.584283351898193359e+00,-9.265139222872899316e-02,-5.004698255634980608e-01,3.000005586801065549e-01,1.714871042454454422e-03,2.220669124981626386e+00,2.220667757551004762e+00,2.540553113634185997e-02,-4.552835571843406696e-03,-3.188720832136475899e-09,-1.215079417606272516e-06,-1.540427305247184333e-07,3.998757991939932283e-02,-1.449298206959859669e+00,-2.042759720479146779e+00,-2.120278660451070607e+00,1.021446347236633301e+00,-1.693839375172750294e+00,-3.141593043004171193e+00,4.908625781536102295e-02,-3.621869609560235403e-06,7.358465609286213294e-06,-2.511804041205323301e-06,-9.098677895963191986e-03,0.000000000000000000e+00
1.592619180679321289e+00,-9.242830866101622855e-02,-5.005097259180876224e-01,3.000005586806653302e-01,1.324771950991478469e-03,2.220844972838996068e+00,2.220843605495198325e+00,3.366198072884936388e-02,-6.018038417612647448e-03,-4.257356475881177704e-09,-1.609693921997096155e-06,-2.047822955870416088e-07,5.296603217721182477e-02,-1.448867146168844044e+00,-2.042759720479146779e+00,-2.120278660451070607e+00,1.021446347236633301e+00,-1.693919006978170216e+00,-3.141593043004171193e+00,6.503135710954666138e-02,-5.971925020276103169e-06,1.201490613311761990e-05,-4.420330697030294687e-06,-1.206532493233680725e-02,0.000000000000000000e+00
1.601322650909423828e+00,-9.213825913132937806e-02,-5.005616299240975842e-01,3.000006684452050654e-01,8.180845682933720600e-04,2.221073633729822472e+00,2.221071478168676006e+00,4.239163334238863629e-02,-7.554747112192295062e-03,-5.815279197949928759e-09,-2.025015990950747760e-06,-2.642697760622841373e-07,6.667643971741885056e-02,-1.448306862507955373e+00,-2.042759720479146779e+00,-2.120278183613912404e+00,1.021446228027343750e+00,-1.694022957478658498e+00,-3.141593043004171193e+00,8.188467472791671753e-02,-9.014722309075295925e-06,1.801388316380325705e-05,-6.957027835596818477e-06,-1.520823501050472260e-02,0.000000000000000000e+00
