ThomasAsmussen/golf_robot/log/run1_20251013_152347.csv
t,x,y,z,rx,ry,rz,vx,vy,vz,wx,wy,wz,q1,q2,q3,q4,q5,q6,dq1,dq2,dq3,dq4,dq5,dq6
2.304179668426513672e-01,-1.000000822680490037e-01,-5.000002094581326162e-01,3.000001472795442714e-01,-4.422814919258157490e-09,2.221441698759650141e+00,2.221440329442017081e+00,0.000000000000000000e+00,0.000000000000000000e+00,0.000000000000000000e+00,0.000000000000000000e+00,0.000000000000000000e+00,0.000000000000000000e+00,-1.461602036152974904e+00,-2.043482128773824513e+00,-2.118884865437642873e+00,1.020774960517883301e+00,-1.679991070424215138e+00,-3.141593043004171193e+00,0.000000000000000000e+00,0.000000000000000000e+00,0.000000000000000000e+00,0.000000000000000000e+00,0.000000000000000000e+00,0.000000000000000000e+00
2.389416694641113281e-01,-1.000000822680490037e-01,-5.000002094581326162e-01,3.000001472795442714e-01,-4.422814919258157490e-09,2.221441698759650141e+00,2.221440329442017081e+00,0.000000000000000000e+00,0.000000000000000000e+00,0.000000000000000000e+00,0.000000000000000000e+00,0.000000000000000000e+00,0.000000000000000000e+00,-1.461602036152974904e+00,-2.043482128773824513e+00,-2.118884865437642873e+00,1.020774960517883301e+00,-1.679991070424215138e+00,-3.141593043004171193e+00,0.000000000000000000e+00,0.000000000000000000e+00,0.000000000000000000e+00,0.000000000000000000e+00,0.000000000000000000e+00,0.000000000000000000e+00
2.474057674407958984e-01,-1.000000822680490037e-01,-5.000002094581326162e-01,3.000001472795442714e-01,-4.422814919258157490e-09,2.221441698759650141e+00,2.221440329442017081e+00,0.000000000000000000e+00,0.000000000000000000e+00,0.000000000000000000e+00,0.000000000000000000e+00,0.000000000000000000e+00,0.000000000000000000e+00,-1.461602036152974904e+00,-2.043482128773824513e+00,-2.118884865437642873e+00,1.020774960517883301e+00,-1.679991070424215138e+00,-3.141593043004171193e+00,0.000000000000000000e+00,0.000000000000000000e+00,0.000000000000000000e+00,0.000000000000000000e+00,0.000000000000000000e+00,0.000000000000000000e+00
2.559990882873535156e-01,-1.000000822680490037e-01,-5.000002094581326162e-01,3.000001472795442714e-01,-4.422814919258157490e-09,2.221441698759650141e+00,2.221440329442017081e+00,0.000000000000000000e+00,0.000000000000000000e+00,0.000000000000000000e+00,0.000000000000000000e+00,0.000000000000000000e+00,0.000000000000000000e+00,-1.461602036152974904e+00,-2.043482128773824513e+00,-2.118884865437642873e+00,1.020774960517883301e+00,-1.679991070424215138e+00,-3.141593043004171193e+00,0.000000000000000000e+00,0.000000000000000000e+00,0.000000000000000000e+00,0.000000000000000000e+00,0.000000000000000000e+00,0.000000000000000000e+00
2.642955780029296875e-01,-1.000000822680490037e-01,-5.000002094581326162e-01,3.000001472795442714e-01,-4.422814919258157490e-09,2.221441698759650141e+00,2.221440329442017081e+00,0.000000000000000000e+00,0.000000000000000000e+00,0.000000000000000000e+00,0.000000000000000000e+00,0.000000000000000000e+00,0.000000000000000000e+00,-1.461602036152974904e+00,-2.043482128773824513e+00,-2.118884865437642873e+00,1.020774960517883301e+00,-1.679991070424215138e+00,-3.141593043004171193e+00,0.000000000000000000e+00,0.000000000000000000e+00,0.000000000000000000e+00,0.000000000000000000e+00,0.000000000000000000e+00,0.000000000000000000e+00
2.729380130767822266e-01,-1.000000822680490037e-01,-5.000002094581326162e-01,3.000001472795442714e-01,-4.422814919258157490e-09,2.221441698759650141e+00,2.221440329442017081e+00,0.000000000000000000e+00,0.000000000000000000e+00,0.000000000000000000e+00,0.000000000000000000e+00,0.000000000000000000e+00,0.000000000000000000e+00,-1.461602036152974904e+00,-2.043482128773824513e+00,-2.118884865437642873e+00,1.020774960517883301e+00,-1.679991070424215138e+00,-3.141593043004171193e+00,0.000000000000000000e+00,0.000000000000000000e+00,0.000000000000000000e+00,0.000000000000000000e+00,0.000000000000000000e+00,0.000000000000000000e+00
2.812211513519287109e-01,-1.000000822680490037e-01,-5.000002094581326162e-01,3.000001472795442714e-01,-4.422814919258157490e-09,2.221441698759650141e+00,2.221440329442017081e+00,0.000000000000000000e+00,0.000000000000000000e+00,0.000000000000000000e+00,0.000000000000000000e+00,0.000000000000000000e+00,0.000000000000000000e+00,-1.461602036152974904e+00,-2.043482128773824513e+00,-2.118884865437642873e+00,1.020774960517883301e+00,-1.679991070424215138e+00,-3.141593043004171193e+00,0.000000000000000000e+00,0.000000000000000000e+00,0.000000000000000000e+00,0.000000000000000000e+00,0.000000000000000000e+00,0.000000000000000000e+00
2.898573875427246094e-01,-1.000000822680490037e-01,-5.000002094581326162e-01,3.000001472795442714e-01,-4.422814919258157490e-09,2.221441698759650141e+00,2.221440329442017081e+00,0.000000000000000000e+00,0.000000000000000000e+00,0.000000000000000000e+00,0.000000000000000000e+00,0.000000000000000000e+00,0.000000000000000000e+00,-1.461602036152974904e+00,-2.043482128773824513e+00,-2.118884865437642873e+00,1.020774960517883301e+00,-1.679991070424215138e+00,-3.141593043004171193e+00,0.000000000000000000e+00,0.000000000000000000e+00,0.000000000000000000e+00,0.000000000000000000e+00,0.000000000000000000e+00,0.000000000000000000e+00
2.984030246734619141e-01,-1.000000822680490037e-01,-5.000002094581326162e-01,3.000001472795442714e-01,-4.422814919258157490e-09,2.221441698759650141e+00,2.221440329442017081e+00,0.000000000000000000e+00,0.000000000000000000e+00,0.000000000000000000e+00,0.000000000000000000e+00,0.000000000000000000e+00,0.000000000000000000e+00,-1.461602036152974904e+00,-2.043482128773824513e+00,-2.118884865437642873e+00,1.020774960517883301e+00,-1.679991070424215138e+00,-3.141593043004171193e+00,0.000000000000000000e+00,0.000000000000000000e+00,0.000000000000000000e+00,0.000000000000000000e+00,0.000000000000000000e+00,0.000000000000000000e+00
3.071110248565673828e-01,-1.000000822680490037e-01,-5.000002094581326162e-01,3.000001472795442714e-01,-4.422814919258157490e-09,2.221441698759650141e+00,2.221440329442017081e+00,0.000000000000000000e+00,0.000000000000000000e+00,0.000000000000000000e+00,0.000000000000000000e+00,0.000000000000000000e+00,0.000000000000000000e+00,-1.461602036152974904e+00,-2.043482128773824513e+00,-2.118884865437642873e+00,1.020774960517883301e+00,-1.679991070424215138e+00,-3.141593043004171193e+00,0.000000000000000000e+00,0.000000000000000000e+00,0.000000000000000000e+00,0.000000000000000000e+00,0.000000000000000000e+00,0.000000000000000000e+00
3.150968551635742188e-01,-1.000000822680490037e-01,-5.000002094581326162e-01,3.000001472795442714e-01,-4.422814919258157490e-09,2.221441698759650141e+00,2.221440329442017081e+00,0.000000000000000000e+00,0.000000000000000000e+00,0.000000000000000000e+00,0.000000000000000000e+00,0.000000000000000000e+00,0.000000000000000000e+00,-1.461602036152974904e+00,-2.043482128773824513e+00,-2.118884865437642873e+00,1.020774960517883301e+00,-1.679991070424215138e+00,-3.141593043004171193e+00,0.000000000000000000e+00,0.000000000000000000e+00,0.000000000000000000e+00,0.000000000000000000e+00,0.000000000000000000e+00,0.000000000000000000e+00
3.239998817443847656e-01,-1.000000822680490037e-01,-5.000002094581326162e-01,3.000001472795442714e-01,-4.422814919258157490e-09,2.221441698759650141e+00,2.221440329442017081e+00,0.000000000000000000e+00,0.000000000000000000e+00,0.000000000000000000e+00,0.000000000000000000e+00,0.000000000000000000e+00,0.000000000000000000e+00,-1.461602036152974904e+00,-2.043482128773824513e+00,-2.118884865437642873e+00,1.020774960517883301e+00,-1.679991070424215138e+00,-3.141593043004171193e+00,0.000000000000000000e+00,0.000000000000000000e+00,0.000000000000000000e+00,0.000000000000000000e+00,0.000000000000000000e+00,0.000000000000000000e+00
3.321309089660644531e-01,-1.000000822680490037e-01,-5.000002094581326162e-01,3.000001472795442714e-01,-4.422814919258157490e-09,2.221441698759650141e+00,2.221440329442017081e+00,0.000000000000000000e+00,0.000000000000000000e+00,0.000000000000000000e+00,0.000000000000000000e+00,0.000000000000000000e+00,0.000000000000000000e+00,-1.461602036152974904e+00,-2.043482128773824513e+00,-2.118884865437642873e+00,1.020774960517883301e+00,-1.679991070424215138e+00,-3.141593043004171193e+00,0.000000000000000000e+00,0.000000000000000000e+00,0.000000000000000000e+00,0.000000000000000000e+00,0.000000000000000000e+00,0.000000000000000000e+00
3.405003547668457031e-01,-1.000000822680490037e-01,-5.000002094581326162e-01,3.000001472795442714e-01,-4.422814919258157490e-09,2.221441698759650141e+00,2.221440329442017081e+00,0.000000000000000000e+00,0.000000000000000000e+00,0.000000000000000000e+00,0.000000000000000000e+00,0.000000000000000000e+00,0.000000000000000000e+00,-1.461602036152974904e+00,-2.043482128773824513e+00,-2.118884865437642873e+00,1.020774960517883301e+00,-1.679991070424215138e+00,-3.141593043004171193e+00,0.000000000000000000e+00,0.000000000000000000e+00,0.000000000000000000e+00,0.000000000000000000e+00,0.000000000000000000e+00,0.000000000000000000e+00
3.492093086242675781e-01,-1.000000822680490037e-01,-5.000002094581326162e-01,3.000001472795442714e-01,-4.422814919258157490e-09,2.221441698759650141e+00,2.221440329442017081e+00,0.000000000000000000e+00,0.000000000000000000e+00,0.000000000000000000e+00,0.000000000000000000e+00,0.000000000000000000e+00,0.000000000000000000e+00,-1.461602036152974904e+00,-2.043482128773824513e+00,-2.118884865437642873e+00,1.020774960517883301e+00,-1.679991070424215138e+00,-3.141593043004171193e+00,0.000000000000000000e+00,0.000000000000000000e+00,0.000000000000000000e+00,0.000000000000000000e+00,0.000000000000000000e+00,0.000000000000000000e+00
3.575925827026367188e-01,-1.000000822680490037e-01,-5.000002094581326162e-01,3.000001472795442714e-01,-4.422814919258157490e-09,2.221441698759650141e+00,2.221440329442017081e+00,0.000000000000000000e+00,0.000000000000000000e+00,0.000000000000000000e+00,0.000000000000000000e+00,0.000000000000000000e+00,0.000000000000000000e+00,-1.461602036152974904e+00,-2.043482128773824513e+00,-2.118884865437642873e+00,1.020774960517883301e+00,-1.679991070424215138e+00,-3.141593043004171193e+00,0.000000000000000000e+00,0.000000000000000000e+00,0.000000000000000000e+00,0.000000000000000000e+00,0.000000000000000000e+00,0.000000000000000000e+00
3.665266036987304688e-01,-1.000000822680490037e-01,-5.000002094581326162e-01,3.000001472795442714e-01,-4.422814919258157490e-09,2.221441698759650141e+00,2.221440329442017081e+00,0.000000000000000000e+00,0.000000000000000000e+00,0.000000000000000000e+00,0.000000000000000000e+00,0.000000000000000000e+00,0.000000000000000000e+00,-1.461602036152974904e+00,-2.043482128773824513e+00,-2.118884865437642873e+00,1.020774960517883301e+00,-1.679991070424215138e+00,-3.141593043004171193e+00,0.000000000000000000e+00,0.000000000000000000e+00,0.000000000000000000e+00,0.000000000000000000e+00,0.000000000000000000e+00,0.000000000000000000e+00
3.747098445892333984e-01,-1.000000822680490037e-01,-5.000002094581326162e-01,3.000001472795442714e-01,-4.422814919258157490e-09,2.221441698759650141e+00,2.221440329442017081e+00,0.000000000000000000e+00,0.000000000000000000e+00,0.000000000000000000e+00,0.000000000000000000e+00,0.000000000000000000e+00,0.000000000000000000e+00,-1.461602036152974904e+00,-2.043482128773824513e+00,-2.118884865437642873e+00,1.020774960517883301e+00,-1.679991070424215138e+00,-3.141593043004171193e+00,0.000000000000000000e+00,0.000000000000000000e+00,0.000000000000000000e+00,0.000000000000000000e+00,0.000000000000000000e+00,0.000000000000000000e+00
3.830063343048095703e-01,-1.000000822680490037e-01,-5.000002094581326162e-01,3.000001472795442714e-01,-4.422814919258157490e-09,2.221441698759650141e+00,2.221440329442017081e+00,0.000000000000000000e+00,0.000000000000000000e+00,0.000000000000000000e+00,0.000000000000000000e+00,0.000000000000000000e+00,0.000000000000000000e+00,-1.461602036152974904e+00,-2.043482128773824513e+00,-2.118884865437642873e+00,1.020774960517883301e+00,-1.679991070424215138e+00,-3.141593043004171193e+00,0.000000000000000000e+00,0.000000000000000000e+00,0.000000000000000000e+00,0.000000000000000000e+00,0.000000000000000000e+00,0.000000000000000000e+00
3.913140296936035156e-01,-1.000000822680490037e-01,-5.000002094581326162e-01,3.000001472795442714e-01,-4.422814919258157490e-09,2.221441698759650141e+00,2.221440329442017081e+00,0.000000000000000000e+00,0.000000000000000000e+00,0.000000000000000000e+00,0.000000000000000000e+00,0.000000000000000000e+00,0.000000000000000000e+00,-1.461602036152974904e+00,-2.043482128773824513e+00,-2.118884865437642873e+00,1.020774960517883301e+00,-1.679991070424215138e+00,-3.141593043004171193e+00,0.000000000000000000e+00,0.000000000000000000e+00,0.000000000000000000e+00,0.000000000000000000e+00,0.000000000000000000e+00,0.000000000000000000e+00
3.997416496276855469e-01,-1.000005591053615001e-01,-5.000001140903951313e-01,3.000001472795442714e-01,1.054602842150914556e-06,2.221441221980504643e+00,2.221439852638395607e+00,-6.093371564735843850e-05,1.325443267489481094e-05,-2.338569231524746783e-08,-2.823761537011382186e-13,2.575733960081581410e-12,-1.166599990938274405e-04,-1.461602989827291310e+00,-2.043482128773824513e+00,-2.118884865437642873e+00,1.020774960517883301e+00,-1.679991070424215138e+00,-3.141593043004171193e+00,-1.208399989991448820e-04,1.139999994848039933e-06,-2.279999989696079865e-06,1.139999994848039933e-06,4.179999905318254605e-06,0.000000000000000000e+00
4.081091880798339844e-01,-1.000010359425830275e-01,-5.000000187222030101e-01,3.000001472795442714e-01,2.114025330382760833e-06,2.221440745126016747e+00,2.221439375805128513e+00,-6.414073732764082980e-05,1.395209507702323288e-05,-2.461651920853079995e-08,-2.972354676100457201e-13,2.711299159302857560e-12,-1.227999937327703211e-04,-1.461603943501607716e+00,-2.043482128773824513e+00,-2.118884865437642873e+00,1.020774960517883301e+00,-1.679991070424215138e+00,-3.141593043004171193e+00,-1.271999935852363706e-04,1.200000042445026338e-06,-2.400000084890052676e-06,1.200000042445026338e-06,4.399999852466862649e-06,0.000000000000000000e+00
4.165561199188232422e-01,-1.000034849343498650e-01,-4.999993517450140312e-01,3.000000374132487102e-01,6.924097231369501319e-06,2.221438223934450562e+00,2.221437644338352779e+00,-3.587969324746840410e-04,7.784579501114634943e-05,-1.221021359999052390e-08,-1.172244953384250231e-12,6.520250346681991569e-12,-6.862799800728689240e-04,-1.461608711873189748e+00,-2.043482128773824513e+00,-2.118885342274801076e+00,1.020775079727172852e+00,-1.679990593587056935e+00,-3.141593043004171193e+00,-7.114799809642136097e-04,6.719999873894266784e-06,-1.301999964198330417e-05,6.300000222836388275e-06,2.520000089134555310e-05,0.000000000000000000e+00
4.252176284790039062e-01,-1.000128376689037590e-01,-4.999973963577118430e-01,3.000002582897425274e-01,2.697786009875588497e-05,2.221429789588839299e+00,2.221427893790004049e+00,-1.865268878175607107e-03,4.046187539404300874e-04,-5.494930562538197361e-08,-1.550773717648188427e-11,1.080972139806646026e-10,-3.572359899408230829e-03,-1.461627308522359669e+00,-2.043481651936666310e+00,-2.118885342274801076e+00,1.020775198936462402e+00,-1.679990116749898732e+00,-3.141593043004171193e+00,-3.699519904330372810e-03,3.475999983493238688e-05,-6.731999746989458799e-05,3.256000127294100821e-05,1.271600049221888185e-04,0.000000000000000000e+00
4.338243007659912109e-01,-1.000284450120876717e-01,-4.999940924326714553e-01,3.000001374978113478e-01,6.037299331509113386e-05,2.221414518649074132e+00,2.221413149319609204e+00,-2.818465130484041140e-03,6.116696985913532914e-04,5.783053525100980066e-08,4.572508935313609781e-07,5.022130228130991255e-08,-5.399940171628201009e-03,-1.461658302937642873e+00,-2.043481651936666310e+00,-2.118885819111959279e+00,1.020775437355041504e+00,-1.679989163075582326e+00,-3.141593043004171193e+00,-5.590380169451236725e-03,5.289999899105168879e-05,-1.021200005197897553e-04,4.876000093645416200e-05,1.904399978229776025e-04,0.000000000000000000e+00
4.418754577636718750e-01,-1.000488942819761640e-01,-4.999895619078798537e-01,3.000001386417154858e-01,1.038158860039469075e-04,2.221394842405219894e+00,2.221393736303421740e+00,-4.024078523320612048e-03,8.737715153479973153e-04,6.665476312890698379e-09,3.921930723214838310e-07,4.309246713218817977e-08,-7.715312589425547644e-03,-1.461698834096090138e+00,-2.043481175099508107e+00,-2.118886772786275685e+00,1.020775794982910156e+00,-1.679987732564107716e+00,-3.141593043004171193e+00,-7.982582785189151764e-03,7.561811798950657248e-05,-1.461493229726329446e-04,7.013665162958204746e-05,2.672701957635581493e-04,0.000000000000000000e+00
4.519572257995605469e-01,-1.000755875041309390e-01,-4.999837761551499948e-01,3.000001288599588034e-01,1.604835712397794929e-04,2.221369329944396842e+00,2.221368223830356037e+00,-4.915363574211515860e-03,1.067819910336766272e-03,-4.672264500716759798e-09,3.673116652532520280e-07,4.037570078289980864e-08,-9.427974786376544167e-03,-1.461751763020650685e+00,-2.043480698262349904e+00,-2.118887726460592091e+00,1.020776271820068359e+00,-1.679985825215474904e+00,-3.141593043004171193e+00,-9.751291014254093170e-03,9.254070027964189649e-05,-1.788642402971163392e-04,8.595401595812290907e-05,3.233162278775125742e-04,0.000000000000000000e+00
4.605364799499511719e-01,-1.001072884590056417e-01,-4.999769728596707985e-01,3.000001081525375257e-01,2.282568334908182523e-04,2.221338934543354515e+00,2.221337565184167140e+00,-5.700812717046936998e-03,1.239348052473477962e-03,2.638596470300381292e-08,4.956745268195430200e-07,5.446441498269282110e-08,-1.094165394897569574e-02,-1.461814705525533498e+00,-2.043480221425191701e+00,-2.118888680134908498e+00,1.020776867866516113e+00,-1.679983917866842091e+00,-3.141593043004171193e+00,-1.131067145615816116e-02,1.077977212844416499e-04,-2.082677528960630298e-04,9.997137385653331876e-05,3.690175071824342012e-04,0.000000000000000000e+00
4.687848091125488281e-01,-1.001440676461032714e-01,-4.999689064811081440e-01,3.000002203059717876e-01,3.066196104844250018e-04,2.221303769021814478e+00,2.221302136420979068e+00,-6.474350700507489932e-03,1.408615675876441617e-03,3.926327361027689867e-08,4.712956159272474108e-07,5.183789428549687863e-08,-1.243565135519021821e-02,-1.461887661610738576e+00,-2.043479267750875294e+00,-2.118890110646383107e+00,1.020777463912963867e+00,-1.679981533681051076e+00,-3.141593043004171193e+00,-1.284696254879236221e-02,1.229159242939203978e-04,-2.374167379457503557e-04,1.140266758739016950e-04,4.113111936021596193e-04,0.000000000000000000e+00
4.787678718566894531e-01,-1.001861572176514503e-01,-4.999595825673004423e-01,3.000002116677775721e-01,3.961292456174735728e-04,2.221263344096789716e+00,2.221261974706808306e+00,-7.282222198848394869e-03,1.585816661052740200e-03,7.647183757390045252e-08,4.247730955616302400e-07,4.669200704488525962e-08,-1.399866526480763977e-02,-1.461971108113424123e+00,-2.043478314076558888e+00,-2.118892017995015919e+00,1.020778298377990723e+00,-1.679978672658101857e+00,-3.141593043004171193e+00,-1.445189863443374634e-02,1.389456010656431317e-04,-2.682380727492272854e-04,1.288651401409879327e-04,4.532333696261048317e-04,0.000000000000000000e+00
4.866654872894287109e-01,-1.002339481415020633e-01,-4.999492844848431039e-01,3.000003019692124573e-01,4.982866902561580236e-04,2.221217694437227941e+00,2.221215535369643668e+00,-8.150203870273580592e-03,1.776845587406114405e-03,9.135962126583665212e-08,5.166292056870989548e-07,5.688008702778699034e-08,-1.568468404002500496e-02,-1.462065998707906544e+00,-2.043477360402242482e+00,-2.118893448506490529e+00,1.020779132843017578e+00,-1.679975811635152638e+00,-3.141593043004171193e+00,-1.617730222642421722e-02,1.564691337989643216e-04,-3.020618169102817774e-04,1.450729323551058769e-04,4.926181863993406296e-04,0.000000000000000000e+00
4.957072734832763672e-01,-1.002879568673213789e-01,-4.999375483853427116e-01,3.000002824050261863e-01,6.142501823210107150e-04,2.221165466277969625e+00,2.221163307202967729e+00,-9.096036048793387785e-03,1.985611842847083332e-03,1.109674521298961045e-07,5.146638633367747028e-07,5.664720560995784868e-08,-1.752758771181121139e-02,-1.462173287068502248e+00,-2.043476406727926076e+00,-2.118895355855123341e+00,1.020780086517333984e+00,-1.679972950612203419e+00,-3.141593043004171193e+00,-1.805838011205196381e-02,1.758627040544524789e-04,-3.394527884665876627e-04,1.630723127163946629e-04,5.307924002408981323e-04,0.000000000000000000e+00
5.040853023529052734e-01,-1.003492243554447438e-01,-4.999241807941616766e-01,3.000001529759092622e-01,7.450766634103128021e-04,2.221106181515838607e+00,2.221104812061706291e+00,-1.013506464440006548e-02,2.214895362878337333e-03,1.279413421685764083e-07,5.779784456384047771e-07,6.331859296955596037e-08,-1.954712689621372970e-02,-1.462294880543844044e+00,-2.043475453053609669e+00,-2.118897740040914357e+00,1.020781159400939941e+00,-1.679969135914937794e+00,-3.141593043004171193e+00,-2.012419700622558594e-02,1.968886062968522310e-04,-3.800255362875759602e-04,1.825554936658591032e-04,5.770701100118458271e-04,0.000000000000000000e+00
5.132439136505126953e-01,-1.004179108065471476e-01,-4.999090356523409051e-01,3.000001345554800247e-01,8.922801499942468019e-04,2.221039748924968915e+00,2.221038642647775507e+00,-1.128068029826634691e-02,2.468311608296434000e-03,1.394044896349274492e-07,6.524513110381123403e-07,7.129557824033577497e-08,-2.177806390682229809e-02,-1.462431255971090138e+00,-2.043474022542135060e+00,-2.118900601063863576e+00,1.020782470703125000e+00,-1.679965321217672169e+00,-3.141593043004171193e+00,-2.240268513560295105e-02,2.202767645940184593e-04,-4.251824866514652967e-04,2.042493870249018073e-04,6.246212287805974483e-04,0.000000000000000000e+00
5.214173793792724609e-01,-1.004954585571385117e-01,-4.998921080719372911e-01,3.000001161349399870e-01,1.058533511802346987e-03,2.220964723889017112e+00,2.220963880772176768e+00,-1.254768869197140854e-02,2.749296647860961524e-03,1.364897984647623278e-07,7.821776245184583225e-07,8.523073906715005579e-08,-2.424957387847814783e-02,-1.462585274373189748e+00,-2.043472592030660451e+00,-2.118903462086812794e+00,1.020783782005310059e+00,-1.679961029683248341e+00,-3.141593043004171193e+00,-2.492337301373481750e-02,2.463507989887148142e-04,-4.755920672323554754e-04,2.284544607391580939e-04,6.737991352565586567e-04,0.000000000000000000e+00
5.301916599273681641e-01,-1.005828086557368217e-01,-4.998729026846157053e-01,3.000001977958920985e-01,1.246436666504613941e-03,2.220880286850823726e+00,2.220878917304989653e+00,-1.395196630877982777e-02,3.062049379085699744e-03,1.544299617954766504e-07,8.327923897325614392e-07,9.077242400274854577e-08,-2.700071682920675981e-02,-1.462758843098775685e+00,-2.043470684682027638e+00,-2.118906799946920216e+00,1.020785450935363770e+00,-1.679956738148824513e+00,-3.141593043004171193e+00,-2.771909348666667938e-02,2.759246563073247671e-04,-5.326669197529554367e-04,2.559045387897640467e-04,7.183766574598848820e-04,0.000000000000000000e+00
5.384073257446289062e-01,-1.006442619839279795e-01,-4.998594510269863678e-01,3.000000683678537561e-01,1.378288158161323313e-03,2.220820506291281582e+00,2.220819926275261480e+00,-1.600485839549071684e-02,3.515421840838019781e-03,1.780508455166877197e-07,9.441974058269305337e-07,1.025057950994031171e-07,-3.098538279300538933e-02,-1.462880913411275685e+00,-2.043469731007711232e+00,-2.118909184132711232e+00,1.020786523818969727e+00,-1.679953400288717091e+00,-3.141593043004171193e+00,-3.180019184947013855e-02,3.171333228237926960e-04,-6.122136837802827358e-04,2.941306156571954489e-04,8.148090564645826817e-04,0.000000000000000000e+00
5.469675064086914062e-01,-1.006442619839279795e-01,-4.998594510269863678e-01,3.000000683678537561e-01,1.378288158161323313e-03,2.220820506291281582e+00,2.220819926275261480e+00,0.000000000000000000e+00,0.000000000000000000e+00,0.000000000000000000e+00,0.000000000000000000e+00,0.000000000000000000e+00,0.000000000000000000e+00,-1.462880913411275685e+00,-2.043469731007711232e+00,-2.118909184132711232e+00,1.020786523818969727e+00,-1.679953400288717091e+00,-3.141593043004171193e+00,0.000000000000000000e+00,0.000000000000000000e+00,0.000000000000000000e+00,0.000000000000000000e+00,0.000000000000000000e+00,0.000000000000000000e+00
5.553767681121826172e-01,-1.006442619839279795e-01,-4.998594510269863678e-01,3.000000683678537561e-01,1.378288158161323313e-03,2.220820506291281582e+00,2.220819926275261480e+00,0.000000000000000000e+00,0.000000000000000000e+00,0.000000000000000000e+00,0.000000000000000000e+00,0.000000000000000000e+00,0.000000000000000000e+00,-1.462880913411275685e+00,-2.043469731007711232e+00,-2.118909184132711232e+00,1.020786523818969727e+00,-1.679953400288717091e+00,-3.141593043004171193e+00,0.000000000000000000e+00,0.000000000000000000e+00,0.000000000000000000e+00,0.000000000000000000e+00,0.000000000000000000e+00,0.000000000000000000e+00
5.638525485992431641e-01,-1.006614996325775890e-01,-4.998556958762121472e-01,3.000001684490672393e-01,1.415827777167838041e-03,2.220803942180537671e+00,2.220802572603800762e+00,-4.491590632699972441e-03,9.884137026890426388e-04,5.251472967042254810e-08,2.536343666020684621e-07,2.759861177305658985e-08,-8.720124213141377048e-03,-1.462915245686666310e+00,-2.043469254170553029e+00,-2.118909660969869435e+00,1.020786881446838379e+00,-1.679952923451558888e+00,-3.141593043004171193e+00,-8.927999995648860931e-03,9.034503455040976405e-05,-1.743968168739229441e-04,8.379665086977183819e-05,2.078757825074717402e-04,0.000000000000000000e+00
5.721671581268310547e-01,-1.007025168745752236e-01,-4.998467107628235540e-01,3.000002696734039853e-01,1.504195472180623865e-03,2.220764347524326165e+00,2.220762451572314777e+00,-7.665008833326865043e-03,1.687878563617599284e-03,8.511628006675627053e-08,4.481113450504420981e-07,4.879552730125575168e-08,-1.488807724672373128e-02,-1.462996784840719044e+00,-2.043468300496236623e+00,-2.118911091481344044e+00,1.020787596702575684e+00,-1.679951016102926076e+00,-3.141593043004171193e+00,-1.523711998015642166e-02,1.545409468235448003e-04,-2.983368758577853441e-04,1.433451689081266522e-04,3.490427334327250719e-04,0.000000000000000000e+00
5.817410945892333984e-01,-1.007615408526482265e-01,-4.998337112158753870e-01,3.000001293197880337e-01,1.631255283087351161e-03,2.220706831973087159e+00,2.220705462357098092e+00,-1.015646713855272547e-02,2.239522389030636131e-03,1.063734269601805141e-07,6.127904388489321248e-07,6.651778689291626382e-08,-1.975320139899845381e-02,-1.463114086781637013e+00,-2.043467346821920216e+00,-2.118913475667135060e+00,1.020788788795471191e+00,-1.679948155079976857e+00,-3.141593043004171193e+00,-2.019409835338592529e-02,2.061564446194097400e-04,-3.980078035965561867e-04,1.912349689519032836e-04,4.408969543874263763e-04,0.000000000000000000e+00
5.902464389801025391e-01,-1.008361384185210152e-01,-4.998172118872555858e-01,3.000003317669486802e-01,1.792094729059862330e-03,2.220634791332306790e+00,2.220632369014437835e+00,-1.232166752185863759e-02,2.720379907684955609e-03,1.373631483605636265e-07,7.099928578097334356e-07,7.721371380313806898e-08,-2.398671128321455681e-02,-1.463262383137838185e+00,-2.043465439473287404e+00,-2.118916336690084279e+00,1.020790219306945801e+00,-1.679944817219869435e+00,-3.141593043004171193e+00,-2.450318820774555206e-02,2.513128565624356270e-04,-4.851496196351945400e-04,2.331225841771811247e-04,5.164769245311617851e-04,0.000000000000000000e+00
5.986590385437011719e-01,-1.009255414880844415e-01,-4.997974194292352235e-01,3.000000826944644872e-01,1.985877852504710529e-03,2.220546696918158869e+00,2.220545853558445248e+00,-1.436619702909195523e-02,3.177335548476240869e-03,1.614800875715804917e-07,8.521790851309671898e-07,9.205725104925247672e-08,-2.800924930488677203e-02,-1.463440243397847951e+00,-2.043464008961812794e+00,-2.118920151387349904e+00,1.020791888236999512e+00,-1.679941479359762013e+00,-3.141593043004171193e+00,-2.857623063027858734e-02,2.952985814772546291e-04,-5.700679030269384384e-04,2.739121846389025450e-04,5.669813253916800022e-04,0.000000000000000000e+00
6.070375442504882812e-01,-1.010295612374178253e-01,-4.997743048092950779e-01,3.000001764209242472e-01,2.211309545842876818e-03,2.220445024124903188e+00,2.220444180706271364e+00,-1.642122990129425697e-02,3.637941999355251768e-03,1.812097527084315628e-07,9.750911727446471463e-07,1.051186542788681861e-07,-3.205372911179422274e-02,-1.463647190724508107e+00,-2.043461624776021779e+00,-2.118924442921773732e+00,1.020793795585632324e+00,-1.679937664662496388e+00,-3.141593043004171193e+00,-3.267088532447814941e-02,3.395355888642370701e-04,-6.554794963449239731e-04,3.149631666019558907e-04,6.171562126837670803e-04,0.000000000000000000e+00
6.154923439025878906e-01,-1.011491779429731230e-01,-4.997478022077180837e-01,3.000001275077202600e-01,2.470054309877955066e-03,2.220328301115065184e+00,2.220327457628798129e+00,-1.857523375739958404e-02,4.122261480969765211e-03,2.009213246381109609e-07,1.118239753922473768e-06,1.202662427919876682e-07,-3.629560960689540844e-02,-1.463885132466451466e+00,-2.043459240590230763e+00,-2.118929211293355763e+00,1.020796179771423340e+00,-1.679932896290914357e+00,-3.141593043004171193e+00,-3.696365654468536377e-02,3.860273573081940413e-04,-7.452524150721728802e-04,3.581003693398088217e-04,6.680469377897679806e-04,0.000000000000000000e+00
6.242833137512207031e-01,-1.012854543246128752e-01,-4.997176048164387319e-01,3.000001895976909805e-01,2.766305445047178083e-03,2.220194862395743041e+00,2.220193492573738769e+00,-2.089407532300806281e-02,4.647247689736063586e-03,2.243273682759661722e-07,1.282363694428866978e-06,1.377066743673501280e-07,-4.089252057019607256e-02,-1.464156452809469044e+00,-2.043456379567281544e+00,-2.118934456502095998e+00,1.020798802375793457e+00,-1.679928604756490529e+00,-3.141593043004171193e+00,-4.158997908234596252e-02,4.377225995995104313e-04,-8.450690656900405884e-04,4.060567298438400030e-04,6.974585121497511864e-04,0.000000000000000000e+00
6.328907012939453125e-01,-1.014404454495654306e-01,-4.996831214803721388e-01,3.000002528286137005e-01,3.102737073037998335e-03,2.220043131061856911e+00,2.220041498063261898e+00,-2.343881285560900363e-02,5.224969187205737338e-03,2.551186864244787250e-07,1.441850960574282725e-06,1.544387659326229451e-07,-4.593503108480936209e-02,-1.464464966450826466e+00,-2.043453041707174123e+00,-2.118940655385152638e+00,1.020801782608032227e+00,-1.679923359547750294e+00,-3.141593043004171193e+00,-4.666738212108612061e-02,4.943020758219063282e-04,-9.542928310111165047e-04,4.585406568367034197e-04,7.323510362766683102e-04,0.000000000000000000e+00
6.412882804870605469e-01,-1.016159665362917491e-01,-4.996439337100622158e-01,3.000003062741769533e-01,3.484607308996566857e-03,2.219870834807625926e+00,2.219868938655027435e+00,-2.626629246158098882e-02,5.869003364414046055e-03,2.936474680110235110e-07,1.604682589857583287e-06,1.713725313999015406e-07,-5.153866315959016592e-02,-1.464814488087789357e+00,-2.043449227009908498e+00,-2.118947807942525685e+00,1.020805239677429199e+00,-1.679918114339010060e+00,-3.141593043004171193e+00,-5.230990797281265259e-02,5.571721121668815613e-04,-1.075641135685145855e-03,5.168552161194384098e-04,7.712448132224380970e-04,0.000000000000000000e+00
6.493120193481445312e-01,-1.018149336297394653e-01,-4.995992606318964135e-01,3.000002510013490831e-01,3.917768472754134743e-03,2.219674833512604195e+00,2.219673726565552840e+00,-2.943660047990753412e-02,6.593907347291140704e-03,3.318197485311820922e-07,1.777154302498875238e-06,1.887517021304010657e-07,-5.782499635824907280e-02,-1.465210739766256154e+00,-2.043444935475484669e+00,-2.118956391011373341e+00,1.020809173583984375e+00,-1.679912392293111623e+00,-3.141593043004171193e+00,-5.863812193274497986e-02,6.277913926169276237e-04,-1.211960683576762676e-03,5.823821411468088627e-04,8.131255744956433773e-04,0.000000000000000000e+00
6.577408313751220703e-01,-1.020403565203645141e-01,-4.995487811537945300e-01,3.000002739495036264e-01,4.409467358947206407e-03,2.219452893479637812e+00,2.219451260297868433e+00,-3.301713217497680153e-02,7.416121531435827113e-03,3.810740459166894620e-07,1.964419285309359048e-06,2.079334314909803863e-07,-6.493001256603730953e-02,-1.465659920369283498e+00,-2.043440167103902638e+00,-2.118965450917379201e+00,1.020813703536987305e+00,-1.679906670247213185e+00,-3.141593043004171193e+00,-6.578722596168518066e-02,7.077776244841516018e-04,-1.366338343359529972e-03,6.565853254869580269e-04,8.572133956477046013e-04,0.000000000000000000e+00
6.663229465484619141e-01,-1.022961610858816733e-01,-4.994913393040472660e-01,3.000001881802272785e-01,4.967196330344935545e-03,2.219200522584508395e+00,2.219199415406273523e+00,-3.708627369918994499e-02,8.355017943459067120e-03,4.270243195702114812e-07,2.203916479314660819e-06,2.318880788827160200e-07,-7.301173271844128843e-02,-1.466169659291402638e+00,-2.043434921895162404e+00,-2.118975941334859669e+00,1.020818710327148438e+00,-1.679899994526998341e+00,-3.141593043004171193e+00,-7.391460984945297241e-02,7.989718578755855560e-04,-1.542390440590679646e-03,7.412025006487965584e-04,9.028771310113370419e-04,0.000000000000000000e+00
6.748647689819335938e-01,-1.025868039156422190e-01,-4.994256598370662714e-01,3.000000937673038548e-01,5.601964845974992391e-03,2.218913050674850229e+00,2.218912732402464005e+00,-4.173749717373097939e-02,9.433927695137995714e-03,4.824994919520052036e-07,2.498410657579524369e-06,2.610316304463910605e-07,-8.225857297657007683e-02,-1.466749016438619435e+00,-2.043428723012105763e+00,-2.118988339100972951e+00,1.020824551582336426e+00,-1.679893318806783498e+00,-3.141593043004171193e+00,-8.320806175470352173e-02,9.036075789481401443e-04,-1.744388020597398281e-03,8.382684318348765373e-04,9.494887781329452991e-04,0.000000000000000000e+00
6.841738224029541016e-01,-1.029180097804894972e-01,-4.993506804067293636e-01,3.000000896367115977e-01,6.325807225899143273e-03,2.218585444541378848e+00,2.218585126022249998e+00,-4.708218549890878790e-02,1.068283403992185271e-02,5.423259089977485295e-07,2.839768284345735601e-06,2.947854810414875944e-07,-9.292108792578746002e-02,-1.467409435902730763e+00,-2.043421570454732716e+00,-2.119002167378560841e+00,1.020831227302551270e+00,-1.679886166249410451e+00,-3.141593043004171193e+00,-9.389525651931762695e-02,1.025732606649398804e-03,-1.980162924155592918e-03,9.515752899460494518e-04,9.741685935296118259e-04,0.000000000000000000e+00
6.927380561828613281e-01,-1.032959779598604383e-01,-4.992647537426083693e-01,3.000002867739814394e-01,7.152347632913442881e-03,2.218211690085621690e+00,2.218210056522260221e+00,-5.326118015193213179e-02,1.213582544259675378e-02,6.153179963669945109e-07,3.217155755527462660e-06,3.320926053977427212e-07,-1.052570381434630442e-01,-1.468163315449849904e+00,-2.043412987385885060e+00,-2.119017903004781544e+00,1.020838975906372070e+00,-1.679878536854879201e+00,-3.141593043004171193e+00,-1.062556356191635132e-01,1.167235546745359898e-03,-2.253328450024127960e-03,1.082858652807772160e-03,9.985974757000803947e-04,0.000000000000000000e+00
7.008073329925537109e-01,-1.037285201469030915e-01,-4.991658705046140287e-01,3.000002555528699655e-01,8.099598706104410573e-03,2.217782088575414257e+00,2.217780980709469940e+00,-6.044636342218114022e-02,1.383755139114797687e-02,6.984010413955338118e-07,3.679094787588401918e-06,3.762328279006550157e-07,-1.196150772739195400e-01,-1.469026390706197560e+00,-2.043403450642720998e+00,-2.119036499653951466e+00,1.020847797393798828e+00,-1.679870907460347951e+00,-3.141593043004171193e+00,-1.206354945898056030e-01,1.332278829067945480e-03,-2.571952063590288162e-03,1.235974952578544617e-03,1.020417315885424614e-03,0.000000000000000000e+00
7.098073959350585938e-01,-1.042255879468718532e-01,-4.990518686741851617e-01,3.000003048120881699e-01,9.189442534297086532e-03,2.217287755395100035e+00,2.217286384420752654e+00,-6.885241838691706640e-02,1.584460276618080213e-02,7.920438888108092249e-07,4.201474774687920032e-06,4.255000266121936782e-07,-1.364307682961218848e-01,-1.470018688832418263e+00,-2.043392483388082326e+00,-2.119057480488912404e+00,1.020857930183410645e+00,-1.679863278065816701e+00,-3.141593043004171193e+00,-1.374676823616027832e-01,1.526018953882157803e-03,-2.945980755612254143e-03,1.415738835930824280e-03,1.036914065480232239e-03,0.000000000000000000e+00
7.177696228027343750e-01,-1.047984153941919211e-01,-4.989196353227675629e-01,3.000001050083578868e-01,1.044607355843859935e-02,2.216716434187644857e+00,2.216716377083785883e+00,-7.874946011855409045e-02,1.822930927502433227e-02,9.142545176657039966e-07,4.801829284878499641e-06,4.800384808957584060e-07,-1.562528724316497863e-01,-1.471162621174947560e+00,-2.043380085621969044e+00,-2.119082276021138966e+00,1.020869731903076172e+00,-1.679855171834127248e+00,-3.141593043004171193e+00,-1.572975218296051025e-01,1.755005563609302044e-03,-3.388012293726205826e-03,1.628180965781211853e-03,1.044649397954344749e-03,0.000000000000000000e+00
7.262952327728271484e-01,-1.054619028992676566e-01,-4.987654547609791100e-01,3.000003186161880331e-01,1.190276106443017602e-02,2.216054512658597542e+00,2.216053403961797397e+00,-9.048004869191163257e-02,2.108534007573500610e-02,1.047793197597853792e-06,5.544452718066318266e-06,5.473500875196302937e-07,-1.797784951049824498e-01,-1.472488228474752248e+00,-2.043364826832906544e+00,-2.119110886250631154e+00,1.020883560180664062e+00,-1.679847065602437794e+00,-3.141593043004171193e+00,-1.808175146579742432e-01,2.027528593316674232e-03,-3.914125729352235794e-03,1.881025731563568115e-03,1.039019552990794182e-03,0.000000000000000000e+00
7.345051765441894531e-01,-1.054762367344096452e-01,-4.987622327075459383e-01,3.000001978498878508e-01,1.193388573223780162e-02,2.216040111850012373e+00,2.216039528662714808e+00,-8.618338317576633434e-02,2.008689189610240317e-02,9.985064432439181985e-07,5.281622306500460724e-06,5.210129464204168864e-07,-1.712456833338354412e-01,-1.472516838704244435e+00,-2.043364826832906544e+00,-2.119111363087789357e+00,1.020883798599243164e+00,-1.679846588765279591e+00,-3.141593043004171193e+00,-1.722326427698135376e-01,1.931435777805745602e-03,-3.728619543835520744e-03,1.791876507923007011e-03,9.869594359770417213e-04,0.000000000000000000e+00
7.427225112915039062e-01,-1.054762367344096452e-01,-4.987622327075459383e-01,3.000001978498878508e-01,1.193388573223780162e-02,2.216040111850012373e+00,2.216039528662714808e+00,0.000000000000000000e+00,0.000000000000000000e+00,0.000000000000000000e+00,0.000000000000000000e+00,0.000000000000000000e+00,0.000000000000000000e+00,-1.472516838704244435e+00,-2.043364826832906544e+00,-2.119111363087789357e+00,1.020883798599243164e+00,-1.679846588765279591e+00,-3.141593043004171193e+00,0.000000000000000000e+00,0.000000000000000000e+00,0.000000000000000000e+00,0.000000000000000000e+00,0.000000000000000000e+00,0.000000000000000000e+00
7.508778572082519531e-01,-1.054762367344096452e-01,-4.987622327075459383e-01,3.000001978498878508e-01,1.193388573223780162e-02,2.216040111850012373e+00,2.216039528662714808e+00,0.000000000000000000e+00,0.000000000000000000e+00,0.000000000000000000e+00,0.000000000000000000e+00,0.000000000000000000e+00,0.000000000000000000e+00,-1.472516838704244435e+00,-2.043364826832906544e+00,-2.119111363087789357e+00,1.020883798599243164e+00,-1.679846588765279591e+00,-3.141593043004171193e+00,0.000000000000000000e+00,0.000000000000000000e+00,0.000000000000000000e+00,0.000000000000000000e+00,0.000000000000000000e+00,0.000000000000000000e+00
7.596638202667236328e-01,-1.055153354848871183e-01,-4.987530162713240123e-01,3.000001892020953687e-01,1.202033719988719260e-02,2.216000652383645075e+00,2.216000331925103595e+00,-9.931633221550620338e-03,2.326825998583198149e-03,1.177724748510743032e-07,6.336227983063365234e-07,6.241985319293696146e-08,-1.989641627733349655e-02,-1.472595039998189748e+00,-2.043363873158590138e+00,-2.119113270436422169e+00,1.020884633064270020e+00,-1.679846588765279591e+00,-3.141593043004171193e+00,-1.987200044095516205e-02,2.314798475708812475e-04,-4.468762490432709455e-04,2.147597115254029632e-04,-2.441583637846633792e-05,0.000000000000000000e+00
7.686817646026611328e-01,-1.055244009535550448e-01,-4.987508182294849157e-01,3.000003001812424075e-01,1.204033763763803777e-02,2.215991788615512270e+00,2.215990942642555694e+00,-1.067525487450415866e-02,2.501251016691932033e-03,1.265335498072402577e-07,6.810525673817974753e-07,6.707353712011232613e-08,-2.138624467079338828e-02,-1.472613159810201466e+00,-2.043363396321431935e+00,-2.119113747273580373e+00,1.020884871482849121e+00,-1.679846588765279591e+00,-3.141593043004171193e+00,-2.136000059545040131e-02,2.488128957338631153e-04,-4.803379997611045837e-04,2.308407565578818321e-04,-2.624407534312922508e-05,0.000000000000000000e+00
7.766511440277099609e-01,-1.055244009535550448e-01,-4.987508182294849157e-01,3.000003001812424075e-01,1.204033763763803777e-02,2.215991788615512270e+00,2.215990942642555694e+00,0.000000000000000000e+00,0.000000000000000000e+00,0.000000000000000000e+00,0.000000000000000000e+00,0.000000000000000000e+00,0.000000000000000000e+00,-1.472613159810201466e+00,-2.043363396321431935e+00,-2.119113747273580373e+00,1.020884871482849121e+00,-1.679846588765279591e+00,-3.141593043004171193e+00,0.000000000000000000e+00,0.000000000000000000e+00,0.000000000000000000e+00,0.000000000000000000e+00,0.000000000000000000e+00,0.000000000000000000e+00
7.855250835418701172e-01,-1.055244009535550448e-01,-4.987508182294849157e-01,3.000003001812424075e-01,1.204033763763803777e-02,2.215991788615512270e+00,2.215990942642555694e+00,0.000000000000000000e+00,0.000000000000000000e+00,0.000000000000000000e+00,0.000000000000000000e+00,0.000000000000000000e+00,0.000000000000000000e+00,-1.472613159810201466e+00,-2.043363396321431935e+00,-2.119113747273580373e+00,1.020884871482849121e+00,-1.679846588765279591e+00,-3.141593043004171193e+00,0.000000000000000000e+00,0.000000000000000000e+00,0.000000000000000000e+00,0.000000000000000000e+00,0.000000000000000000e+00,0.000000000000000000e+00
7.943878173828125000e-01,-1.055581519766721210e-01,-4.987429786739874249e-01,3.000001696284414487e-01,1.211625846915513963e-02,2.215956999026309493e+00,2.215956678535167867e+00,-8.651638714273270428e-03,2.040140730743250381e-03,1.198412001092617496e-07,5.219890663454271076e-07,5.135513806025874767e-08,-1.751176299876522346e-02,-1.472680870686666310e+00,-2.043362919484273732e+00,-2.119115177785054982e+00,1.020885586738586426e+00,-1.679847542439595998e+00,-3.141593043004171193e+00,-1.733759976923465729e-02,2.115181414410471916e-04,-4.082813102286309004e-04,1.962386595550924540e-04,-1.741632295306771994e-04,0.000000000000000000e+00
8.023633956909179688e-01,-1.056530847805820239e-01,-4.987206416949480081e-01,3.000002414593880840e-01,1.232861484852229052e-02,2.215860581154412312e+00,2.215859735107266637e+00,-1.667356149450785127e-02,3.937685158398444331e-03,2.215574540054037086e-07,1.026917469504177956e-06,1.007431630555700861e-07,-3.378711332334181916e-02,-1.472871128712789357e+00,-2.043360535298482716e+00,-2.119119469319478810e+00,1.020887732505798340e+00,-1.679849449788228810e+00,-3.141593043004171193e+00,-3.342028707265853882e-02,4.096492484677582979e-04,-7.907619583420455456e-04,3.800808626692742109e-04,-3.668262506835162640e-04,0.000000000000000000e+00
8.120045661926269531e-01,-1.056752237315629478e-01,-4.987152759045855310e-01,3.000001218329730324e-01,1.237819187124654906e-02,2.215837655980947396e+00,2.215837598140658837e+00,-1.752961934729413765e-02,4.140863543023408193e-03,2.323425730213670324e-07,1.081130755277642768e-06,1.061519522315001606e-07,-3.552486206172012634e-02,-1.472915474568502248e+00,-2.043360058461324513e+00,-2.119120899830953419e+00,1.020888328552246094e+00,-1.679849926625387013e+00,-3.141593043004171193e+00,-3.513696044683456421e-02,4.308293864596635103e-04,-8.316496387124061584e-04,3.997339226771146059e-04,-3.879016148857772350e-04,0.000000000000000000e+00
8.204474449157714844e-01,-1.056752237315629478e-01,-4.987152759045855310e-01,3.000001218329730324e-01,1.237819187124654906e-02,2.215837655980947396e+00,2.215837598140658837e+00,0.000000000000000000e+00,0.000000000000000000e+00,0.000000000000000000e+00,0.000000000000000000e+00,0.000000000000000000e+00,0.000000000000000000e+00,-1.472915474568502248e+00,-2.043360058461324513e+00,-2.119120899830953419e+00,1.020888328552246094e+00,-1.679849926625387013e+00,-3.141593043004171193e+00,0.000000000000000000e+00,0.000000000000000000e+00,0.000000000000000000e+00,0.000000000000000000e+00,0.000000000000000000e+00,0.000000000000000000e+00
8.397748470306396484e-01,-1.056752237315629478e-01,-4.987152759045855310e-01,3.000001218329730324e-01,1.237819187124654906e-02,2.215837655980947396e+00,2.215837598140658837e+00,0.000000000000000000e+00,0.000000000000000000e+00,0.000000000000000000e+00,0.000000000000000000e+00,0.000000000000000000e+00,0.000000000000000000e+00,-1.472915474568502248e+00,-2.043360058461324513e+00,-2.119120899830953419e+00,1.020888328552246094e+00,-1.679849926625387013e+00,-3.141593043004171193e+00,0.000000000000000000e+00,0.000000000000000000e+00,0.000000000000000000e+00,0.000000000000000000e+00,0.000000000000000000e+00,0.000000000000000000e+00
8.481059074401855469e-01,-1.057058447882111424e-01,-4.987079999473269520e-01,3.000002230240950696e-01,1.244772401223699643e-02,2.215806240411904326e+00,2.215805657071151735e+00,-7.843478063357072275e-03,1.863687072754382319e-03,1.097069954047069682e-07,4.836747565029806941e-07,4.738481174399312938e-08,-1.604537115781556889e-02,-1.472976986561910451e+00,-2.043359104787008107e+00,-2.119122330342428029e+00,1.020889043807983398e+00,-1.679851357136861623e+00,-3.141593043004171193e+00,-1.574400067329406738e-02,2.010148891713470221e-04,-3.880172735080122948e-04,1.865163940237835050e-04,-3.013704845216125250e-04,0.000000000000000000e+00
8.566687107086181641e-01,-1.057894594531089000e-01,-4.986880348226925830e-01,3.000003167048151398e-01,1.263689476305563004e-02,2.215720112781214279e+00,2.215719529384062803e+00,-1.482052053816062046e-02,3.526969970325687879e-03,2.067997007726574947e-07,9.132295331387908804e-07,8.930351075442373763e-08,-3.036052657989764259e-02,-1.473144833241597951e+00,-2.043356720601217091e+00,-2.119126621876851857e+00,1.020890951156616211e+00,-1.679854694996969044e+00,-3.141593043004171193e+00,-2.975616045296192169e-02,3.820815472863614559e-04,-7.375319837592542171e-04,3.545328509062528610e-04,-6.043661269359290600e-04,0.000000000000000000e+00
8.652637004852294922e-01,-1.059226638576067359e-01,-4.986563063915207539e-01,3.000002591196901380e-01,1.293881363446681455e-02,2.215582502503358420e+00,2.215582181732852707e+00,-2.137117845030590824e-02,5.099735146759687941e-03,3.036589565790393249e-07,1.316862763038770781e-06,1.285092397882805678e-07,-4.389526729937615057e-02,-1.473412338887349904e+00,-2.043353382741109669e+00,-2.119133297597066701e+00,1.020894169807434082e+00,-1.679860417042867482e+00,-3.141593043004171193e+00,-4.292789846658706665e-02,5.571756628341972828e-04,-1.075503998436033726e-03,5.170052172616124153e-04,-9.673688327893614769e-04,0.000000000000000000e+00
8.734762668609619141e-01,-1.061051738038969461e-01,-4.986127440736385918e-01,3.000002820086411504e-01,1.335338439234678293e-02,2.215393887626901925e+00,2.215393041316928713e+00,-2.783320111411159356e-02,6.664968353975221811e-03,3.880934367931691161e-07,1.741951968843669852e-06,1.689903482279718221e-07,-5.735219002235634328e-02,-1.473779026662008107e+00,-2.043348614369527638e+00,-2.119142357503072560e+00,1.020898699760437012e+00,-1.679869000111715138e+00,-3.141593043004171193e+00,-5.593974888324737549e-02,7.355294656008481979e-04,-1.419818610884249210e-03,6.825390155427157879e-04,-1.412441139109432697e-03,0.000000000000000000e+00
8.817372322082519531e-01,-1.063378097195542271e-01,-4.985569296136580508e-01,3.000002973823287511e-01,1.388430454109184330e-02,2.215151929839465517e+00,2.215151083393595233e+00,-3.448941576740151976e-02,8.288993255979384966e-03,4.880696657012065950e-07,2.180107557310979978e-06,2.104126287395585681e-07,-7.126423425506742126e-02,-1.474246803914205373e+00,-2.043342415486470998e+00,-2.119154278432027638e+00,1.020904421806335449e+00,-1.679881874714986623e+00,-3.141593043004171193e+00,-6.935377418994903564e-02,9.218571358360350132e-04,-1.779484562575817108e-03,8.554371888749301434e-04,-1.910460065118968487e-03,0.000000000000000000e+00
8.903820514678955078e-01,-1.066249217310789033e-01,-4.984878490731322609e-01,3.000002833866434737e-01,1.453989524112034998e-02,2.214852995614201348e+00,2.214852149000633208e+00,-4.159068943667317692e-02,1.003578205095895411e-02,5.913440099983739492e-07,2.620244520156731219e-06,2.512932135463480341e-07,-8.616156550124215441e-02,-1.474824253712789357e+00,-2.043334786091939748e+00,-2.119169060383931935e+00,1.020911574363708496e+00,-1.679898087178365529e+00,-3.141593043004171193e+00,-8.367747068405151367e-02,1.123421010561287403e-03,-2.168565290048718452e-03,1.042512012645602226e-03,-2.484094817191362381e-03,0.000000000000000000e+00
8.982946872711181641e-01,-1.069713254784469963e-01,-4.984040671954801938e-01,3.000003619138593702e-01,1.533320121503832512e-02,2.214491149035234585e+00,2.214490039602261984e+00,-4.938414428132472528e-02,1.196986264754926026e-02,7.155543333918364023e-07,3.108828690548948803e-06,2.955040369821889077e-07,-1.025710736867029987e-01,-1.475521389638082326e+00,-2.043325249348775685e+00,-2.119187180195943654e+00,1.020920276641845703e+00,-1.679919544850484669e+00,-3.141593043004171193e+00,-9.941202402114868164e-02,1.347657875157892704e-03,-2.601377665996551514e-03,1.250596949830651283e-03,-3.159049665555357933e-03,0.000000000000000000e+00
9.154124259948730469e-01,-1.073845233219275080e-01,-4.983036052127041704e-01,3.000004012709550638e-01,1.628199057780036277e-02,2.214058019086089679e+00,2.214056646873801437e+00,-5.813322760525627825e-02,1.416189426266164716e-02,8.502961153736657521e-07,3.663257483477952922e-06,3.445312429556182640e-07,-1.210592156276091569e-01,-1.476353470479146779e+00,-2.043313805256978810e+00,-2.119209114705220998e+00,1.020930886268615723e+00,-1.679947201405660451e+00,-3.141593043004171193e+00,-1.170931458473205566e-01,1.602659933269023895e-03,-3.093590727075934410e-03,1.487251371145248413e-03,-3.966069780290126801e-03,0.000000000000000000e+00
9.236700534820556641e-01,-1.078748943705380714e-01,-4.981838576789039408e-01,3.000003025501189469e-01,1.740980092283154340e-02,2.213542183150632336e+00,2.213541598334294314e+00,-6.813696890254281047e-02,1.669429970193786819e-02,1.004062913132174923e-06,4.303875579764954634e-06,4.020909407371668360e-07,-1.422738707624365551e-01,-1.477341477070943654e+00,-2.043300453816549123e+00,-2.119235340748922169e+00,1.020943403244018555e+00,-1.679981533681051076e+00,-3.141593043004171193e+00,-1.373304873704910278e-01,1.897875568829476833e-03,-3.663430921733379364e-03,1.761232735589146614e-03,-4.943383391946554184e-03,0.000000000000000000e+00
9.321455955505371094e-01,-1.084545168311510793e-01,-4.980413121344205440e-01,3.000002658209922624e-01,1.874678850647503586e-02,2.212930299293184966e+00,2.212929976553485112e+00,-7.974184525088416631e-02,1.967371006757754823e-02,1.184844858906258928e-06,5.063465052898993927e-06,4.677217590736552689e-07,-1.670933500863600596e-01,-1.478510204945699513e+00,-2.043284241353170216e+00,-2.119266812001363576e+00,1.020958542823791504e+00,-1.680025402699605763e+00,-3.141593043004171193e+00,-1.608504801988601685e-01,2.251186873763799667e-03,-4.345413763076066971e-03,2.089141868054866791e-03,-6.242869887501001358e-03,0.000000000000000000e+00
9.404788017272949219e-01,-1.091397450725262314e-01,-4.978715414295271646e-01,3.000002921956569368e-01,2.033201767981842115e-02,2.212203991081973520e+00,2.212203667805446194e+00,-9.156075154242442060e-02,2.276608441379712397e-02,1.370264883823470841e-06,5.849930842522625639e-06,5.321436015849450042e-07,-1.925357584841536351e-01,-1.479893032704488576e+00,-2.043264691029683888e+00,-2.119304482136861623e+00,1.020976662635803223e+00,-1.680081192647115529e+00,-3.141593043004171193e+00,-1.848504841327667236e-01,2.618972910568118095e-03,-5.055335815995931625e-03,2.430488821119070053e-03,-7.685274351388216019e-03,0.000000000000000000e+00
9.499127864837646484e-01,-1.091397450725262314e-01,-4.978715414295271646e-01,3.000002921956569368e-01,2.033201767981842115e-02,2.212203991081973520e+00,2.212203667805446194e+00,0.000000000000000000e+00,0.000000000000000000e+00,0.000000000000000000e+00,0.000000000000000000e+00,0.000000000000000000e+00,0.000000000000000000e+00,-1.479893032704488576e+00,-2.043264691029683888e+00,-2.119304482136861623e+00,1.020976662635803223e+00,-1.680081192647115529e+00,-3.141593043004171193e+00,0.000000000000000000e+00,0.000000000000000000e+00,0.000000000000000000e+00,0.000000000000000000e+00,0.000000000000000000e+00,0.000000000000000000e+00
9.582324028015136719e-01,-1.091397450725262314e-01,-4.978715414295271646e-01,3.000002921956569368e-01,2.033201767981842115e-02,2.212203991081973520e+00,2.212203667805446194e+00,0.000000000000000000e+00,0.000000000000000000e+00,0.000000000000000000e+00,0.000000000000000000e+00,0.000000000000000000e+00,0.000000000000000000e+00,-1.479893032704488576e+00,-2.043264691029683888e+00,-2.119304482136861623e+00,1.020976662635803223e+00,-1.680081192647115529e+00,-3.141593043004171193e+00,0.000000000000000000e+00,0.000000000000000000e+00,0.000000000000000000e+00,0.000000000000000000e+00,0.000000000000000000e+00,0.000000000000000000e+00
9.667527675628662109e-01,-1.091397450725262314e-01,-4.978715414295271646e-01,3.000002921956569368e-01,2.033201767981842115e-02,2.212203991081973520e+00,2.212203667805446194e+00,0.000000000000000000e+00,0.000000000000000000e+00,0.000000000000000000e+00,0.000000000000000000e+00,0.000000000000000000e+00,0.000000000000000000e+00,-1.479893032704488576e+00,-2.043264691029683888e+00,-2.119304482136861623e+00,1.020976662635803223e+00,-1.680081192647115529e+00,-3.141593043004171193e+00,0.000000000000000000e+00,0.000000000000000000e+00,0.000000000000000000e+00,0.000000000000000000e+00,0.000000000000000000e+00,0.000000000000000000e+00
9.752271175384521484e-01,-1.091780721775627988e-01,-4.978618125095100044e-01,3.000003944925161981e-01,2.042339826495494920e-02,2.212162210634356807e+00,2.212161624924487757e+00,-9.804880756892219232e-03,2.474681141288427848e-03,1.613719625214321507e-07,6.612391195254066401e-07,5.988996960437714120e-08,-2.113699214532953341e-02,-1.479970757161275685e+00,-2.043263260518209279e+00,-2.119306866322652638e+00,1.020977735519409180e+00,-1.680086437855855763e+00,-3.141593043004171193e+00,-1.987200044095516205e-02,3.089447855018079281e-04,-5.963398143649101257e-04,2.867310831788927317e-04,-1.264991704374551773e-03,0.000000000000000000e+00
9.837982654571533203e-01,-1.092902139953581403e-01,-4.978335596735818380e-01,3.000003259529673283e-01,2.069073177962045887e-02,2.212039613465020871e+00,2.212039027676272696e+00,-1.943880221355928639e-02,4.927231060524876576e-03,3.296670394785394881e-07,1.303206037392937160e-06,1.176787308070273341e-07,-4.214377421885692060e-02,-1.480198208485738576e+00,-2.043259922658101857e+00,-2.119313542042867482e+00,1.020981073379516602e+00,-1.680101696644918263e+00,-3.141593043004171193e+00,-3.943488001823425293e-02,6.254844483919441700e-04,-1.207318156957626343e-03,5.805252003483474255e-04,-2.708894200623035431e-03,0.000000000000000000e+00
9.919896125793457031e-01,-1.094781648601563656e-01,-4.977857352789566980e-01,3.000003412573957196e-01,2.114077328684229803e-02,2.211833161068055720e+00,2.211832575146614133e+00,-2.930420231269116951e-02,7.467888615062727962e-03,5.085000528459347266e-07,1.955696517107097298e-06,1.757499191534606312e-07,-6.394550763070527832e-02,-1.480579678212301076e+00,-2.043253723775045216e+00,-2.119325462971822560e+00,1.020986795425415039e+00,-1.680128876362935841e+00,-3.141593043004171193e+00,-5.951508507132530212e-02,9.653510060161352158e-04,-1.863314304500818253e-03,8.959997212514281273e-04,-4.430422559380531311e-03,0.000000000000000000e+00
1.000641107559204102e+00,-1.097465502217670336e-01,-4.977169572587205049e-01,3.000003196556655372e-01,2.178867146488120202e-02,2.211535558196655149e+00,2.211535496771932952e+00,-3.978346927485289231e-02,1.020520825438552513e-02,7.019293003974941273e-07,2.647329430041310511e-06,2.378704594774566129e-07,-8.745769318193141739e-02,-1.481125179921285451e+00,-2.043244663869039357e+00,-2.119343105946676076e+00,1.020995140075683594e+00,-1.680171791707174123e+00,-3.141593043004171193e+00,-8.090398460626602173e-02,1.345428405329585075e-03,-2.596931066364049911e-03,1.248844666406512260e-03,-6.553708575665950775e-03,0.000000000000000000e+00
1.008770465850830078e+00,-1.101036576471908363e-01,-4.976251689627329555e-01,3.000002283648685597e-01,2.265574423866548517e-02,2.211137208918080965e+00,2.211137409469544846e+00,-5.128773965951776564e-02,1.324393883832197805e-02,9.123655107823974261e-07,3.429180652598407431e-06,3.066791485365487558e-07,-1.134664174169294493e-01,-1.481851879750387013e+00,-2.043232742940084279e+00,-2.119366470967428029e+00,1.021006464958190918e+00,-1.680232826863424123e+00,-3.141593043004171193e+00,-1.044239848852157593e-01,1.772969379089772701e-03,-3.422182053327560425e-03,1.645769807510077953e-03,-9.042432531714439392e-03,0.000000000000000000e+00
1.017216205596923828e+00,-1.105607483732608531e-01,-4.975065966867115441e-01,3.000003231696645178e-01,2.377217996666077318e-02,2.210623993178515878e+00,2.210624193256573999e+00,-6.299935826255957660e-02,1.638642779910701869e-02,1.128892357682879887e-06,4.251863443100813392e-06,3.763187587481878736e-07,-1.402221554890265565e-01,-1.482783142720357716e+00,-2.043216530476705373e+00,-2.119397465382711232e+00,1.021021246910095215e+00,-1.680316273366109669e+00,-3.141593043004171193e+00,-1.284239888191223145e-01,2.222748938947916031e-03,-4.290365148335695267e-03,2.063347725197672844e-03,-1.179816666990518570e-02,0.000000000000000000e+00
1.026081800460815430e+00,-1.111114830549691374e-01,-4.973628616018530013e-01,3.000003384541494178e-01,2.512452982163649456e-02,2.210001757972919645e+00,2.210001695278450029e+00,-7.467847340917940779e-02,1.957941300646560620e-02,1.354549676819153816e-06,5.103676669274602058e-06,4.442222152612369564e-07,-1.672273259609927121e-01,-1.483906571065084279e+00,-2.043196980153219044e+00,-2.119435135518209279e+00,1.021039485931396484e+00,-1.680422608052388966e+00,-3.141593043004171193e+00,-1.524239778518676758e-01,2.688096370548009872e-03,-5.188583862036466599e-03,2.495364518836140633e-03,-1.480334810912609100e-02,0.000000000000000000e+00
1.034468889236450195e+00,-1.117553484124897689e-01,-4.971932621881760550e-01,3.000002971804369145e-01,2.671453432660675018e-02,2.209268945487926405e+00,2.209269144317816291e+00,-8.631920609852580806e-02,2.283185719142418607e-02,1.591309674952062977e-06,5.934098379019484949e-06,5.107838793591197491e-07,-1.945240031927810698e-01,-1.485221687947408498e+00,-2.043173615132467091e+00,-2.119480435048238576e+00,1.021061301231384277e+00,-1.680554215108053029e+00,-3.141593043004171193e+00,-1.764239817857742310e-01,3.171668620780110359e-03,-6.121945101767778397e-03,2.944320440292358398e-03,-1.810002140700817108e-02,0.000000000000000000e+00
1.042794942855834961e+00,-1.124924918180758016e-01,-4.969972535391988799e-01,3.000004309699947913e-01,2.854533881647965121e-02,2.208424109173228178e+00,2.208424045176927475e+00,-9.791449767782592351e-02,2.615342620481329872e-02,1.847173119452407366e-06,6.741743426782609266e-06,5.675758606278749988e-07,-2.221666537225232552e-01,-1.486729447041646779e+00,-2.043145958577291310e+00,-2.119533363972799123e+00,1.021086692810058594e+00,-1.680713478718892873e+00,-3.141593043004171193e+00,-2.004239857196807861e-01,3.676850348711013794e-03,-7.096950430423021317e-03,3.413334488868713379e-03,-2.174266800284385681e-02,0.000000000000000000e+00
1.050842046737670898e+00,-1.133218358575241169e-01,-4.967743929171486994e-01,3.000003655580353867e-01,3.062115577010139644e-02,2.207464271323928529e+00,2.207464468495544452e+00,-1.094136973065385765e-01,2.958329666392909077e-02,2.128474475264486336e-06,7.571300823330682466e-06,6.275579087941371401e-07,-2.507100179791433292e-01,-1.488428894673482716e+00,-2.043114487324849904e+00,-2.119594399129049123e+00,1.021116137504577637e+00,-1.680905644093648732e+00,-3.141593043004171193e+00,-2.244239896535873413e-01,4.238266032189130783e-03,-8.180466480553150177e-03,3.934603184461593628e-03,-2.628602832555770874e-02,0.000000000000000000e+00
1.059380054473876953e+00,-1.133218358575241169e-01,-4.967743929171486994e-01,3.000003655580353867e-01,3.062115577010139644e-02,2.207464271323928529e+00,2.207464468495544452e+00,0.000000000000000000e+00,0.000000000000000000e+00,0.000000000000000000e+00,0.000000000000000000e+00,0.000000000000000000e+00,0.000000000000000000e+00,-1.488428894673482716e+00,-2.043114487324849904e+00,-2.119594399129049123e+00,1.021116137504577637e+00,-1.680905644093648732e+00,-3.141593043004171193e+00,0.000000000000000000e+00,0.000000000000000000e+00,0.000000000000000000e+00,0.000000000000000000e+00,0.000000000000000000e+00,0.000000000000000000e+00
1.067913055419921875e+00,-1.133218358575241169e-01,-4.967743929171486994e-01,3.000003655580353867e-01,3.062115577010139644e-02,2.207464271323928529e+00,2.207464468495544452e+00,0.000000000000000000e+00,0.000000000000000000e+00,0.000000000000000000e+00,0.000000000000000000e+00,0.000000000000000000e+00,0.000000000000000000e+00,-1.488428894673482716e+00,-2.043114487324849904e+00,-2.119594399129049123e+00,1.021116137504577637e+00,-1.680905644093648732e+00,-3.141593043004171193e+00,0.000000000000000000e+00,0.000000000000000000e+00,0.000000000000000000e+00,0.000000000000000000e+00,0.000000000000000000e+00,0.000000000000000000e+00
1.076072454452514648e+00,-1.133632612760598207e-01,-4.967625152820798751e-01,3.000002275019330589e-01,3.073522759635784196e-02,2.207411002429948699e+00,2.207412247363297553e+00,-1.061942243902935096e-02,3.027442552938572080e-03,2.701389170720787959e-07,8.114765569598152370e-07,6.947955864834848747e-08,-2.657357091084032452e-02,-1.488515202199117482e+00,-2.043112579976217091e+00,-2.119598690663472951e+00,1.021118044853210449e+00,-1.680923287068502248e+00,-3.141593043004171193e+00,-2.211599983274936676e-02,5.342531367205083370e-04,-1.031135790981352329e-03,4.960682126693427563e-04,-4.457571078091859818e-03,0.000000000000000000e+00
1.084581613540649414e+00,-1.134890576724531530e-01,-4.967264720283985358e-01,3.000003536079747235e-01,3.108246228280809459e-02,2.207250511936003523e+00,2.207251232784579020e+00,-2.153971481786130099e-02,6.183589599308736938e-03,5.525214140555378008e-07,1.694966575371659694e-06,1.425123019081758676e-07,-5.443878006189974139e-02,-1.488777462636129201e+00,-2.043105904256002248e+00,-2.119611088429586232e+00,1.021124005317687988e+00,-1.680977646504537404e+00,-3.141593043004171193e+00,-4.494203999638557434e-02,1.113001140765845776e-03,-2.148180734366178513e-03,1.033478649333119392e-03,-9.496740065515041351e-03,0.000000000000000000e+00
1.092796087265014648e+00,-1.137042753028539299e-01,-4.966643315668984870e-01,3.000004035694679994e-01,3.168325124686562771e-02,2.206972297814669304e+00,2.206973018352172300e+00,-3.285540020454838506e-02,9.512600461616385270e-03,8.825485949672481049e-07,2.543851739384475309e-06,2.130806288002176492e-07,-8.398827072232825652e-02,-1.489227120076314748e+00,-2.043094460164205373e+00,-2.119633022938863576e+00,1.021134495735168457e+00,-1.681075874959127248e+00,-3.141593043004171193e+00,-6.870204210281372070e-02,1.749450224451720715e-03,-3.376485314220190048e-03,1.624482334591448307e-03,-1.528622861951589584e-02,0.000000000000000000e+00
1.101086378097534180e+00,-1.140125902296962312e-01,-4.965746894698222502e-01,3.000004555054906485e-01,3.255354407827003999e-02,2.206569373454585925e+00,2.206569307933853974e+00,-4.421860061811459103e-02,1.293421252767683674e-02,1.202298520681438050e-06,3.540018019825720564e-06,2.865756057796366081e-07,-1.145282853394739425e-01,-1.489872757588521779e+00,-2.043077770863668263e+00,-2.119664971028463185e+00,1.021150112152099609e+00,-1.681224171315328419e+00,-3.141593043004171193e+00,-9.270203858613967896e-02,2.435481175780296326e-03,-4.700613208115100861e-03,2.261580433696508408e-03,-2.182624675333499908e-02,0.000000000000000000e+00
1.109387159347534180e+00,-1.140125902296962312e-01,-4.965746894698222502e-01,3.000004555054906485e-01,3.255354407827003999e-02,2.206569373454585925e+00,2.206569307933853974e+00,0.000000000000000000e+00,0.000000000000000000e+00,0.000000000000000000e+00,0.000000000000000000e+00,0.000000000000000000e+00,0.000000000000000000e+00,-1.489872757588521779e+00,-2.043077770863668263e+00,-2.119664971028463185e+00,1.021150112152099609e+00,-1.681224171315328419e+00,-3.141593043004171193e+00,0.000000000000000000e+00,0.000000000000000000e+00,0.000000000000000000e+00,0.000000000000000000e+00,0.000000000000000000e+00,0.000000000000000000e+00
1.117797374725341797e+00,-1.140125902296962312e-01,-4.965746894698222502e-01,3.000004555054906485e-01,3.255354407827003999e-02,2.206569373454585925e+00,2.206569307933853974e+00,0.000000000000000000e+00,0.000000000000000000e+00,0.000000000000000000e+00,0.000000000000000000e+00,0.000000000000000000e+00,0.000000000000000000e+00,-1.489872757588521779e+00,-2.043077770863668263e+00,-2.119664971028463185e+00,1.021150112152099609e+00,-1.681224171315328419e+00,-3.141593043004171193e+00,0.000000000000000000e+00,0.000000000000000000e+00,0.000000000000000000e+00,0.000000000000000000e+00,0.000000000000000000e+00,0.000000000000000000e+00
1.126438617706298828e+00,-1.140530218775090004e-01,-4.965619469121801410e-01,3.000004076332054015e-01,3.268316484300719943e-02,2.206509162368666566e+00,2.206509358661558284e+00,-1.030684229683359598e-02,3.251678872535697373e-03,3.756621481876451411e-07,9.069273825219265231e-07,7.423722174136066298e-08,-3.010182362049795834e-02,-1.489959541951314748e+00,-2.043074909840719044e+00,-2.119670693074361623e+00,1.021152853965759277e+00,-1.681255642567769826e+00,-3.141593043004171193e+00,-2.211599983274936676e-02,7.545351982116699219e-04,-1.456224941648542881e-03,7.007797830738127232e-04,-7.985823787748813629e-03,0.000000000000000000e+00
1.134359121322631836e+00,-1.141746180936942801e-01,-4.965230727083625450e-01,3.000002651373657181e-01,3.307879081312206648e-02,2.206325230756632561e+00,2.206326474255582148e+00,-2.084258115210260026e-02,6.680799720973982191e-03,8.060538582149613055e-07,1.850464067287714749e-06,1.593984870259270188e-07,-6.231626123189602795e-02,-1.490221325551168263e+00,-2.043065849934713185e+00,-2.119688812886373341e+00,1.021161437034606934e+00,-1.681354824696676076e+00,-3.141593043004171193e+00,-4.494203999638557434e-02,1.604885444976389408e-03,-3.097317181527614594e-03,1.490574446506798267e-03,-1.737422123551368713e-02,0.000000000000000000e+00
1.143069267272949219e+00,-1.141796923246658074e-01,-4.965215320824943324e-01,3.000003651187236331e-01,3.309547330266430359e-02,2.206317851977438238e+00,2.206318309936963207e+00,-2.031614449136930761e-02,6.513731982736610006e-03,7.860020521589569586e-07,1.804674076116853107e-06,1.493566731814506141e-07,-6.076343357562942471e-02,-1.490232292805806935e+00,-2.043065373097554982e+00,-2.119689289723531544e+00,1.021161794662475586e+00,-1.681359116231099904e+00,-3.141593043004171193e+00,-4.381019994616508484e-02,1.565502374432981014e-03,-3.021310083568096161e-03,1.453996868804097176e-03,-1.695323362946510315e-02,0.000000000000000000e+00
1.151416540145874023e+00,-1.141796923246658074e-01,-4.965215320824943324e-01,3.000003651187236331e-01,3.309547330266430359e-02,2.206317851977438238e+00,2.206318309936963207e+00,0.000000000000000000e+00,0.000000000000000000e+00,0.000000000000000000e+00,0.000000000000000000e+00,0.000000000000000000e+00,0.000000000000000000e+00,-1.490232292805806935e+00,-2.043065373097554982e+00,-2.119689289723531544e+00,1.021161794662475586e+00,-1.681359116231099904e+00,-3.141593043004171193e+00,0.000000000000000000e+00,0.000000000000000000e+00,0.000000000000000000e+00,0.000000000000000000e+00,0.000000000000000000e+00,0.000000000000000000e+00
1.159636020660400391e+00,-1.141796923246658074e-01,-4.965215320824943324e-01,3.000003651187236331e-01,3.309547330266430359e-02,2.206317851977438238e+00,2.206318309936963207e+00,0.000000000000000000e+00,0.000000000000000000e+00,0.000000000000000000e+00,0.000000000000000000e+00,0.000000000000000000e+00,0.000000000000000000e+00,-1.490232292805806935e+00,-2.043065373097554982e+00,-2.119689289723531544e+00,1.021161794662475586e+00,-1.681359116231099904e+00,-3.141593043004171193e+00,0.000000000000000000e+00,0.000000000000000000e+00,0.000000000000000000e+00,0.000000000000000000e+00,0.000000000000000000e+00,0.000000000000000000e+00
1.168943405151367188e+00,-1.141796923246658074e-01,-4.965215320824943324e-01,3.000003651187236331e-01,3.309547330266430359e-02,2.206317851977438238e+00,2.206318309936963207e+00,0.000000000000000000e+00,0.000000000000000000e+00,0.000000000000000000e+00,0.000000000000000000e+00,0.000000000000000000e+00,0.000000000000000000e+00,-1.490232292805806935e+00,-2.043065373097554982e+00,-2.119689289723531544e+00,1.021161794662475586e+00,-1.681359116231099904e+00,-3.141593043004171193e+00,0.000000000000000000e+00,0.000000000000000000e+00,0.000000000000000000e+00,0.000000000000000000e+00,0.000000000000000000e+00,0.000000000000000000e+00
1.177311420440673828e+00,-1.142105428113142362e-01,-4.965101970109538909e-01,3.000005390525303794e-01,3.321926721403428706e-02,2.206260792273559534e+00,2.206260464663362786e+00,-7.857650931063499614e-03,2.892979244963463526e-03,4.433842645023571884e-07,8.613649970547384452e-07,6.788616640560499235e-08,-2.888931613415450517e-02,-1.490301911030904591e+00,-2.043061558400289357e+00,-2.119695965443746388e+00,1.021165013313293457e+00,-1.681402508412496388e+00,-3.141593043004171193e+00,-1.774800010025501251e-02,9.009821224026381969e-04,-1.738805673085153103e-03,8.369595161639153957e-04,-1.114131603389978409e-02,0.000000000000000000e+00
1.186044454574584961e+00,-1.142951074991117033e-01,-4.964766953533676364e-01,3.000004682430737479e-01,3.359649634345885511e-02,2.206085547504134325e+00,2.206085743404986310e+00,-1.465671891994592933e-02,5.989190079275993894e-03,1.019684973680053077e-06,1.937424977726946276e-06,1.585895556330056611e-07,-6.241477094590611174e-02,-1.490497891102926076e+00,-2.043050114308492482e+00,-2.119718376790181935e+00,1.021175742149353027e+00,-1.681550804768697560e+00,-3.141593043004171193e+00,-3.437891975045204163e-02,2.148200757801532745e-03,-4.145893733948469162e-03,1.995749073103070259e-03,-2.803585119545459747e-02,0.000000000000000000e+00
1.194653987884521484e+00,-1.144093585636258154e-01,-4.964252830574932829e-01,3.000004853660263038e-01,3.420294211510380156e-02,2.205803958699374956e+00,2.205804416123320344e+00,-1.585318643889559176e-02,7.671550205903414181e-03,1.540047315983645257e-06,2.605086177959739143e-06,2.185821047132796139e-07,-8.470411226153216899e-02,-1.490775887166158498e+00,-2.043029610310689748e+00,-2.119757954274312794e+00,1.021194696426391602e+00,-1.681826416646138966e+00,-3.141593043004171193e+00,-3.975388780236244202e-02,3.266385756433010101e-03,-6.303823553025722504e-03,3.034823574125766754e-03,-4.495022445917129517e-02,0.000000000000000000e+00
1.202836513519287109e+00,-1.145230583422815196e-01,-4.963634027799265214e-01,3.000003576404797756e-01,3.497686259140227877e-02,2.205444178473829009e+00,2.205445420747284668e+00,-1.431851317349075448e-02,8.681204805332036825e-03,2.033248830406167720e-06,3.083982194934195631e-06,2.820339797864990224e-07,-1.017988510429751192e-01,-1.491075817738668263e+00,-2.043001000081197560e+00,-2.119813744221822560e+00,1.021221518516540527e+00,-1.682233158742086232e+00,-3.141593043004171193e+00,-3.968394175171852112e-02,4.337261896580457687e-03,-8.370392024517059326e-03,4.030033480376005173e-03,-6.211490929126739502e-02,0.000000000000000000e+00
1.211393356323242188e+00,-1.146139502571571905e-01,-4.962961633031868214e-01,3.000004154161914349e-01,3.587885298883443375e-02,2.205025321558294671e+00,2.205025778160733640e+00,-9.624902252483712173e-03,8.961602874128178631e-03,2.486176368831722243e-06,3.612373976956262892e-06,3.048452718793086395e-07,-1.136388629674885686e-01,-1.491354290639058888e+00,-2.042963806782857716e+00,-2.119885269795553029e+00,1.021256208419799805e+00,-1.682778660451070607e+00,-3.141593043004171193e+00,-3.342569619417190552e-02,5.394768435508012772e-03,-1.041124202311038971e-02,5.012848414480686188e-03,-8.021316677331924438e-02,0.000000000000000000e+00
1.219903469085693359e+00,-1.146544751625496045e-01,-4.962292307979285777e-01,3.000003620372582169e-01,3.686353425245514348e-02,2.204566928808650683e+00,2.204568169819676626e+00,-9.726713549045151036e-04,8.362041046661527685e-03,2.991042659309677454e-06,3.899397688609683695e-06,3.669858804121491487e-07,-1.194084323942489478e-01,-1.491557900105611623e+00,-2.042918030415670216e+00,-2.119973961506978810e+00,1.021298766136169434e+00,-1.683474842702047169e+00,-3.141593043004171193e+00,-1.948566362261772156e-02,6.464054342359304428e-03,-1.247454155236482620e-02,6.006570998579263687e-03,-9.992276877164840698e-02,0.000000000000000000e+00
1.228379726409912109e+00,-1.146120027915114997e-01,-4.961721881121809452e-01,3.000004135443097297e-01,3.784360471071906290e-02,2.204110636868227058e+00,2.204111877200437775e+00,1.182622046357708484e-02,6.263367804455069118e-03,3.276720983073407999e-06,3.642534600868666173e-06,3.545555860190831186e-07,-1.104345140047176960e-01,-1.491618935261861623e+00,-2.042865101491109669e+00,-2.120076004658834279e+00,1.021347880363464355e+00,-1.684309784566060841e+00,-3.141593043004171193e+00,3.756392281502485275e-03,7.086001802235841751e-03,-1.367445290088653564e-02,6.584791932255029678e-03,-1.141909062862396240e-01,0.000000000000000000e+00
1.236787319183349609e+00,-1.146088831262420116e-01,-4.961706935172052746e-01,3.000005058991346285e-01,3.787227351861863905e-02,2.204097402700318398e+00,2.204098381443620358e+00,1.172789188463661987e-02,5.950512742762890939e-03,3.152252183057323541e-06,3.490108889737889155e-06,3.269206127093923847e-07,-1.057416223920761567e-01,-1.491617504750387013e+00,-2.042863194142476857e+00,-2.120079342518941701e+00,1.021349430084228516e+00,-1.684337441121236623e+00,-3.141593043004171193e+00,4.288618918508291245e-03,6.820075213909149170e-03,-1.316126342862844467e-02,6.337683182209730148e-03,-1.100302413105964661e-01,0.000000000000000000e+00
1.245049238204956055e+00,-1.146088831262420116e-01,-4.961706935172052746e-01,3.000005058991346285e-01,3.787227351861863905e-02,2.204097402700318398e+00,2.204098381443620358e+00,0.000000000000000000e+00,0.000000000000000000e+00,0.000000000000000000e+00,0.000000000000000000e+00,0.000000000000000000e+00,0.000000000000000000e+00,-1.491617504750387013e+00,-2.042863194142476857e+00,-2.120079342518941701e+00,1.021349430084228516e+00,-1.684337441121236623e+00,-3.141593043004171193e+00,0.000000000000000000e+00,0.000000000000000000e+00,0.000000000000000000e+00,0.000000000000000000e+00,0.000000000000000000e+00,0.000000000000000000e+00
1.257174491882324219e+00,-1.146088831262420116e-01,-4.961706935172052746e-01,3.000005058991346285e-01,3.787227351861863905e-02,2.204097402700318398e+00,2.204098381443620358e+00,0.000000000000000000e+00,0.000000000000000000e+00,0.000000000000000000e+00,0.000000000000000000e+00,0.000000000000000000e+00,0.000000000000000000e+00,-1.491617504750387013e+00,-2.042863194142476857e+00,-2.120079342518941701e+00,1.021349430084228516e+00,-1.684337441121236623e+00,-3.141593043004171193e+00,0.000000000000000000e+00,0.000000000000000000e+00,0.000000000000000000e+00,0.000000000000000000e+00,0.000000000000000000e+00,0.000000000000000000e+00
1.275106906890869141e+00,-1.145635838117492200e-01,-4.961761171050371733e-01,3.000005480973545469e-01,3.787068362175037561e-02,2.204098381722486177e+00,2.204098837325740856e+00,1.156847635179977449e-02,-1.362121450630802196e-03,4.234318231129684360e-07,-2.132162006048547736e-10,4.154948354283532365e-09,4.899371415381138795e-04,-1.491539780293599904e+00,-2.042859379445211232e+00,-2.120086495076314748e+00,1.021353006362915039e+00,-1.684413735066549123e+00,-3.141593043004171193e+00,1.987200044095516205e-02,9.800937259569764137e-04,-1.891310792416334152e-03,9.112169500440359116e-04,-1.938206329941749573e-02,0.000000000000000000e+00
1.283063411712646484e+00,-1.145530443855008323e-01,-4.961772803330339321e-01,3.000005393997971503e-01,3.787017489695042316e-02,2.204098499471550898e+00,2.204099216640602599e+00,1.243472076548542311e-02,-1.463890954448069650e-03,4.550192501090974597e-07,-4.346273178678404670e-10,6.941105400167139715e-09,5.266238003980815152e-04,-1.491521660481588185e+00,-2.042858425770894826e+00,-2.120088402424947560e+00,1.021353840827941895e+00,-1.684431378041402638e+00,-3.141593043004171193e+00,2.136000059545040131e-02,1.053482410497963428e-03,-2.032930729910731316e-03,9.794482029974460602e-04,-2.083337679505348206e-02,0.000000000000000000e+00
1.292014360427856445e+00,-1.145530443855008323e-01,-4.961772803330339321e-01,3.000005393997971503e-01,3.787017489695042316e-02,2.204098499471550898e+00,2.204099216640602599e+00,0.000000000000000000e+00,0.000000000000000000e+00,0.000000000000000000e+00,0.000000000000000000e+00,0.000000000000000000e+00,0.000000000000000000e+00,-1.491521660481588185e+00,-2.042858425770894826e+00,-2.120088402424947560e+00,1.021353840827941895e+00,-1.684431378041402638e+00,-3.141593043004171193e+00,0.000000000000000000e+00,0.000000000000000000e+00,0.000000000000000000e+00,0.000000000000000000e+00,0.000000000000000000e+00,0.000000000000000000e+00
1.300088405609130859e+00,-1.145530443855008323e-01,-4.961772803330339321e-01,3.000005393997971503e-01,3.787017489695042316e-02,2.204098499471550898e+00,2.204099216640602599e+00,0.000000000000000000e+00,0.000000000000000000e+00,0.000000000000000000e+00,0.000000000000000000e+00,0.000000000000000000e+00,0.000000000000000000e+00,-1.491521660481588185e+00,-2.042858425770894826e+00,-2.120088402424947560e+00,1.021353840827941895e+00,-1.684431378041402638e+00,-3.141593043004171193e+00,0.000000000000000000e+00,0.000000000000000000e+00,0.000000000000000000e+00,0.000000000000000000e+00,0.000000000000000000e+00,0.000000000000000000e+00
1.308364152908325195e+00,-1.145163859231429493e-01,-4.961838617551299624e-01,3.000006197205795089e-01,3.783363277851534145e-02,2.204115877665970391e+00,2.204115810150027333e+00,9.383401473208203072e-03,-1.667710685574128916e-03,1.494854054184674475e-07,-2.608037367845281155e-07,-2.094617246913872993e-08,8.566343225538676845e-03,-1.491453949605123341e+00,-2.042856995259420216e+00,-2.120090786610738576e+00,1.021355152130126953e+00,-1.684465710316793263e+00,-3.141593043004171193e+00,1.733759976923465729e-02,3.469866060186177492e-04,-6.695092888548970222e-04,3.227843262720853090e-04,-8.771256543695926666e-03,0.000000000000000000e+00
1.316827535629272461e+00,-1.144136569863328512e-01,-4.962023203804597493e-01,3.000004522300017129e-01,3.772781955090829392e-02,2.204164683348774911e+00,2.204165662149839111e+00,1.803248388254187484e-02,-3.248797629584887145e-03,2.719783224397804909e-07,-4.790486586147518372e-07,-3.078726334389721371e-08,1.715072803199447701e-02,-1.491263691579000294e+00,-2.042853657399312794e+00,-2.120097939168111623e+00,1.021358489990234375e+00,-1.684559170399801076e+00,-3.141593043004171193e+00,3.342028707265853882e-02,6.290114251896739006e-04,-1.213669544085860252e-03,5.851380992680788040e-04,-1.626955904066562653e-02,0.000000000000000000e+00
1.325522661209106445e+00,-1.142469688999219884e-01,-4.962325047891273933e-01,3.000004770262879594e-01,3.755049955782724380e-02,2.204247259638814960e+00,2.204248238522738657e+00,2.640936086428326973e-02,-4.815417674108125878e-03,3.834309575323020436e-07,-7.561647395070703988e-07,-5.004551333933856155e-08,2.607551962137443294e-02,-1.490954224263326466e+00,-2.042847935353414357e+00,-2.120108906422750294e+00,1.021363735198974609e+00,-1.684706513081685841e+00,-3.141593043004171193e+00,4.908625781536102295e-02,8.686151704750955105e-04,-1.675924402661621571e-03,8.080669795162975788e-04,-2.301073819398880005e-02,0.000000000000000000e+00
1.335429906845092773e+00,-1.140153311861963753e-01,-4.962752223184279665e-01,3.000004614696379912e-01,3.729282798390350095e-02,2.204367350625208388e+00,2.204368068052780405e+00,3.485494299823183734e-02,-6.455756219081472576e-03,4.629873450124462453e-07,-1.062892484345299408e-06,-7.581836160037002815e-08,3.610066138208051223e-02,-1.490522686635152638e+00,-2.042840782796041310e+00,-2.120122734700338185e+00,1.021370530128479004e+00,-1.684902493153707326e+00,-3.141593043004171193e+00,6.503135710954666138e-02,1.053703133948147297e-03,-2.032996388152241707e-03,9.803588036447763443e-04,-2.893069572746753693e-02,0.000000000000000000e+00
1.343707799911499023e+00,-1.137157818534382248e-01,-4.963311268464628001e-01,3.000004383161554711e-01,3.694647081492670460e-02,2.204528451635587860e+00,2.204529430807480317e+00,4.375738286230144297e-02,-8.194357071949143895e-03,5.360518461440393939e-07,-1.354826600482949881e-06,-9.389964443753774692e-08,4.699840396643015228e-02,-1.489962879811422169e+00,-2.042832199727193654e+00,-2.120139424000875294e+00,1.021378517150878906e+00,-1.685145680104390919e+00,-3.141593043004171193e+00,8.188467472791671753e-02,1.230496447533369064e-03,-2.374074654653668404e-03,1.144936191849410534e-03,-3.488627076148986816e-02,0.000000000000000000e+00
1.351763725280761719e+00,-1.136857362270412286e-01,-4.963366297280528139e-01,3.000004296154545336e-01,3.691100928898436578e-02,2.204544836128824681e+00,2.204546076905252061e+00,4.328647737646613286e-02,-8.110872989776873182e-03,5.273980781198195210e-07,-1.341907856071737690e-06,-8.902408685505743092e-08,4.659818485379754738e-02,-1.489906613026754201e+00,-2.042831246052877248e+00,-2.120141331349508107e+00,1.021379351615905762e+00,-1.685169521962301076e+00,-3.141593043004171193e+00,8.101853728294372559e-02,1.211430178955197334e-03,-2.337287180125713348e-03,1.127201714552938938e-03,-3.442035242915153503e-02,0.000000000000000000e+00
1.361693143844604492e+00,-1.136857362270412286e-01,-4.963366297280528139e-01,3.000004296154545336e-01,3.691100928898436578e-02,2.204544836128824681e+00,2.204546076905252061e+00,0.000000000000000000e+00,0.000000000000000000e+00,0.000000000000000000e+00,0.000000000000000000e+00,0.000000000000000000e+00,0.000000000000000000e+00,-1.489906613026754201e+00,-2.042831246052877248e+00,-2.120141331349508107e+00,1.021379351615905762e+00,-1.685169521962301076e+00,-3.141593043004171193e+00,0.000000000000000000e+00,0.000000000000000000e+00,0.000000000000000000e+00,0.000000000000000000e+00,0.000000000000000000e+00,0.000000000000000000e+00
1.369230031967163086e+00,-1.136857362270412286e-01,-4.963366297280528139e-01,3.000004296154545336e-01,3.691100928898436578e-02,2.204544836128824681e+00,2.204546076905252061e+00,0.000000000000000000e+00,0.000000000000000000e+00,0.000000000000000000e+00,0.000000000000000000e+00,0.000000000000000000e+00,0.000000000000000000e+00,-1.489906613026754201e+00,-2.042831246052877248e+00,-2.120141331349508107e+00,1.021379351615905762e+00,-1.685169521962301076e+00,-3.141593043004171193e+00,0.000000000000000000e+00,0.000000000000000000e+00,0.000000000000000000e+00,0.000000000000000000e+00,0.000000000000000000e+00,0.000000000000000000e+00
1.377723693847656250e+00,-1.136482500703709653e-01,-4.963440045176514825e-01,3.000005306590844412e-01,3.686037933153430562e-02,2.204568636252021374e+00,2.204569353877352977e+00,9.582101932020026247e-03,-1.900519250579941598e-03,8.669052772941716491e-08,-3.558436367644525782e-07,-2.675829320320889956e-08,1.184983132407097135e-02,-1.489835564290181935e+00,-2.042830292378560841e+00,-2.120142761860982716e+00,1.021380066871643066e+00,-1.685194317494527638e+00,-3.141593043004171193e+00,1.816320046782493591e-02,1.839951437432318926e-04,-3.549242392182350159e-04,1.712859375402331352e-04,-6.313369143754243851e-03,0.000000000000000000e+00
1.385757684707641602e+00,-1.135417726519478004e-01,-4.963652304360585688e-01,3.000005023375726942e-01,3.671379076315609002e-02,2.204636729909693393e+00,2.204637709197485584e+00,1.860994614667135783e-02,-3.724249482046307173e-03,1.514010842972431384e-07,-7.321028127075619653e-07,-5.418657593925303166e-08,2.355277724564181635e-02,-1.489633385335103810e+00,-2.042828385029928029e+00,-2.120146576558248341e+00,1.021381855010986328e+00,-1.685262505208150685e+00,-3.141593043004171193e+00,3.535487875342369080e-02,3.277355863247066736e-04,-6.321773398667573929e-04,3.051758394576609135e-04,-1.180210150778293610e-02,0.000000000000000000e+00
1.394344329833984375e+00,-1.133670033015597295e-01,-4.964005148952868041e-01,3.000005532201195368e-01,3.646904846373224401e-02,2.204750954107825400e+00,2.204751148717025266e+00,2.752578881902959310e-02,-5.548931662352589445e-03,2.060055866983424599e-07,-1.112036116260838968e-06,-8.921618568371533921e-08,3.556381724774822228e-02,-1.489301029835836232e+00,-2.042825524006978810e+00,-2.120151821766988576e+00,1.021384596824645996e+00,-1.685371224080220998e+00,-3.141593043004171193e+00,5.239848792552947998e-02,4.447112733032554388e-04,-8.577756234444677830e-04,4.141799581702798605e-04,-1.683467067778110504e-02,0.000000000000000000e+00
1.402869224548339844e+00,-1.131220010312540269e-01,-4.964499404638885172e-01,3.000005074934989358e-01,3.611946803824239716e-02,2.204913196902007044e+00,2.204914176489762845e+00,3.672672227304076692e-02,-7.432687002271463721e-03,2.519876247789447122e-07,-1.508027711584032651e-06,-1.139361670371410239e-07,4.813472367823318221e-02,-1.488834206257955373e+00,-2.042821709309713185e+00,-2.120159451161519826e+00,1.021388053894042969e+00,-1.685518566762105763e+00,-3.141593043004171193e+00,7.000978291034698486e-02,5.555954994633793831e-04,-1.071634003892540932e-03,5.175507976673543453e-04,-2.187505923211574554e-02,0.000000000000000000e+00
1.411712646484375000e+00,-1.128014848926407049e-01,-4.965148695366120579e-01,3.000005409683788038e-01,3.565704493856411417e-02,2.205128323801065271e+00,2.205129041997484496e+00,4.656883137465740036e-02,-9.442995736756694750e-03,2.996985331325427519e-07,-1.933617793073332791e-06,-1.509437720516419295e-07,6.173939816653839507e-02,-1.488222901021138966e+00,-2.042816940938131154e+00,-2.120168511067525685e+00,1.021392464637756348e+00,-1.685707394276754201e+00,-3.141593043004171193e+00,8.886698633432388306e-02,6.653160089626908302e-04,-1.283229328691959381e-03,6.198527989909052849e-04,-2.712758816778659821e-02,0.000000000000000000e+00
1.420141935348510742e+00,-1.123977097670471464e-01,-4.965969872949748676e-01,3.000004439677406709e-01,3.506665209054390248e-02,2.205402583770545100e+00,2.205403563892274210e+00,5.740389797014235074e-02,-1.165798181249825399e-02,3.495008082228215118e-07,-2.409333365972495222e-06,-1.864406168023664962e-07,7.704373449087428827e-02,-1.487451855336324513e+00,-2.042811695729390919e+00,-2.120179001485006154e+00,1.021397590637207031e+00,-1.685939137135640919e+00,-3.141593043004171193e+00,1.096688508987426758e-01,7.678358815610408783e-04,-1.480896607972681522e-03,7.154772174544632435e-04,-3.262511640787124634e-02,0.000000000000000000e+00
1.428700685501098633e+00,-1.118997646193427148e-01,-4.966980883059516905e-01,3.000005588533022904e-01,3.433088307154420760e-02,2.205744677844851953e+00,2.205744873339605672e+00,6.965229775727681261e-02,-1.414085606200033741e-02,3.924121714690264870e-07,-2.921066298953165125e-06,-2.431109349716114936e-07,9.443345293402630181e-02,-1.486500088368551076e+00,-2.042805020009176076e+00,-2.120191399251119435e+00,1.021403670310974121e+00,-1.686219040547506154e+00,-3.141593043004171193e+00,1.331888437271118164e-01,8.783924859017133713e-04,-1.694094156846404076e-03,8.186328341253101826e-04,-3.875539079308509827e-02,0.000000000000000000e+00
1.437162876129150391e+00,-1.118885514641032725e-01,-4.967003163986318803e-01,3.000004491103949733e-01,3.431421081575072168e-02,2.205752062280669001e+00,2.205753042784973417e+00,6.640721615117858856e-02,-1.348157289281081556e-02,3.736544889048321350e-07,-2.786030907181135959e-06,-2.186785840984228945e-07,9.004892781377160649e-02,-1.486478630696431935e+00,-2.042805020009176076e+00,-2.120191876088277638e+00,1.021403789520263672e+00,-1.686225239430562794e+00,-3.141593043004171193e+00,1.269854009151458740e-01,8.366162655875086784e-04,-1.613522879779338837e-03,7.797011639922857285e-04,-3.693647310137748718e-02,0.000000000000000000e+00
1.445319890975952148e+00,-1.118885514641032725e-01,-4.967003163986318803e-01,3.000004491103949733e-01,3.431421081575072168e-02,2.205752062280669001e+00,2.205753042784973417e+00,0.000000000000000000e+00,0.000000000000000000e+00,0.000000000000000000e+00,0.000000000000000000e+00,0.000000000000000000e+00,0.000000000000000000e+00,-1.486478630696431935e+00,-2.042805020009176076e+00,-2.120191876088277638e+00,1.021403789520263672e+00,-1.686225239430562794e+00,-3.141593043004171193e+00,0.000000000000000000e+00,0.000000000000000000e+00,0.000000000000000000e+00,0.000000000000000000e+00,0.000000000000000000e+00,0.000000000000000000e+00
1.453994512557983398e+00,-1.118885514641032725e-01,-4.967003163986318803e-01,3.000004491103949733e-01,3.431421081575072168e-02,2.205752062280669001e+00,2.205753042784973417e+00,0.000000000000000000e+00,0.000000000000000000e+00,0.000000000000000000e+00,0.000000000000000000e+00,0.000000000000000000e+00,0.000000000000000000e+00,-1.486478630696431935e+00,-2.042805020009176076e+00,-2.120191876088277638e+00,1.021403789520263672e+00,-1.686225239430562794e+00,-3.141593043004171193e+00,0.000000000000000000e+00,0.000000000000000000e+00,0.000000000000000000e+00,0.000000000000000000e+00,0.000000000000000000e+00,0.000000000000000000e+00
1.462254285812377930e+00,-1.118482118706587564e-01,-4.967087794808102696e-01,3.000005599599859796e-01,3.424994713381732808e-02,2.205782136930334314e+00,2.205782594128431473e+00,1.031887349237663523e-02,-2.158957735970915698e-03,3.121485055785211099e-08,-4.435247654779746742e-07,-3.645773507856136571e-08,1.493621943518521483e-02,-1.486400906239644826e+00,-2.042804543172017873e+00,-2.120192352925435841e+00,1.021404027938842773e+00,-1.686244312916890919e+00,-3.141593043004171193e+00,1.987200044095516205e-02,7.819767779437825084e-05,-1.507703855168074369e-04,7.301772711798548698e-05,-4.935781005769968033e-03,0.000000000000000000e+00
1.470619916915893555e+00,-1.117301726373852722e-01,-4.967333973007532766e-01,3.000005512552365028e-01,3.406193901215406189e-02,2.205869298307056692e+00,2.205870017265657790e+00,2.046158305707999545e-02,-4.290845596475689749e-03,5.402035182949034505e-08,-8.866898396114925722e-07,-7.199679202560819419e-08,2.983101829886471851e-02,-1.486173454915181935e+00,-2.042803589497701466e+00,-2.120194260274068654e+00,1.021404862403869629e+00,-1.686300102864400685e+00,-3.141593043004171193e+00,3.943488001823425293e-02,1.432539575034752488e-04,-2.761909854598343372e-04,1.338266301900148392e-04,-9.603861719369888306e-03,0.000000000000000000e+00
1.478820323944091797e+00,-1.115322528899686388e-01,-4.967750434250074454e-01,3.000004000539124860e-01,3.374541670715638236e-02,2.206016087408527060e+00,2.206017068206668874e+00,3.086692013643334287e-02,-6.474573668370565450e-03,8.488638015320614327e-08,-1.363085366047388513e-06,-1.096428249422326557e-07,4.520619381219267985e-02,-1.485791985188619435e+00,-2.042802635823385060e+00,-2.120196644459859669e+00,1.021406173706054688e+00,-1.686392609273092091e+00,-3.141593043004171193e+00,5.951508507132530212e-02,2.046440640697255731e-04,-3.944945638068020344e-04,1.912179723149165511e-04,-1.430889125913381577e-02,0.000000000000000000e+00
1.487276315689086914e+00,-1.112493986875696950e-01,-4.968344128964985451e-01,3.000004814691206168e-01,3.329036306023669400e-02,2.206227456516490104e+00,2.206227914146144720e+00,4.194627633506662484e-02,-8.790452774371130401e-03,1.057726428969312631e-07,-1.853141158754394543e-06,-1.547806639913221873e-07,6.166531704366214062e-02,-1.485246483479635060e+00,-2.042800728474752248e+00,-2.120199982319967091e+00,1.021407842636108398e+00,-1.686522785817281544e+00,-3.141593043004171193e+00,8.090398460626602173e-02,2.649061789270490408e-04,-5.106486496515572071e-04,2.476020599715411663e-04,-1.923866756260395050e-02,0.000000000000000000e+00
1.495313882827758789e+00,-1.108727094665641760e-01,-4.969131674043288371e-01,3.000004542466256918e-01,3.268216030119169141e-02,2.206509272422918500e+00,2.206510253770966656e+00,5.412712943205893329e-02,-1.132014760593091918e-02,1.318141552152296406e-07,-2.396458272416739454e-06,-1.960952844519442836e-07,7.984091714024746378e-02,-1.484519783650533498e+00,-2.042798344288961232e+00,-2.120204750691549123e+00,1.021409988403320312e+00,-1.686694447194234669e+00,-3.141593043004171193e+00,1.044239848852157593e-01,3.264045517425984144e-04,-6.291564204730093479e-04,3.051563107874244452e-04,-2.458306774497032166e-02,0.000000000000000000e+00
1.504311323165893555e+00,-1.103900168695119560e-01,-4.970140430694216516e-01,3.000005160374566437e-01,3.190072126001303188e-02,2.206871675340264627e+00,2.206872133595096486e+00,6.655538872956519303e-02,-1.387476868694372499e-02,1.529535264980405851e-07,-2.973235623470456411e-06,-2.534978152106945770e-07,9.847393445670611645e-02,-1.483588520680562794e+00,-2.042795483266012013e+00,-2.120209995900289357e+00,1.021412611007690430e+00,-1.686912838612691701e+00,-3.141593043004171193e+00,1.284239888191223145e-01,3.837505646515637636e-04,-7.396511500701308250e-04,3.588846011552959681e-04,-2.995005436241626740e-02,0.000000000000000000e+00
1.512359619140625000e+00,-1.103900168695119560e-01,-4.970140430694216516e-01,3.000005160374566437e-01,3.190072126001303188e-02,2.206871675340264627e+00,2.206872133595096486e+00,0.000000000000000000e+00,0.000000000000000000e+00,0.000000000000000000e+00,0.000000000000000000e+00,0.000000000000000000e+00,0.000000000000000000e+00,-1.483588520680562794e+00,-2.042795483266012013e+00,-2.120209995900289357e+00,1.021412611007690430e+00,-1.686912838612691701e+00,-3.141593043004171193e+00,0.000000000000000000e+00,0.000000000000000000e+00,0.000000000000000000e+00,0.000000000000000000e+00,0.000000000000000000e+00,0.000000000000000000e+00
1.521307229995727539e+00,-1.103900168695119560e-01,-4.970140430694216516e-01,3.000005160374566437e-01,3.190072126001303188e-02,2.206871675340264627e+00,2.206872133595096486e+00,0.000000000000000000e+00,0.000000000000000000e+00,0.000000000000000000e+00,0.000000000000000000e+00,0.000000000000000000e+00,0.000000000000000000e+00,-1.483588520680562794e+00,-2.042795483266012013e+00,-2.120209995900289357e+00,1.021412611007690430e+00,-1.686912838612691701e+00,-3.141593043004171193e+00,0.000000000000000000e+00,0.000000000000000000e+00,0.000000000000000000e+00,0.000000000000000000e+00,0.000000000000000000e+00,0.000000000000000000e+00
1.529549837112426758e+00,-1.103451873942513650e-01,-4.970234663820562448e-01,3.000003953768743403e-01,3.182599115348600655e-02,2.206906059021701338e+00,2.206907040812722709e+00,1.142823398265944458e-02,-2.411353060586709889e-03,2.063659688519518127e-08,-5.393968069898232537e-07,-4.503687328505732223e-08,1.734487432986535696e-02,-1.483501736317769826e+00,-2.042795483266012013e+00,-2.120210472737447560e+00,1.021412849426269531e+00,-1.686931435261861623e+00,-3.141593043004171193e+00,2.211599983274936676e-02,4.195616202196106315e-05,-8.078842074610292912e-05,3.937352812499739230e-05,-4.771125502884387970e-03,0.000000000000000000e+00
1.537944555282592773e+00,-1.103405157997095626e-01,-4.970243891119911495e-01,3.000006268863568692e-01,3.181809559954838079e-02,2.206910191514063868e+00,2.206910126303172515e+00,1.165768757811204079e-02,-2.459654794395447347e-03,2.105419116157865420e-08,-5.500230884158466195e-07,-4.825791409122621616e-08,1.769309025257814749e-02,-1.483492676411763966e+00,-2.042795006428853810e+00,-2.120210472737447560e+00,1.021412849426269531e+00,-1.686933342610494435e+00,-3.141593043004171193e+00,2.256000041961669922e-02,4.279847053112462163e-05,-8.241032628575339913e-05,4.016399179818108678e-05,-4.866910167038440704e-03,0.000000000000000000e+00
1.546175003051757812e+00,-1.103405157997095626e-01,-4.970243891119911495e-01,3.000006268863568692e-01,3.181809559954838079e-02,2.206910191514063868e+00,2.206910126303172515e+00,0.000000000000000000e+00,0.000000000000000000e+00,0.000000000000000000e+00,0.000000000000000000e+00,0.000000000000000000e+00,0.000000000000000000e+00,-1.483492676411763966e+00,-2.042795006428853810e+00,-2.120210472737447560e+00,1.021412849426269531e+00,-1.686933342610494435e+00,-3.141593043004171193e+00,0.000000000000000000e+00,0.000000000000000000e+00,0.000000000000000000e+00,0.000000000000000000e+00,0.000000000000000000e+00,0.000000000000000000e+00
1.554578542709350586e+00,-1.103405157997095626e-01,-4.970243891119911495e-01,3.000006268863568692e-01,3.181809559954838079e-02,2.206910191514063868e+00,2.206910126303172515e+00,0.000000000000000000e+00,0.000000000000000000e+00,0.000000000000000000e+00,0.000000000000000000e+00,0.000000000000000000e+00,0.000000000000000000e+00,-1.483492676411763966e+00,-2.042795006428853810e+00,-2.120210472737447560e+00,1.021412849426269531e+00,-1.686933342610494435e+00,-3.141593043004171193e+00,0.000000000000000000e+00,0.000000000000000000e+00,0.000000000000000000e+00,0.000000000000000000e+00,0.000000000000000000e+00,0.000000000000000000e+00
1.563763141632080078e+00,-1.103011180559853865e-01,-4.970326583416251331e-01,3.000005171428142825e-01,3.175226401605428517e-02,2.206940331847597747e+00,2.206941051923204888e+00,1.004001381695569274e-02,-2.121425323583703369e-03,1.671416128576158803e-08,-4.768745536198140894e-07,-4.038749275154254991e-08,1.529454858973635333e-02,-1.483416382466451466e+00,-2.042795006428853810e+00,-2.120210949574605763e+00,1.021412968635559082e+00,-1.686949555073873341e+00,-3.141593043004171193e+00,1.943759992718696594e-02,3.374008520040661097e-05,-6.495432171504944563e-05,3.169281626469455659e-05,-4.143051337450742722e-03,0.000000000000000000e+00
1.574400186538696289e+00,-1.101870583458767622e-01,-4.970568222452003693e-01,3.000006170746585821e-01,3.156191690191676585e-02,2.207028855809006984e+00,2.207028790696087484e+00,1.982504624362616680e-02,-4.188158663784322631e-03,3.074598031354503770e-08,-9.446622982548037774e-07,-8.316012897229104060e-08,3.025584574788789394e-02,-1.483195606862203419e+00,-2.042794529591695607e+00,-2.120211426411763966e+00,1.021413326263427734e+00,-1.686996761952535451e+00,-3.141593043004171193e+00,3.838816657662391663e-02,6.351496267598122358e-05,-1.222629944095388055e-04,5.969634730718098581e-05,-8.132320828735828400e-03,0.000000000000000000e+00
1.582660913467407227e+00,-1.101713180204247355e-01,-4.970602009838048230e-01,3.000006170746601364e-01,3.153525184893599120e-02,2.207041205733728084e+00,2.207041140631005316e+00,2.018941743251832788e-02,-4.264648083247931341e-03,3.120929186122743458e-08,-9.621670898656740457e-07,-8.473061112682598965e-08,3.081427980214337253e-02,-1.483165089284078419e+00,-2.042794529591695607e+00,-2.120211426411763966e+00,1.021413326263427734e+00,-1.687002960835592091e+00,-3.141593043004171193e+00,3.909384086728096008e-02,6.454192043747752905e-05,-1.242392609128728509e-04,6.066323112463578582e-05,-8.279561065137386322e-03,0.000000000000000000e+00
1.592218875885009766e+00,-1.101713180204247355e-01,-4.970602009838048230e-01,3.000006170746601364e-01,3.153525184893599120e-02,2.207041205733728084e+00,2.207041140631005316e+00,0.000000000000000000e+00,0.000000000000000000e+00,0.000000000000000000e+00,0.000000000000000000e+00,0.000000000000000000e+00,0.000000000000000000e+00,-1.483165089284078419e+00,-2.042794529591695607e+00,-2.120211426411763966e+00,1.021413326263427734e+00,-1.687002960835592091e+00,-3.141593043004171193e+00,0.000000000000000000e+00,0.000000000000000000e+00,0.000000000000000000e+00,0.000000000000000000e+00,0.000000000000000000e+00,0.000000000000000000e+00
