ThomasAsmussen/golf_robot/log/run1_20251013_153414.csv
t,x,y,z,rx,ry,rz,vx,vy,vz,wx,wy,wz,q1,q2,q3,q4,q5,q6,dq1,dq2,dq3,dq4,dq5,dq6
1.489758491516113281e-02,-1.000000822680490037e-01,-5.000002094581326162e-01,3.000001472795442714e-01,-4.422814919258157490e-09,2.221441698759650141e+00,2.221440329442017081e+00,0.000000000000000000e+00,0.000000000000000000e+00,0.000000000000000000e+00,0.000000000000000000e+00,0.000000000000000000e+00,0.000000000000000000e+00,-1.461602036152974904e+00,-2.043482128773824513e+00,-2.118884865437642873e+00,1.020774960517883301e+00,-1.679991070424215138e+00,-3.141593043004171193e+00,0.000000000000000000e+00,0.000000000000000000e+00,0.000000000000000000e+00,0.000000000000000000e+00,0.000000000000000000e+00,0.000000000000000000e+00
2.344274520874023438e-02,-1.000000822680490037e-01,-5.000002094581326162e-01,3.000001472795442714e-01,-4.422814919258157490e-09,2.221441698759650141e+00,2.221440329442017081e+00,0.000000000000000000e+00,0.000000000000000000e+00,0.000000000000000000e+00,0.000000000000000000e+00,0.000000000000000000e+00,0.000000000000000000e+00,-1.461602036152974904e+00,-2.043482128773824513e+00,-2.118884865437642873e+00,1.020774960517883301e+00,-1.679991070424215138e+00,-3.141593043004171193e+00,0.000000000000000000e+00,0.000000000000000000e+00,0.000000000000000000e+00,0.000000000000000000e+00,0.000000000000000000e+00,0.000000000000000000e+00
3.159189224243164062e-02,-1.000000822680490037e-01,-5.000002094581326162e-01,3.000001472795442714e-01,-4.422814919258157490e-09,2.221441698759650141e+00,2.221440329442017081e+00,0.000000000000000000e+00,0.000000000000000000e+00,0.000000000000000000e+00,0.000000000000000000e+00,0.000000000000000000e+00,0.000000000000000000e+00,-1.461602036152974904e+00,-2.043482128773824513e+00,-2.118884865437642873e+00,1.020774960517883301e+00,-1.679991070424215138e+00,-3.141593043004171193e+00,0.000000000000000000e+00,0.000000000000000000e+00,0.000000000000000000e+00,0.000000000000000000e+00,0.000000000000000000e+00,0.000000000000000000e+00
3.980135917663574219e-02,-1.000000822680490037e-01,-5.000002094581326162e-01,3.000001472795442714e-01,-4.422814919258157490e-09,2.221441698759650141e+00,2.221440329442017081e+00,0.000000000000000000e+00,0.000000000000000000e+00,0.000000000000000000e+00,0.000000000000000000e+00,0.000000000000000000e+00,0.000000000000000000e+00,-1.461602036152974904e+00,-2.043482128773824513e+00,-2.118884865437642873e+00,1.020774960517883301e+00,-1.679991070424215138e+00,-3.141593043004171193e+00,0.000000000000000000e+00,0.000000000000000000e+00,0.000000000000000000e+00,0.000000000000000000e+00,0.000000000000000000e+00,0.000000000000000000e+00
4.807829856872558594e-02,-1.000000822680490037e-01,-5.000002094581326162e-01,3.000001472795442714e-01,-4.422814919258157490e-09,2.221441698759650141e+00,2.221440329442017081e+00,0.000000000000000000e+00,0.000000000000000000e+00,0.000000000000000000e+00,0.000000000000000000e+00,0.000000000000000000e+00,0.000000000000000000e+00,-1.461602036152974904e+00,-2.043482128773824513e+00,-2.118884865437642873e+00,1.020774960517883301e+00,-1.679991070424215138e+00,-3.141593043004171193e+00,0.000000000000000000e+00,0.000000000000000000e+00,0.000000000000000000e+00,0.000000000000000000e+00,0.000000000000000000e+00,0.000000000000000000e+00
5.642628669738769531e-02,-1.000000822680490037e-01,-5.000002094581326162e-01,3.000001472795442714e-01,-4.422814919258157490e-09,2.221441698759650141e+00,2.221440329442017081e+00,0.000000000000000000e+00,0.000000000000000000e+00,0.000000000000000000e+00,0.000000000000000000e+00,0.000000000000000000e+00,0.000000000000000000e+00,-1.461602036152974904e+00,-2.043482128773824513e+00,-2.118884865437642873e+00,1.020774960517883301e+00,-1.679991070424215138e+00,-3.141593043004171193e+00,0.000000000000000000e+00,0.000000000000000000e+00,0.000000000000000000e+00,0.000000000000000000e+00,0.000000000000000000e+00,0.000000000000000000e+00
6.460165977478027344e-02,-1.000000822680490037e-01,-5.000002094581326162e-01,3.000001472795442714e-01,-4.422814919258157490e-09,2.221441698759650141e+00,2.221440329442017081e+00,0.000000000000000000e+00,0.000000000000000000e+00,0.000000000000000000e+00,0.000000000000000000e+00,0.000000000000000000e+00,0.000000000000000000e+00,-1.461602036152974904e+00,-2.043482128773824513e+00,-2.118884865437642873e+00,1.020774960517883301e+00,-1.679991070424215138e+00,-3.141593043004171193e+00,0.000000000000000000e+00,0.000000000000000000e+00,0.000000000000000000e+00,0.000000000000000000e+00,0.000000000000000000e+00,0.000000000000000000e+00
7.305049896240234375e-02,-1.000000822680490037e-01,-5.000002094581326162e-01,3.000001472795442714e-01,-4.422814919258157490e-09,2.221441698759650141e+00,2.221440329442017081e+00,0.000000000000000000e+00,0.000000000000000000e+00,0.000000000000000000e+00,0.000000000000000000e+00,0.000000000000000000e+00,0.000000000000000000e+00,-1.461602036152974904e+00,-2.043482128773824513e+00,-2.118884865437642873e+00,1.020774960517883301e+00,-1.679991070424215138e+00,-3.141593043004171193e+00,0.000000000000000000e+00,0.000000000000000000e+00,0.000000000000000000e+00,0.000000000000000000e+00,0.000000000000000000e+00,0.000000000000000000e+00
8.147430419921875000e-02,-1.000000822680490037e-01,-5.000002094581326162e-01,3.000001472795442714e-01,-4.422814919258157490e-09,2.221441698759650141e+00,2.221440329442017081e+00,0.000000000000000000e+00,0.000000000000000000e+00,0.000000000000000000e+00,0.000000000000000000e+00,0.000000000000000000e+00,0.000000000000000000e+00,-1.461602036152974904e+00,-2.043482128773824513e+00,-2.118884865437642873e+00,1.020774960517883301e+00,-1.679991070424215138e+00,-3.141593043004171193e+00,0.000000000000000000e+00,0.000000000000000000e+00,0.000000000000000000e+00,0.000000000000000000e+00,0.000000000000000000e+00,0.000000000000000000e+00
8.942699432373046875e-02,-1.000000822680490037e-01,-5.000002094581326162e-01,3.000001472795442714e-01,-4.422814919258157490e-09,2.221441698759650141e+00,2.221440329442017081e+00,0.000000000000000000e+00,0.000000000000000000e+00,0.000000000000000000e+00,0.000000000000000000e+00,0.000000000000000000e+00,0.000000000000000000e+00,-1.461602036152974904e+00,-2.043482128773824513e+00,-2.118884865437642873e+00,1.020774960517883301e+00,-1.679991070424215138e+00,-3.141593043004171193e+00,0.000000000000000000e+00,0.000000000000000000e+00,0.000000000000000000e+00,0.000000000000000000e+00,0.000000000000000000e+00,0.000000000000000000e+00
9.774923324584960938e-02,-1.000000822680490037e-01,-5.000002094581326162e-01,3.000001472795442714e-01,-4.422814919258157490e-09,2.221441698759650141e+00,2.221440329442017081e+00,0.000000000000000000e+00,0.000000000000000000e+00,0.000000000000000000e+00,0.000000000000000000e+00,0.000000000000000000e+00,0.000000000000000000e+00,-1.461602036152974904e+00,-2.043482128773824513e+00,-2.118884865437642873e+00,1.020774960517883301e+00,-1.679991070424215138e+00,-3.141593043004171193e+00,0.000000000000000000e+00,0.000000000000000000e+00,0.000000000000000000e+00,0.000000000000000000e+00,0.000000000000000000e+00,0.000000000000000000e+00
1.060476303100585938e-01,-1.000000822680490037e-01,-5.000002094581326162e-01,3.000001472795442714e-01,-4.422814919258157490e-09,2.221441698759650141e+00,2.221440329442017081e+00,0.000000000000000000e+00,0.000000000000000000e+00,0.000000000000000000e+00,0.000000000000000000e+00,0.000000000000000000e+00,0.000000000000000000e+00,-1.461602036152974904e+00,-2.043482128773824513e+00,-2.118884865437642873e+00,1.020774960517883301e+00,-1.679991070424215138e+00,-3.141593043004171193e+00,0.000000000000000000e+00,0.000000000000000000e+00,0.000000000000000000e+00,0.000000000000000000e+00,0.000000000000000000e+00,0.000000000000000000e+00
1.139156818389892578e-01,-1.000000822680490037e-01,-5.000002094581326162e-01,3.000001472795442714e-01,-4.422814919258157490e-09,2.221441698759650141e+00,2.221440329442017081e+00,0.000000000000000000e+00,0.000000000000000000e+00,0.000000000000000000e+00,0.000000000000000000e+00,0.000000000000000000e+00,0.000000000000000000e+00,-1.461602036152974904e+00,-2.043482128773824513e+00,-2.118884865437642873e+00,1.020774960517883301e+00,-1.679991070424215138e+00,-3.141593043004171193e+00,0.000000000000000000e+00,0.000000000000000000e+00,0.000000000000000000e+00,0.000000000000000000e+00,0.000000000000000000e+00,0.000000000000000000e+00
1.224889755249023438e-01,-1.000000822680490037e-01,-5.000002094581326162e-01,3.000001472795442714e-01,-4.422814919258157490e-09,2.221441698759650141e+00,2.221440329442017081e+00,0.000000000000000000e+00,0.000000000000000000e+00,0.000000000000000000e+00,0.000000000000000000e+00,0.000000000000000000e+00,0.000000000000000000e+00,-1.461602036152974904e+00,-2.043482128773824513e+00,-2.118884865437642873e+00,1.020774960517883301e+00,-1.679991070424215138e+00,-3.141593043004171193e+00,0.000000000000000000e+00,0.000000000000000000e+00,0.000000000000000000e+00,0.000000000000000000e+00,0.000000000000000000e+00,0.000000000000000000e+00
1.306889057159423828e-01,-1.000000822680490037e-01,-5.000002094581326162e-01,3.000001472795442714e-01,-4.422814919258157490e-09,2.221441698759650141e+00,2.221440329442017081e+00,0.000000000000000000e+00,0.000000000000000000e+00,0.000000000000000000e+00,0.000000000000000000e+00,0.000000000000000000e+00,0.000000000000000000e+00,-1.461602036152974904e+00,-2.043482128773824513e+00,-2.118884865437642873e+00,1.020774960517883301e+00,-1.679991070424215138e+00,-3.141593043004171193e+00,0.000000000000000000e+00,0.000000000000000000e+00,0.000000000000000000e+00,0.000000000000000000e+00,0.000000000000000000e+00,0.000000000000000000e+00
1.389253139495849609e-01,-1.000000822680490037e-01,-5.000002094581326162e-01,3.000001472795442714e-01,-4.422814919258157490e-09,2.221441698759650141e+00,2.221440329442017081e+00,0.000000000000000000e+00,0.000000000000000000e+00,0.000000000000000000e+00,0.000000000000000000e+00,0.000000000000000000e+00,0.000000000000000000e+00,-1.461602036152974904e+00,-2.043482128773824513e+00,-2.118884865437642873e+00,1.020774960517883301e+00,-1.679991070424215138e+00,-3.141593043004171193e+00,0.000000000000000000e+00,0.000000000000000000e+00,0.000000000000000000e+00,0.000000000000000000e+00,0.000000000000000000e+00,0.000000000000000000e+00
1.472747325897216797e-01,-1.000000822680490037e-01,-5.000002094581326162e-01,3.000001472795442714e-01,-4.422814919258157490e-09,2.221441698759650141e+00,2.221440329442017081e+00,0.000000000000000000e+00,0.000000000000000000e+00,0.000000000000000000e+00,0.000000000000000000e+00,0.000000000000000000e+00,0.000000000000000000e+00,-1.461602036152974904e+00,-2.043482128773824513e+00,-2.118884865437642873e+00,1.020774960517883301e+00,-1.679991070424215138e+00,-3.141593043004171193e+00,0.000000000000000000e+00,0.000000000000000000e+00,0.000000000000000000e+00,0.000000000000000000e+00,0.000000000000000000e+00,0.000000000000000000e+00
1.551439762115478516e-01,-1.000000822680490037e-01,-5.000002094581326162e-01,3.000001472795442714e-01,-4.422814919258157490e-09,2.221441698759650141e+00,2.221440329442017081e+00,0.000000000000000000e+00,0.000000000000000000e+00,0.000000000000000000e+00,0.000000000000000000e+00,0.000000000000000000e+00,0.000000000000000000e+00,-1.461602036152974904e+00,-2.043482128773824513e+00,-2.118884865437642873e+00,1.020774960517883301e+00,-1.679991070424215138e+00,-3.141593043004171193e+00,0.000000000000000000e+00,0.000000000000000000e+00,0.000000000000000000e+00,0.000000000000000000e+00,0.000000000000000000e+00,0.000000000000000000e+00
1.636035442352294922e-01,-1.000000822680490037e-01,-5.000002094581326162e-01,3.000001472795442714e-01,-4.422814919258157490e-09,2.221441698759650141e+00,2.221440329442017081e+00,0.000000000000000000e+00,0.000000000000000000e+00,0.000000000000000000e+00,0.000000000000000000e+00,0.000000000000000000e+00,0.000000000000000000e+00,-1.461602036152974904e+00,-2.043482128773824513e+00,-2.118884865437642873e+00,1.020774960517883301e+00,-1.679991070424215138e+00,-3.141593043004171193e+00,0.000000000000000000e+00,0.000000000000000000e+00,0.000000000000000000e+00,0.000000000000000000e+00,0.000000000000000000e+00,0.000000000000000000e+00
1.722731590270996094e-01,-1.000000822680490037e-01,-5.000002094581326162e-01,3.000001472795442714e-01,-4.422814919258157490e-09,2.221441698759650141e+00,2.221440329442017081e+00,0.000000000000000000e+00,0.000000000000000000e+00,0.000000000000000000e+00,0.000000000000000000e+00,0.000000000000000000e+00,0.000000000000000000e+00,-1.461602036152974904e+00,-2.043482128773824513e+00,-2.118884865437642873e+00,1.020774960517883301e+00,-1.679991070424215138e+00,-3.141593043004171193e+00,0.000000000000000000e+00,0.000000000000000000e+00,0.000000000000000000e+00,0.000000000000000000e+00,0.000000000000000000e+00,0.000000000000000000e+00
1.804459095001220703e-01,-1.000000822680490037e-01,-5.000002094581326162e-01,3.000001472795442714e-01,-4.422814919258157490e-09,2.221441698759650141e+00,2.221440329442017081e+00,0.000000000000000000e+00,0.000000000000000000e+00,0.000000000000000000e+00,0.000000000000000000e+00,0.000000000000000000e+00,0.000000000000000000e+00,-1.461602036152974904e+00,-2.043482128773824513e+00,-2.118884865437642873e+00,1.020774960517883301e+00,-1.679991070424215138e+00,-3.141593043004171193e+00,0.000000000000000000e+00,0.000000000000000000e+00,0.000000000000000000e+00,0.000000000000000000e+00,0.000000000000000000e+00,0.000000000000000000e+00
1.893124580383300781e-01,-1.000000822680490037e-01,-5.000002094581326162e-01,3.000001472795442714e-01,-4.422814919258157490e-09,2.221441698759650141e+00,2.221440329442017081e+00,0.000000000000000000e+00,0.000000000000000000e+00,0.000000000000000000e+00,0.000000000000000000e+00,0.000000000000000000e+00,0.000000000000000000e+00,-1.461602036152974904e+00,-2.043482128773824513e+00,-2.118884865437642873e+00,1.020774960517883301e+00,-1.679991070424215138e+00,-3.141593043004171193e+00,0.000000000000000000e+00,0.000000000000000000e+00,0.000000000000000000e+00,0.000000000000000000e+00,0.000000000000000000e+00,0.000000000000000000e+00
1.970119476318359375e-01,-1.000000822680490037e-01,-5.000002094581326162e-01,3.000001472795442714e-01,-4.422814919258157490e-09,2.221441698759650141e+00,2.221440329442017081e+00,0.000000000000000000e+00,0.000000000000000000e+00,0.000000000000000000e+00,0.000000000000000000e+00,0.000000000000000000e+00,0.000000000000000000e+00,-1.461602036152974904e+00,-2.043482128773824513e+00,-2.118884865437642873e+00,1.020774960517883301e+00,-1.679991070424215138e+00,-3.141593043004171193e+00,0.000000000000000000e+00,0.000000000000000000e+00,0.000000000000000000e+00,0.000000000000000000e+00,0.000000000000000000e+00,0.000000000000000000e+00
2.054719924926757812e-01,-1.000000822680490037e-01,-5.000002094581326162e-01,3.000001472795442714e-01,-4.422814919258157490e-09,2.221441698759650141e+00,2.221440329442017081e+00,0.000000000000000000e+00,0.000000000000000000e+00,0.000000000000000000e+00,0.000000000000000000e+00,0.000000000000000000e+00,0.000000000000000000e+00,-1.461602036152974904e+00,-2.043482128773824513e+00,-2.118884865437642873e+00,1.020774960517883301e+00,-1.679991070424215138e+00,-3.141593043004171193e+00,0.000000000000000000e+00,0.000000000000000000e+00,0.000000000000000000e+00,0.000000000000000000e+00,0.000000000000000000e+00,0.000000000000000000e+00
2.144272327423095703e-01,-1.000000822680490037e-01,-5.000002094581326162e-01,3.000001472795442714e-01,-4.422814919258157490e-09,2.221441698759650141e+00,2.221440329442017081e+00,0.000000000000000000e+00,0.000000000000000000e+00,0.000000000000000000e+00,0.000000000000000000e+00,0.000000000000000000e+00,0.000000000000000000e+00,-1.461602036152974904e+00,-2.043482128773824513e+00,-2.118884865437642873e+00,1.020774960517883301e+00,-1.679991070424215138e+00,-3.141593043004171193e+00,0.000000000000000000e+00,0.000000000000000000e+00,0.000000000000000000e+00,0.000000000000000000e+00,0.000000000000000000e+00,0.000000000000000000e+00
2.225854396820068359e-01,-1.000000822680490037e-01,-5.000002094581326162e-01,3.000001472795442714e-01,-4.422814919258157490e-09,2.221441698759650141e+00,2.221440329442017081e+00,0.000000000000000000e+00,0.000000000000000000e+00,0.000000000000000000e+00,0.000000000000000000e+00,0.000000000000000000e+00,0.000000000000000000e+00,-1.461602036152974904e+00,-2.043482128773824513e+00,-2.118884865437642873e+00,1.020774960517883301e+00,-1.679991070424215138e+00,-3.141593043004171193e+00,0.000000000000000000e+00,0.000000000000000000e+00,0.000000000000000000e+00,0.000000000000000000e+00,0.000000000000000000e+00,0.000000000000000000e+00
2.311387062072753906e-01,-1.000000822680490037e-01,-5.000002094581326162e-01,3.000001472795442714e-01,-4.422814919258157490e-09,2.221441698759650141e+00,2.221440329442017081e+00,0.000000000000000000e+00,0.000000000000000000e+00,0.000000000000000000e+00,0.000000000000000000e+00,0.000000000000000000e+00,0.000000000000000000e+00,-1.461602036152974904e+00,-2.043482128773824513e+00,-2.118884865437642873e+00,1.020774960517883301e+00,-1.679991070424215138e+00,-3.141593043004171193e+00,0.000000000000000000e+00,0.000000000000000000e+00,0.000000000000000000e+00,0.000000000000000000e+00,0.000000000000000000e+00,0.000000000000000000e+00
2.392179965972900391e-01,-1.000000822680490037e-01,-5.000002094581326162e-01,3.000001472795442714e-01,-4.422814919258157490e-09,2.221441698759650141e+00,2.221440329442017081e+00,0.000000000000000000e+00,0.000000000000000000e+00,0.000000000000000000e+00,0.000000000000000000e+00,0.000000000000000000e+00,0.000000000000000000e+00,-1.461602036152974904e+00,-2.043482128773824513e+00,-2.118884865437642873e+00,1.020774960517883301e+00,-1.679991070424215138e+00,-3.141593043004171193e+00,0.000000000000000000e+00,0.000000000000000000e+00,0.000000000000000000e+00,0.000000000000000000e+00,0.000000000000000000e+00,0.000000000000000000e+00
2.480199337005615234e-01,-1.000000822680490037e-01,-5.000002094581326162e-01,3.000001472795442714e-01,-4.422814919258157490e-09,2.221441698759650141e+00,2.221440329442017081e+00,-9.681449810939747711e-06,2.097478770284802226e-06,-1.018815599648367948e-10,-4.541886070809318641e-14,4.142909040982718068e-13,-1.852767343280005804e-05,-1.461602036152974904e+00,-2.043482128773824513e+00,-2.118884865437642873e+00,1.020774960517883301e+00,-1.679991070424215138e+00,-3.141593043004171193e+00,-1.920000067912042141e-05,1.784939627214043867e-07,-3.450883241384872235e-07,1.665943614170828369e-07,6.723272463204921223e-07,0.000000000000000000e+00
2.563989162445068359e-01,-1.000000822680490037e-01,-5.000002094581326162e-01,3.000001472795442714e-01,-4.422814919258157490e-09,2.221441698759650141e+00,2.221440329442017081e+00,-2.962426910791816605e-05,6.424357834702651093e-06,-1.584359950467768032e-09,-8.128075981007828879e-14,1.263014684908347384e-12,-5.671238477589252592e-05,-1.461602036152974904e+00,-2.043482128773824513e+00,-2.118884865437642873e+00,1.020774960517883301e+00,-1.679991070424215138e+00,-3.141593043004171193e+00,-5.875200076843611896e-05,5.502279805114085320e-07,-1.068020537786651403e-06,5.177925004318240099e-07,2.039615992543986067e-06,0.000000000000000000e+00
2.650411128997802734e-01,-1.000005591053615001e-01,-5.000001140903951313e-01,3.000001472795442714e-01,1.054602842150914556e-06,2.221441221980504643e+00,2.221439852638395607e+00,-9.758577085763077408e-05,2.116292202616279499e-05,-5.268934657156399966e-09,-4.538312372403985770e-13,4.139685713706444188e-12,-1.868179642769986464e-04,-1.461602989827291310e+00,-2.043482128773824513e+00,-2.118884865437642873e+00,1.020774960517883301e+00,-1.679991070424215138e+00,-3.141593043004171193e+00,-1.935360050993040204e-04,1.812674099710420705e-06,-3.518657877066289075e-06,1.705983777355868369e-06,6.718040822306647897e-06,0.000000000000000000e+00
2.734103202819824219e-01,-1.000017527012709850e-01,-4.999998619586945026e-01,3.000001363538995491e-01,3.688609846818783621e-06,2.221440154962788238e+00,2.221438522398052839e+00,-2.187933486069537734e-04,4.744929744411783109e-05,-1.184690548600617343e-08,-1.665167649714950167e-12,1.101641084153765193e-11,-4.188582033748430421e-04,-1.461605374013082326e+00,-2.043482128773824513e+00,-2.118884865437642873e+00,1.020775079727172852e+00,-1.679991070424215138e+00,-3.141593043004171193e+00,-4.339200095273554325e-04,4.064237145939841866e-06,-7.889372682257089764e-06,3.825135991064598784e-06,1.506180615251651034e-05,0.000000000000000000e+00
2.813737392425537109e-01,-1.000022295382520382e-01,-4.999997665893641807e-01,3.000001363538995491e-01,4.747766970719699255e-06,2.221439678120684658e+00,2.221438045562618591e+00,-1.714554423057823497e-04,3.719815851270157298e-05,1.959264351338230016e-09,2.442794069836029118e-08,2.686571322343899238e-09,-3.284589547547493325e-04,-1.461606327687398732e+00,-2.043482128773824513e+00,-2.118884865437642873e+00,1.020775079727172852e+00,-1.679991070424215138e+00,-3.141593043004171193e+00,-3.400704008527100086e-04,3.213988975403481163e-06,-6.208559170772787184e-06,2.969994966406375170e-06,1.161144609795883298e-05,0.000000000000000000e+00
2.918102741241455078e-01,-1.000032465160684697e-01,-4.999993994303346678e-01,3.000000374132487102e-01,6.394450509574845979e-06,2.221438462377558931e+00,2.221437882786517104e+00,-2.272500054217898560e-04,4.933288652049658084e-05,-6.292669872819735288e-11,1.743789192128114759e-08,1.915560238743460728e-09,-4.358489686637737233e-04,-1.461608235036031544e+00,-2.043482128773824513e+00,-2.118885342274801076e+00,1.020775079727172852e+00,-1.679990593587056935e+00,-3.141593043004171193e+00,-4.508098645601421595e-04,4.278062533558113500e-06,-8.268346391560044140e-06,3.972741069446783513e-06,1.496089589636540040e-05,0.000000000000000000e+00
3.023943901062011719e-01,-1.000044386072478780e-01,-4.999991610025942279e-01,3.000000374132487102e-01,9.042611821783159927e-06,2.221437270254872587e+00,2.221436690655786972e+00,-3.073243988958261337e-04,6.675227668374629508e-05,1.873067558858770252e-09,2.772029808262094539e-08,3.043973289151239237e-09,-5.899151055928036989e-04,-1.461610619221822560e+00,-2.043482128773824513e+00,-2.118885342274801076e+00,1.020775079727172852e+00,-1.679990593587056935e+00,-3.141593043004171193e+00,-6.097295554354786873e-04,5.817214514536317438e-06,-1.123780202760826796e-05,5.392700586526188999e-06,1.981444984267000109e-05,0.000000000000000000e+00
3.101282119750976562e-01,-1.000061165072429481e-01,-4.999987453394827419e-01,3.000002692153937445e-01,1.269228666285114584e-05,2.221436101823395237e+00,2.221434469268223300e+00,-4.036124127006322651e-04,8.775640602138741453e-05,5.060943420501604427e-09,2.178584743643847230e-08,2.406663188157652038e-09,-7.760220523778140183e-04,-1.461613957081929982e+00,-2.043481651936666310e+00,-2.118885342274801076e+00,1.020775079727172852e+00,-1.679990593587056935e+00,-3.141593043004171193e+00,-8.009513258002698421e-04,7.714898856647778302e-06,-1.489054102421505377e-05,7.153723800001898780e-06,2.492927342245820910e-05,0.000000000000000000e+00
3.186197280883789062e-01,-1.000082637709990563e-01,-4.999983024448013125e-01,3.000002582897466907e-01,1.744455591877768402e-05,2.221434081164906260e+00,2.221432185368499290e+00,-5.160609551913841481e-04,1.122497924591961800e-04,7.268204712414881707e-09,2.287118459763166882e-08,2.534074551929564960e-09,-9.928352628776405172e-04,-1.461618248616353810e+00,-2.043481651936666310e+00,-2.118885342274801076e+00,1.020775198936462402e+00,-1.679990593587056935e+00,-3.141593043004171193e+00,-1.024190220050513744e-03,9.898809366859495640e-06,-1.910155515361111611e-05,9.179734661302063614e-06,3.135495717287994921e-05,0.000000000000000000e+00
3.271424770355224609e-01,-1.000109303294753615e-01,-4.999977778727722200e-01,3.000002582897425274e-01,2.274082237119132269e-05,2.221431696954436763e+00,2.221429801158863793e+00,-6.455005037193864295e-04,1.405209144197771382e-04,5.161474292942510408e-09,3.742899581906413663e-08,4.135188422813694206e-09,-1.243512204382574886e-03,-1.461623493825094044e+00,-2.043481651936666310e+00,-2.118885342274801076e+00,1.020775198936462402e+00,-1.679990116749898732e+00,-3.141593043004171193e+00,-1.281321863643825054e-03,1.246427018486429006e-05,-2.406807834631763399e-05,1.156615144282113761e-05,3.780965926125645638e-05,0.000000000000000000e+00
3.356237411499023438e-01,-1.000145065897097424e-01,-4.999970625260654611e-01,3.000002582897425274e-01,3.068523919264321269e-05,2.221428120630942971e+00,2.221426224832793395e+00,-7.931839979136667785e-04,1.727904006358040772e-04,9.655048253603393063e-09,4.096511242084170159e-08,4.528732212818793357e-09,-1.529667588329183944e-03,-1.461630646382467091e+00,-2.043481651936666310e+00,-2.118885342274801076e+00,1.020775198936462402e+00,-1.679990116749898732e+00,-3.141593043004171193e+00,-1.574717229232192039e-03,1.541200617793947458e-05,-2.974747621919959784e-05,1.429425537935458124e-05,4.504964090301655233e-05,0.000000000000000000e+00
3.439762592315673828e-01,-1.000188189320729559e-01,-4.999960139465051689e-01,3.000001484234616211e-01,4.026177978832912950e-05,2.221423453653319058e+00,2.221422347564299127e+00,-9.603576898999168247e-04,2.094127258357941041e-04,1.161866672011006695e-08,5.497978619869754257e-08,6.051636513585707151e-09,-1.854906120570371745e-03,-1.461639229451314748e+00,-2.043481651936666310e+00,-2.118885819111959279e+00,1.020775318145751953e+00,-1.679990116749898732e+00,-3.141593043004171193e+00,-1.907026511617004871e-03,1.881551179394591600e-05,-3.631885920185595751e-05,1.744803557812701911e-05,5.212039104662835598e-05,0.000000000000000000e+00
3.525342941284179688e-01,-1.000238711441156225e-01,-4.999949986624828147e-01,3.000001374978143454e-01,5.083980904386043527e-05,2.221418810298463331e+00,2.221417440972028423e+00,-1.148643879070264471e-03,2.506019310374159813e-04,1.392702544672316726e-08,7.142564938594653016e-08,7.864975936544751991e-09,-2.220281829067968522e-03,-1.461649243031637013e+00,-2.043481651936666310e+00,-2.118885819111959279e+00,1.020775437355041504e+00,-1.679989639912740529e+00,-3.141593043004171193e+00,-2.281167311593890190e-03,2.260019755340181291e-05,-4.362604886409826577e-05,2.095399395329877734e-05,6.088548252591863275e-05,0.000000000000000000e+00
3.611791133880615234e-01,-1.000303821393039028e-01,-4.999934388605858371e-01,3.000002594335380857e-01,6.459552757239892180e-05,2.221412736362900375e+00,2.221411103797521491e+00,-1.359502119121662900e-03,2.968218898135534158e-04,1.563628201092719395e-08,7.771125667571365389e-08,8.566550406103610724e-09,-2.630732909892688313e-03,-1.461662117634908498e+00,-2.043481175099508107e+00,-2.118886295949117482e+00,1.020775556564331055e+00,-1.679989163075582326e+00,-3.141593043004171193e+00,-2.700350247323513031e-03,2.690517248993273824e-05,-5.193698598304763436e-05,2.495363150956109166e-05,6.961733743082731962e-05,0.000000000000000000e+00
3.699100017547607422e-01,-1.000380568884994548e-01,-4.999918987461662856e-01,3.000002485078851477e-01,8.099923985236157933e-05,2.221405470245745306e+00,2.221403574442308848e+00,-1.594721086998260925e-03,3.484590998105658102e-04,1.817110013417450862e-08,8.991119105986444553e-08,9.917913280277054903e-09,-3.089621925028051413e-03,-1.461677376423970998e+00,-2.043481175099508107e+00,-2.118886295949117482e+00,1.020775675773620605e+00,-1.679988686238424123e+00,-3.141593043004171193e+00,-3.168112132698297501e-03,3.176329846610315144e-05,-6.131537520559504628e-05,2.946162021544296294e-05,7.849020767025649548e-05,0.000000000000000000e+00
3.798296451568603516e-01,-1.000468990436619299e-01,-4.999899435684496685e-01,3.000001386417203153e-01,1.006382260622767889e-04,2.221396272989312415e+00,2.221395166888533002e+00,-1.856251490535603191e-03,4.059574238496960392e-04,2.158386924981912745e-08,1.047427719859171843e-07,1.151717598122870402e-08,-3.600912830734148955e-03,-1.461695019398824513e+00,-2.043481175099508107e+00,-2.118886772786275685e+00,1.020775794982910156e+00,-1.679988686238424123e+00,-3.141593043004171193e+00,-3.688358003273606300e-03,3.722549081430770457e-05,-7.185837603174149990e-05,3.452751116128638387e-05,8.744517253944650292e-05,0.000000000000000000e+00
3.898396492004394531e-01,-1.000577028938578888e-01,-4.999875109724222777e-01,3.000002496516729900e-01,1.239121565627215296e-04,2.221386032238406028e+00,2.221384399663715037e+00,-2.146090065333940318e-03,4.699247955306838989e-04,2.207776481854705564e-08,1.256318755591816573e-07,1.382879558677918250e-08,-4.170888918451964855e-03,-1.461716477070943654e+00,-2.043480698262349904e+00,-2.118887249623433888e+00,1.020776033401489258e+00,-1.679988209401265919e+00,-3.141593043004171193e+00,-4.265408962965011597e-03,4.345557681517675519e-05,-8.389606955461204052e-05,4.031410207971930504e-05,9.452004451304674149e-05,0.000000000000000000e+00
3.980302810668945312e-01,-1.000699721555673993e-01,-4.999848736972957175e-01,3.000001288599659643e-01,1.498915782179687092e-04,2.221374098682235676e+00,2.221372992571199578e+00,-2.466467081359407891e-03,5.410270611355164853e-04,2.762193516376281876e-08,1.457921193786744909e-07,1.601198298229185898e-08,-4.806347591511421317e-03,-1.461740795766012013e+00,-2.043480698262349904e+00,-2.118887726460592091e+00,1.020776271820068359e+00,-1.679987255726949513e+00,-3.141593043004171193e+00,-4.904055502265691757e-03,5.065163713879883289e-05,-9.778243111213669181e-05,4.698412521975114942e-05,9.770791075425222516e-05,0.000000000000000000e+00
4.061541557312011719e-01,-1.000845904442838608e-01,-4.999816770324539972e-01,3.000002398697914630e-01,1.816385823656276163e-04,2.221360042642234411e+00,2.221358410060462418e+00,-2.820750328480422890e-03,6.193548584693279796e-04,3.193226893523754239e-08,1.713355415591315793e-07,1.883271621104250002e-08,-5.504389802808866416e-03,-1.461769882832662404e+00,-2.043480221425191701e+00,-2.118888203297750294e+00,1.020776510238647461e+00,-1.679986778889791310e+00,-3.141593043004171193e+00,-5.609622225165367126e-03,5.834782132296822965e-05,-1.126404458773322403e-04,5.412025711848400533e-05,1.052324223564937711e-04,0.000000000000000000e+00
4.147615432739257812e-01,-1.001013751113153383e-01,-4.999778602230122715e-01,3.000002410135546027e-01,2.181947165484867291e-04,2.221343464998373207e+00,2.221342095641390291e+00,-3.211423281024253923e-03,7.059295840650296272e-04,3.466462165077014060e-08,1.966952570311338685e-07,2.159317737449519656e-08,-6.276654195971768761e-03,-1.461803261433736623e+00,-2.043479744588033498e+00,-2.118889156972066701e+00,1.020776867866516113e+00,-1.679986302052633107e+00,-3.141593043004171193e+00,-6.388041190803050995e-03,6.696739001199603081e-05,-1.292871602345257998e-04,6.212189327925443649e-05,1.113869948312640190e-04,0.000000000000000000e+00
4.231195449829101562e-01,-1.001205154426296207e-01,-4.999738237288197107e-01,3.000001092964259541e-01,2.600460826902108494e-04,2.221324502562300296e+00,2.221323396426367669e+00,-3.642097325430241738e-03,8.012921399046704207e-04,3.995998976431818971e-08,2.192562238058682343e-07,2.404424641872198501e-08,-7.126374599465604316e-03,-1.461841408406392873e+00,-2.043479744588033498e+00,-2.118889633809224904e+00,1.020777225494384766e+00,-1.679985825215474904e+00,-3.141593043004171193e+00,-7.245938293635845184e-03,7.638362876605242491e-05,-1.474632153986021876e-04,7.085901597747579217e-05,1.195636941702105105e-04,0.000000000000000000e+00
4.316394329071044922e-01,-1.001428285694032361e-01,-4.999688937288783719e-01,3.000000995146351879e-01,3.082371283927697742e-04,2.221302803400345027e+00,2.221301697253887930e+00,-4.116372078509370099e-03,9.063697295978119300e-04,4.677469359860698341e-08,2.416931011346997468e-07,2.649220882989558812e-08,-8.062270673690327336e-03,-1.461885754262105763e+00,-2.043479267750875294e+00,-2.118890587483541310e+00,1.020777702331542969e+00,-1.679984871541158498e+00,-3.141593043004171193e+00,-8.190731517970561981e-03,8.676287689013406634e-05,-1.674940722296014428e-04,8.048805466387420893e-05,1.284608442801982164e-04,0.000000000000000000e+00
4.397828578948974609e-01,-1.001679583065521045e-01,-4.999633895897966918e-01,3.000000897328338190e-01,3.633114584239789040e-04,2.221278003717516825e+00,2.221276897558866370e+00,-4.638375036618689988e-03,1.022139700240805695e-03,5.080287160599331443e-08,2.853082480861029133e-07,3.125134133846152050e-08,-9.093223488889592976e-03,-1.461935822163717091e+00,-2.043478790913717091e+00,-2.118891541157857716e+00,1.020778179168701172e+00,-1.679984394704000294e+00,-3.141593043004171193e+00,-9.230751544237136841e-03,9.822954598348587751e-05,-1.896410394692793489e-04,9.112447878578677773e-05,1.375280553475022316e-04,0.000000000000000000e+00
4.482252597808837891e-01,-1.001969757927607396e-01,-4.999568477429718327e-01,3.000002018858714536e-01,4.263132921995303553e-04,2.221249751449194232e+00,2.221248382054334503e+00,-5.212768305145987040e-03,1.149694059804792995e-03,5.800185943097884404e-08,3.212987485545549155e-07,3.518811743101195229e-08,-1.022894869674924670e-02,-1.461993519459859669e+00,-2.043477837239400685e+00,-2.118892971669332326e+00,1.020778775215148926e+00,-1.679983441029683888e+00,-3.141593043004171193e+00,-1.037537585943937302e-02,1.109204604290425777e-04,-2.141394943464547396e-04,1.028958140523172915e-04,1.464271626900881529e-04,0.000000000000000000e+00
4.572765827178955078e-01,-1.002508550042958552e-01,-4.999451019885495229e-01,3.000001713962965333e-01,5.438543000954855445e-04,2.221196934845279802e+00,2.221195302211750544e+00,-8.555807362069456357e-03,1.888300888042779811e-03,9.563955676562335886e-08,5.276875880559916516e-07,5.776001167334705728e-08,-1.679397068801331827e-02,-1.462100807820455373e+00,-2.043476883565084279e+00,-2.118894879017965138e+00,1.020779848098754883e+00,-1.679982010518209279e+00,-3.141593043004171193e+00,-1.703038997948169708e-02,1.823134371079504490e-04,-3.519672900438308716e-04,1.691230136202648282e-04,2.364192914683371782e-04,0.000000000000000000e+00
4.652891159057617188e-01,-1.002995060747329248e-01,-4.999342399188478892e-01,3.000000528930557575e-01,6.498128376822200764e-04,2.221148736403483426e+00,2.221148156607902546e+00,-8.004887797218160003e-03,1.768218566148498311e-03,9.210449061731571219e-08,4.881989073301395580e-07,5.328330037258007231e-08,-1.572292810305943658e-02,-1.462197605763570607e+00,-2.043475929890767873e+00,-2.118897263203756154e+00,1.020780801773071289e+00,-1.679980580006734669e+00,-3.141593043004171193e+00,-1.593561097979545593e-02,1.711277727736160159e-04,-3.303627599962055683e-04,1.587438891874626279e-04,2.126828767359256744e-04,0.000000000000000000e+00
4.735212326049804688e-01,-1.003775652623948855e-01,-4.999170779814819943e-01,3.000002444201230745e-01,8.202319224797557104e-04,2.221072563110006559e+00,2.221070667230994111e+00,-1.194615264628298354e-02,2.641205148564957413e-03,1.389149462089983515e-07,7.251588856165501951e-07,7.921779810263750693e-08,-2.347130308044139205e-02,-1.462353054677144826e+00,-2.043474022542135060e+00,-2.118900124226705373e+00,1.020782351493835449e+00,-1.679978672658101857e+00,-3.141593043004171193e+00,-2.378341928124427795e-02,2.557350089773535728e-04,-4.936911864206194878e-04,2.372267044847831130e-04,3.121162008028477430e-04,0.000000000000000000e+00
4.818077087402343750e-01,-1.004460748025476774e-01,-4.999019290941785210e-01,3.000002259992414211e-01,9.695486367277133958e-04,2.221005173895553408e+00,2.221003541201912679e+00,-1.084164267520946329e-02,2.400662275146993752e-03,1.257448484473066081e-07,6.516730287662215941e-07,7.104936880672854013e-08,-2.133213204797350729e-02,-1.462489430104390919e+00,-2.043472592030660451e+00,-2.118902985249654591e+00,1.020783662796020508e+00,-1.679976765309469044e+00,-3.141593043004171193e+00,-2.158958278596401215e-02,2.337594050914049149e-04,-4.512683080974966288e-04,2.168533683288842440e-04,2.574507379904389381e-04,0.000000000000000000e+00
4.904298782348632812e-01,-1.005126326850922236e-01,-4.998871405789500066e-01,3.000001966525852604e-01,1.115136179186407544e-03,2.220939574657783577e+00,2.220937941943638805e+00,-1.069584864819484241e-02,2.372636603432873130e-03,1.255412787158157398e-07,6.414862994012687070e-07,6.982781927208781457e-08,-2.108579839114092108e-02,-1.462621990834371388e+00,-2.043471161519185841e+00,-2.118905846272603810e+00,1.020785093307495117e+00,-1.679975334797994435e+00,-3.141593043004171193e+00,-2.130574919283390045e-02,2.328163973288610578e-04,-4.494444001466035843e-04,2.159827272407710552e-04,2.199508016929030418e-04,0.000000000000000000e+00
4.989519119262695312e-01,-1.005813321433113305e-01,-4.998719252697269022e-01,3.000001782314780097e-01,1.265493735398101052e-03,2.220871698390932458e+00,2.220870328844275488e+00,-1.111040733159336311e-02,2.468721476756123405e-03,1.294913896383853458e-07,6.743259676839142129e-07,7.326037078776029579e-08,-2.194012037944038235e-02,-1.462758843098775685e+00,-2.043469731007711232e+00,-2.118908707295553029e+00,1.020786404609680176e+00,-1.679973904286519826e+00,-3.141593043004171193e+00,-2.213756553828716278e-02,2.438453375361859798e-04,-4.707427287939935923e-04,2.262190973851829767e-04,1.974451588466763496e-04,0.000000000000000000e+00
5.070614814758300781e-01,-1.006550216544000731e-01,-4.998554069415268586e-01,3.000002708168315046e-01,1.427458632186749069e-03,2.220798818378668660e+00,2.220797185620801084e+00,-1.188719308713936419e-02,2.645574848489327339e-03,1.397947358798086294e-07,7.207320893261028969e-07,7.819832977758180306e-08,-2.350969234248613191e-02,-1.462905708943502248e+00,-2.043467823659078419e+00,-2.118912045155660451e+00,1.020787954330444336e+00,-1.679972950612203419e+00,-3.141593043004171193e+00,-2.369124069809913635e-02,2.628155052661895752e-04,-5.073616048321127892e-04,2.438211377011612058e-04,1.815483556129038334e-04,0.000000000000000000e+00
5.156116485595703125e-01,-1.007356130129135330e-01,-4.998375529565229347e-01,3.000001206809000953e-01,1.604805317984816159e-03,2.220718637386964733e+00,2.220717530954184671e+00,-1.292906627931372093e-02,2.882079214035533719e-03,1.522766050954791726e-07,7.935941907203859640e-07,8.591047901639536510e-08,-2.560631756205097517e-02,-1.463066403065816701e+00,-2.043466393147603810e+00,-2.118915383015767873e+00,1.020789623260498047e+00,-1.679971996937887013e+00,-3.141593043004171193e+00,-2.577381953597068787e-02,2.877941878978163004e-04,-5.555867101065814495e-04,2.669942914508283138e-04,1.675019739195704460e-04,0.000000000000000000e+00
5.237724781036376953e-01,-1.008600166583500241e-01,-4.998098391524782302e-01,3.000001937000288943e-01,1.877888703267455639e-03,2.220595631528711866e+00,2.220594261871775110e+00,-1.872128377709577143e-02,4.179730941380064603e-03,2.204365618450922355e-07,1.155423901768600418e-06,1.248068621274339789e-07,-3.710280747327467793e-02,-1.463314358388082326e+00,-2.043463532124654591e+00,-2.118920628224508107e+00,1.020792126655578613e+00,-1.679970089589254201e+00,-3.141593043004171193e+00,-3.732604533433914185e-02,4.179971874691545963e-04,-8.069462492130696774e-04,3.877869166899472475e-04,2.232378610642626882e-04,0.000000000000000000e+00
5.318195819854736328e-01,-1.009841069822838971e-01,-4.997819525340512214e-01,3.000001568558094966e-01,2.151513933750046764e-03,2.220471994776226587e+00,2.220471151376017804e+00,-1.882999792827753233e-02,4.212318349870085646e-03,2.253925561078725470e-07,1.154767624141657387e-06,1.243778740787814988e-07,-3.736950087477430849e-02,-1.463561836873189748e+00,-2.043460671101705373e+00,-2.118926350270406544e+00,1.020794749259948730e+00,-1.679969135914937794e+00,-3.141593043004171193e+00,-3.755223006010055542e-02,4.231433558743447065e-04,-8.168685017153620720e-04,3.925636992789804935e-04,1.827291853260248899e-04,0.000000000000000000e+00
5.405585765838623047e-01,-1.011129821894484471e-01,-4.997532334915020247e-01,3.000002080207781474e-01,2.435090428790554276e-03,2.220344431460595125e+00,2.220342798562153330e+00,-1.961782887047851254e-02,4.397577278301751172e-03,2.342612123521663726e-07,1.210384406354471494e-06,1.300878391318887390e-07,-3.898864732764174834e-02,-1.463818852101461232e+00,-2.043457810078756154e+00,-2.118931595479146779e+00,1.020797491073608398e+00,-1.679967705403463185e+00,-3.141593043004171193e+00,-3.913360461592674255e-02,4.438008763827383518e-04,-8.567535551264882088e-04,4.117353237234055996e-04,1.449572882847860456e-04,0.000000000000000000e+00
5.493774414062500000e-01,-1.012508643159871075e-01,-4.997221983301152193e-01,3.000002821780607953e-01,2.739839060418024740e-03,2.220206924856627406e+00,2.220205291915931856e+00,-2.092182469104222203e-02,4.699966010371877702e-03,2.513672661648062367e-07,1.290350878426210957e-06,1.382866778871709988e-07,-4.164072846469911438e-02,-1.464093987141744435e+00,-2.043454472218648732e+00,-2.118937794362203419e+00,1.020800352096557617e+00,-1.679967228566304982e+00,-3.141593043004171193e+00,-4.174606874585151672e-02,4.765040357597172260e-04,-9.198835468851029873e-04,4.420817713253200054e-04,1.053402811521664262e-04,0.000000000000000000e+00
5.574908256530761719e-01,-1.014011943030040802e-01,-4.996883932396125605e-01,3.000002246222635560e-01,3.071542041429981863e-03,2.220057094274901388e+00,2.220055724403940722e+00,-2.265887732822415360e-02,5.101736678444701405e-03,2.725963279612079159e-07,1.411507298138766612e-06,1.507947599011301298e-07,-4.516426292684599941e-02,-1.464393917714254201e+00,-2.043451134358541310e+00,-2.118944470082418263e+00,1.020803570747375488e+00,-1.679966274891988576e+00,-3.141593043004171193e+00,-4.522461071610450745e-02,5.195655976422131062e-04,-1.003019046038389206e-03,4.820339090656489134e-04,6.034778925823047757e-05,0.000000000000000000e+00
5.664820671081542969e-01,-1.015667052813663956e-01,-4.996511443389762830e-01,3.000002671413903310e-01,3.438064956861383321e-03,2.219891851891310441e+00,2.219889955753080457e+00,-2.479507910610898730e-02,5.596177212201440369e-03,3.013764960451234146e-07,1.528392203623134227e-06,1.627362459183898855e-07,-4.949553753340265455e-02,-1.464724365864888966e+00,-2.043447319661275685e+00,-2.118951622639791310e+00,1.020807147026062012e+00,-1.679966274891988576e+00,-3.141593043004171193e+00,-4.950239881873130798e-02,5.724091897718608379e-04,-1.105020521208643913e-03,5.310742999427020550e-04,6.861285328341182321e-06,0.000000000000000000e+00
5.747013092041015625e-01,-1.017506159301824337e-01,-4.996094525195041713e-01,3.000002118679516161e-01,3.845322909896267682e-03,2.219707560167575977e+00,2.219706453242809463e+00,-2.732920486100027038e-02,6.184075270701903417e-03,3.409635830180116571e-07,1.667721494060413964e-06,1.769164061427099749e-07,-5.463607127239775846e-02,-1.465091530476705373e+00,-2.043443028126851857e+00,-2.118960205708638966e+00,1.020811080932617188e+00,-1.679966274891988576e+00,-3.141593043004171193e+00,-5.457791686058044434e-02,6.352146156132221222e-04,-1.226233318448066711e-03,5.893416237086057663e-04,-5.815441181766800582e-05,0.000000000000000000e+00
5.830667018890380859e-01,-1.019561320711606656e-01,-4.995629564500806974e-01,3.000002457409960410e-01,4.301627138002184908e-03,2.219501511477328215e+00,2.219500141386869796e+00,-3.028416048196036839e-02,6.871844933264665417e-03,3.860196197639469090e-07,1.830573348225337851e-06,1.933783162251623026e-07,-6.063587675453123438e-02,-1.465502087269918263e+00,-2.043438259755269826e+00,-2.118969265614644826e+00,1.020815491676330566e+00,-1.679967228566304982e+00,-3.141593043004171193e+00,-6.049789115786552429e-02,7.087149424478411674e-04,-1.368090510368347168e-03,6.575348088517785072e-04,-1.379855966661125422e-04,0.000000000000000000e+00
5.918047428131103516e-01,-1.021871407502694118e-01,-4.995104829189022100e-01,3.000001599710401812e-01,4.814978626030716122e-03,2.219269229663862752e+00,2.219268385572075175e+00,-3.370292734327056533e-02,7.670792096424792691e-03,4.299211759360966634e-07,2.067135811569935930e-06,2.174100190166333204e-07,-6.758583606278945055e-02,-1.465963665639058888e+00,-2.043433014546529591e+00,-2.118979756032125294e+00,1.020820498466491699e+00,-1.679968659077779591e+00,-3.141593043004171193e+00,-6.734942644834518433e-02,7.941450458019971848e-04,-1.533015631139278412e-03,7.367920479737222195e-04,-2.364096144447103143e-04,0.000000000000000000e+00
6.008527278900146484e-01,-1.024474534686819066e-01,-4.994511193184998921e-01,3.000001754114505759e-01,5.393726442256317234e-03,2.219007495839592448e+00,2.219006651597827506e+00,-3.764762451818712968e-02,8.596958575106849326e-03,4.837313501974793041e-07,2.302697242886369945e-06,2.409376888619536077e-07,-7.561602338682810176e-02,-1.466483894978658498e+00,-2.043426815663472951e+00,-2.118991676961080373e+00,1.020826220512390137e+00,-1.679970566426412404e+00,-3.141593043004171193e+00,-7.525811344385147095e-02,8.932582568377256393e-04,-1.724333735182881355e-03,8.287602104246616364e-04,-3.579099429771304131e-04,0.000000000000000000e+00
6.093463897705078125e-01,-1.027419726251048715e-01,-4.993837777706405245e-01,3.000002811309113726e-01,6.049962197854407212e-03,2.218710909468397663e+00,2.218709276072765579e+00,-4.220057641615036770e-02,9.671610546966202121e-03,5.529893836330427413e-07,2.572074406927762411e-06,2.673680587415734685e-07,-8.489830797770925308e-02,-1.467072788869039357e+00,-2.043419663106099904e+00,-2.119005028401510060e+00,1.020832777023315430e+00,-1.679973904286519826e+00,-3.141593043004171193e+00,-8.439033478498458862e-02,1.008317572996020317e-03,-1.946407370269298553e-03,9.355038637295365334e-04,-5.079731927253305912e-04,0.000000000000000000e+00
6.174077987670898438e-01,-1.030761954033335565e-01,-4.993069141965837954e-01,3.000002792715413813e-01,6.795884351444375637e-03,2.218372932504819151e+00,2.218371824936088199e+00,-4.746723969364442103e-02,1.092213616507526144e-02,6.199307659433392058e-07,2.909915710786247218e-06,3.005985311696425907e-07,-9.565266990102759548e-02,-1.467741314564840138e+00,-2.043411556874410451e+00,-2.119020764027730763e+00,1.020840167999267578e+00,-1.679978672658101857e+00,-3.141593043004171193e+00,-9.495930373668670654e-02,1.142186461947858334e-03,-2.204838208854198456e-03,1.059726346284151077e-03,-6.933661643415689468e-04,0.000000000000000000e+00
6.255934238433837891e-01,-1.034567963672636953e-01,-4.992192026486496625e-01,3.000002359830460374e-01,7.645568486963739453e-03,2.217987934229062930e+00,2.217986826475453199e+00,-5.358089334005177590e-02,1.238345790375061130e-02,7.034353292122499934e-07,3.295097203378279121e-06,3.377832640959080908e-07,-1.081572367111213046e-01,-1.468502823506490529e+00,-2.043402496968404591e+00,-2.119038407002584279e+00,1.020848751068115234e+00,-1.679984394704000294e+00,-3.141593043004171193e+00,-1.072345599532127380e-01,1.298550050705671310e-03,-2.506673103198409081e-03,1.204810687340795994e-03,-9.226767579093575478e-04,0.000000000000000000e+00
6.343910694122314453e-01,-1.038914709133586106e-01,-4.991184685235481866e-01,3.000001851802976960e-01,8.618490730603571917e-03,2.217546494900147547e+00,2.217545912714462997e+00,-6.070536341991002172e-02,1.410280424221029352e-02,8.016890081475180162e-07,3.736986874025591403e-06,3.799923209014113524e-07,-1.228078851709134139e-01,-1.469373051320211232e+00,-2.043392006550924123e+00,-2.119058911000387013e+00,1.020858526229858398e+00,-1.679992977772847951e+00,-3.141593043004171193e+00,-1.215556859970092773e-01,1.484853215515613556e-03,-2.866299357265233994e-03,1.377689884975552559e-03,-1.252199173904955387e-03,0.000000000000000000e+00
6.424424648284912109e-01,-1.043902334647787422e-01,-4.990023426770516801e-01,3.000003149107677292e-01,9.736022474298203569e-03,2.217039712616571290e+00,2.217038078721996985e+00,-6.905578650030613774e-02,1.613433940713188824e-02,9.203828797011492582e-07,4.252892219064650018e-06,4.273079951622384265e-07,-1.400032128440202861e-01,-1.470372025166646779e+00,-2.043379608784810841e+00,-2.119082276021138966e+00,1.020869970321655273e+00,-1.680003945027486623e+00,-3.141593043004171193e+00,-1.383510529994964600e-01,1.704193768091499805e-03,-3.289683023467659950e-03,1.581214950419962406e-03,-1.652159844525158405e-03,0.000000000000000000e+00
6.510510444641113281e-01,-1.047274115835551411e-01,-4.989234260783362296e-01,3.000001922447311231e-01,1.049298308462811614e-02,2.216695354543674501e+00,2.216694771797702579e+00,-7.311430354485219663e-02,1.714396668131393589e-02,9.786882037952948286e-07,4.504124969525085935e-06,4.502859747237502113e-07,-1.483870489755635680e-01,-1.471047703419820607e+00,-2.043371502553121388e+00,-2.119098488484517873e+00,1.020877599716186523e+00,-1.680012528096334279e+00,-3.141593043004171193e+00,-1.465267837047576904e-01,1.811803202144801617e-03,-3.497395897284150124e-03,1.681066118180751801e-03,-1.860265270806849003e-03,0.000000000000000000e+00
6.591255664825439453e-01,-1.047274115835551411e-01,-4.989234260783362296e-01,3.000001922447311231e-01,1.049298308462811614e-02,2.216695354543674501e+00,2.216694771797702579e+00,0.000000000000000000e+00,0.000000000000000000e+00,0.000000000000000000e+00,0.000000000000000000e+00,0.000000000000000000e+00,0.000000000000000000e+00,-1.471047703419820607e+00,-2.043371502553121388e+00,-2.119098488484517873e+00,1.020877599716186523e+00,-1.680012528096334279e+00,-3.141593043004171193e+00,0.000000000000000000e+00,0.000000000000000000e+00,0.000000000000000000e+00,0.000000000000000000e+00,0.000000000000000000e+00,0.000000000000000000e+00
6.677916049957275391e-01,-1.047274115835551411e-01,-4.989234260783362296e-01,3.000001922447311231e-01,1.049298308462811614e-02,2.216695354543674501e+00,2.216694771797702579e+00,0.000000000000000000e+00,0.000000000000000000e+00,0.000000000000000000e+00,0.000000000000000000e+00,0.000000000000000000e+00,0.000000000000000000e+00,-1.471047703419820607e+00,-2.043371502553121388e+00,-2.119098488484517873e+00,1.020877599716186523e+00,-1.680012528096334279e+00,-3.141593043004171193e+00,0.000000000000000000e+00,0.000000000000000000e+00,0.000000000000000000e+00,0.000000000000000000e+00,0.000000000000000000e+00,0.000000000000000000e+00
6.765148639678955078e-01,-1.047274115835551411e-01,-4.989234260783362296e-01,3.000001922447311231e-01,1.049298308462811614e-02,2.216695354543674501e+00,2.216694771797702579e+00,0.000000000000000000e+00,0.000000000000000000e+00,0.000000000000000000e+00,0.000000000000000000e+00,0.000000000000000000e+00,0.000000000000000000e+00,-1.471047703419820607e+00,-2.043371502553121388e+00,-2.119098488484517873e+00,1.020877599716186523e+00,-1.680012528096334279e+00,-3.141593043004171193e+00,0.000000000000000000e+00,0.000000000000000000e+00,0.000000000000000000e+00,0.000000000000000000e+00,0.000000000000000000e+00,0.000000000000000000e+00
6.845750808715820312e-01,-1.047604449452099462e-01,-4.989155184815466937e-01,3.000001835973269970e-01,1.056788352255562391e-02,2.216661196021591618e+00,2.216660876062721997e+00,-8.433103220694010763e-03,1.992681473775062637e-03,1.194265267087412155e-07,5.187545388719241291e-07,5.182577073543551253e-08,-1.732745824847359284e-02,-1.471113983784810841e+00,-2.043370548878804982e+00,-2.119100395833150685e+00,1.020878434181213379e+00,-1.680013958607808888e+00,-3.141593043004171193e+00,-1.693199947476387024e-02,2.206358039984479547e-04,-4.258920380380004644e-04,2.047348971245810390e-04,-3.954587737098336220e-04,0.000000000000000000e+00
6.939847469329833984e-01,-1.048523409733498335e-01,-4.988939217732700770e-01,3.000002445063280621e-01,1.077666883317072999e-02,2.216566655263203067e+00,2.216565546831045896e+00,-1.617202529153525387e-02,3.827819314553554744e-03,2.330050806062953178e-07,9.952463106716038244e-07,9.895065457577898321e-08,-3.327825356973304616e-02,-1.471298519765035451e+00,-2.043368164693013966e+00,-2.119104687367574513e+00,1.020880699157714844e+00,-1.680018250142232716e+00,-3.141593043004171193e+00,-3.247883915901184082e-02,4.257718683220446110e-04,-8.218541042879223824e-04,3.950820828322321177e-04,-7.994144107215106487e-04,0.000000000000000000e+00
7.020998001098632812e-01,-1.050008976489805457e-01,-4.988587016912859884e-01,3.000001771379683380e-01,1.111572449175084361e-02,2.216412389778391390e+00,2.216411544060104433e+00,-2.363024938717383366e-02,5.613912866835372995e-03,3.437815567805932760e-07,1.483883296178885592e-06,1.471742871420115591e-07,-4.882141517009546544e-02,-1.471597019826070607e+00,-2.043364349995748341e+00,-2.119112316762105763e+00,1.020884394645690918e+00,-1.680026356373922169e+00,-3.141593043004171193e+00,-4.748936742544174194e-02,6.327340961433947086e-04,-1.221355865709483624e-03,5.871306057088077068e-04,-1.332047744654119015e-03,0.000000000000000000e+00
7.107694149017333984e-01,-1.052070170078604899e-01,-4.988095254611607521e-01,3.000002132375267916e-01,1.158757696128058512e-02,2.216197671667269553e+00,2.216197088595178499e+00,-3.115323773241696417e-02,7.432703259732067157e-03,4.635778314693475134e-07,1.955155942943235550e-06,1.932498395912755691e-07,-6.462909257970703147e-02,-1.472011391316549123e+00,-2.043358627949849904e+00,-2.119123284016744435e+00,1.020889520645141602e+00,-1.680038754140035451e+00,-3.141593043004171193e+00,-6.265292316675186157e-02,8.484350400976836681e-04,-1.637698267586529255e-03,7.872985443100333214e-04,-1.976169412955641747e-03,0.000000000000000000e+00
7.190029621124267578e-01,-1.054731585439079300e-01,-4.987458244521378314e-01,3.000000992067657912e-01,1.219955512915229731e-02,2.215918849987750683e+00,2.215919054958223722e+00,-3.904718379566993192e-02,9.356453651957009898e-03,5.863474175103374103e-07,2.454223700679411629e-06,2.421638565906864238e-07,-8.127997117116994574e-02,-1.472546879445211232e+00,-2.043351475392476857e+00,-2.119137589131490529e+00,1.020896315574645996e+00,-1.680056873952047169e+00,-3.141593043004171193e+00,-7.857841998338699341e-02,1.078021246939897537e-03,-2.080856123939156532e-03,1.000368734821677208e-03,-2.701551187783479691e-03,0.000000000000000000e+00
7.271804809570312500e-01,-1.058047827484324271e-01,-4.986661645747189620e-01,3.000002875952427206e-01,1.296354821054020688e-02,2.215571474923917261e+00,2.215570628733003034e+00,-4.760178415061856044e-02,1.146012406752950318e-02,7.186925326210072992e-07,3.001523674664393678e-06,2.924698976181711247e-07,-9.939545253291637295e-02,-1.473214451466695607e+00,-2.043341938649312794e+00,-2.119155232106344044e+00,1.020904898643493652e+00,-1.680080715809957326e+00,-3.141593043004171193e+00,-9.585350006818771362e-02,1.330406754277646542e-03,-2.568025840446352959e-03,1.234603347256779671e-03,-3.541952464729547501e-03,0.000000000000000000e+00
7.354898452758789062e-01,-1.062095953021566369e-01,-4.985684605196462060e-01,3.000003379039888896e-01,1.389852393668285398e-02,2.215145447901687437e+00,2.215144601472111230e+00,-5.711975074507440187e-02,1.382417448839758436e-02,8.700239654094062162e-07,3.616607783324252459e-06,3.493240132839579018e-07,-1.196307535283256673e-01,-1.474029843007222951e+00,-2.043330494557515919e+00,-2.119177166615621388e+00,1.020915389060974121e+00,-1.680111710225240529e+00,-3.141593043004171193e+00,-1.150938943028450012e-01,1.615190296433866024e-03,-3.117722924798727036e-03,1.498899189755320549e-03,-4.536859225481748581e-03,0.000000000000000000e+00
7.450113296508789062e-01,-1.066973842468278977e-01,-4.984500860419025514e-01,3.000003392503332589e-01,1.502844612488262767e-02,2.214630112594629718e+00,2.214629265877013253e+00,-6.793965805277318859e-02,1.654104292701818330e-02,1.039345273585490512e-06,4.323523979130714164e-06,4.131945187543307899e-07,-1.427248949185000726e-01,-1.475013081227437794e+00,-2.043316666279928029e+00,-2.119203869496480763e+00,1.020928263664245605e+00,-1.680151764546529591e+00,-3.141593043004171193e+00,-1.369901597499847412e-01,1.943366136401891708e-03,-3.751189913600683212e-03,1.803480554372072220e-03,-5.734735168516635895e-03,0.000000000000000000e+00
7.529911994934082031e-01,-1.072819708119722160e-01,-4.983073054829532667e-01,3.000002927610482262e-01,1.638620308033162179e-02,2.214010052079355528e+00,2.214009467581873558e+00,-7.966347762486239437e-02,1.952752786713130712e-02,1.224513545185316402e-06,5.100009397494051847e-06,4.820486686124126998e-07,-1.678761611692594358e-01,-1.476192299519674123e+00,-2.043299976979390919e+00,-2.119236294423238576e+00,1.020943880081176758e+00,-1.680202786122457326e+00,-3.141593043004171193e+00,-1.607501506805419922e-01,2.305181929841637611e-03,-4.449590109288692474e-03,2.139285439625382423e-03,-7.126010488718748093e-03,0.000000000000000000e+00
7.614390850067138672e-01,-1.079664362782642578e-01,-4.981387739828506134e-01,3.000003093822209976e-01,1.798085147186633675e-02,2.213280977988076881e+00,2.213280393017928560e+00,-9.147086023139104627e-02,2.260492286391709363e-02,1.418436175408898468e-06,5.909761918615077074e-06,5.502074653374672608e-07,-1.935376571491345399e-01,-1.477574173604146779e+00,-2.043279949818746388e+00,-2.119274918233053029e+00,1.020962476730346680e+00,-1.680266682301656544e+00,-3.141593043004171193e+00,-1.847501546144485474e-01,2.686651889234781265e-03,-5.185920745134353638e-03,2.493333537131547928e-03,-8.787502534687519073e-03,0.000000000000000000e+00
7.700166702270507812e-01,-1.083440929161178928e-01,-4.980452805029881302e-01,3.000002377188458191e-01,1.886241837211074385e-02,2.212877355910762844e+00,2.212877033140637106e+00,-9.250064868164954712e-02,2.295459742562955263e-02,1.439138466513331085e-06,5.998649286485362480e-06,5.549034911157392538e-07,-1.960499770939336805e-01,-1.478337113057271779e+00,-2.043268982564107716e+00,-2.119296375905172169e+00,1.020972847938537598e+00,-1.680303398762838185e+00,-3.141593043004171193e+00,-1.869126409292221069e-01,2.733517671003937721e-03,-5.276381503790616989e-03,2.536839572712779045e-03,-9.137336164712905884e-03,0.000000000000000000e+00
7.779874801635742188e-01,-1.083440929161178928e-01,-4.980452805029881302e-01,3.000002377188458191e-01,1.886241837211074385e-02,2.212877355910762844e+00,2.212877033140637106e+00,0.000000000000000000e+00,0.000000000000000000e+00,0.000000000000000000e+00,0.000000000000000000e+00,0.000000000000000000e+00,0.000000000000000000e+00,-1.478337113057271779e+00,-2.043268982564107716e+00,-2.119296375905172169e+00,1.020972847938537598e+00,-1.680303398762838185e+00,-3.141593043004171193e+00,0.000000000000000000e+00,0.000000000000000000e+00,0.000000000000000000e+00,0.000000000000000000e+00,0.000000000000000000e+00,0.000000000000000000e+00
7.864136695861816406e-01,-1.083440929161178928e-01,-4.980452805029881302e-01,3.000002377188458191e-01,1.886241837211074385e-02,2.212877355910762844e+00,2.212877033140637106e+00,0.000000000000000000e+00,0.000000000000000000e+00,0.000000000000000000e+00,0.000000000000000000e+00,0.000000000000000000e+00,0.000000000000000000e+00,-1.478337113057271779e+00,-2.043268982564107716e+00,-2.119296375905172169e+00,1.020972847938537598e+00,-1.680303398762838185e+00,-3.141593043004171193e+00,0.000000000000000000e+00,0.000000000000000000e+00,0.000000000000000000e+00,0.000000000000000000e+00,0.000000000000000000e+00,0.000000000000000000e+00
7.948353290557861328e-01,-1.083826026788763247e-01,-4.980353723057706627e-01,3.000002301964626028e-01,1.895547060048536486e-02,2.212834507829722241e+00,2.212834709942494982e+00,-9.774609172551733394e-03,2.482922926418104376e-03,1.766098337380653557e-07,6.469578427862442228e-07,6.009625783408369628e-08,-2.153261727653429936e-02,-1.478415314351217091e+00,-2.043267552052633107e+00,-2.119299236928121388e+00,1.020974040031433105e+00,-1.680309597645894826e+00,-3.141593043004171193e+00,-1.987200044095516205e-02,3.336531226523220539e-04,-6.440054858103394508e-04,3.097026201430708170e-04,-1.660616835579276085e-03,0.000000000000000000e+00
8.028810024261474609e-01,-1.084944201308752909e-01,-4.980070196741747668e-01,3.000002726136387632e-01,1.922766778794144510e-02,2.212710083258024429e+00,2.212709760364595990e+00,-1.938500795861046108e-02,4.939194623536785622e-03,3.449376233220314680e-07,1.330300561357772123e-06,1.224485943937839460e-07,-4.285630048252610930e-02,-1.478642765675679982e+00,-2.043263737355367482e+00,-2.119306389485494435e+00,1.020977616310119629e+00,-1.680329147969381154e+00,-3.141593043004171193e+00,-3.943488001823425293e-02,6.699684890918433666e-04,-1.293190289288759232e-03,6.218858761712908745e-04,-3.421420464292168617e-03,0.000000000000000000e+00
8.113632202148437500e-01,-1.086816377423395069e-01,-4.979590824450344511e-01,3.000002890553151169e-01,1.968482276664462391e-02,2.212500523996048685e+00,2.212500463374000859e+00,-2.923458853158927492e-02,7.477794768518036816e-03,5.268471032844528898e-07,1.976830119239613718e-06,1.818011532180683414e-07,-6.488702073693233818e-02,-1.479023758565084279e+00,-2.043257061635152638e+00,-2.119319264088765919e+00,1.020983695983886719e+00,-1.680363003407613576e+00,-3.141593043004171193e+00,-5.951508507132530212e-02,1.024115597829222679e-03,-1.976755214855074883e-03,9.506544447503983974e-04,-5.371935665607452393e-03,0.000000000000000000e+00
8.198537826538085938e-01,-1.089496933243705445e-01,-4.978903959711825644e-01,3.000003674826719480e-01,2.034199757791190638e-02,2.212199415228942367e+00,2.212199091959553776e+00,-3.970811446759935776e-02,1.020518658899319774e-02,7.186666802985716392e-07,2.686457805548288412e-06,2.446651648655040493e-07,-8.851489145308670536e-02,-1.479569737111226857e+00,-2.043247524891988576e+00,-2.119337383900777638e+00,1.020992398262023926e+00,-1.680413548146383107e+00,-3.141593043004171193e+00,-8.090398460626602173e-02,1.411403878591954708e-03,-2.724308753386139870e-03,1.310207298956811428e-03,-7.610906846821308136e-03,0.000000000000000000e+00
8.283264636993408203e-01,-1.091382608853101455e-01,-4.978419010357657548e-01,3.000003620598065135e-01,2.080574435377901751e-02,2.211986860367234353e+00,2.211986274564372579e+00,-4.451986831439638109e-02,1.146996502160356479e-02,8.064501117150838528e-07,3.012668919318746531e-06,2.721530127422790384e-07,-9.939670376479534109e-02,-1.479954067860738576e+00,-2.043240849171773732e+00,-2.119350258504049123e+00,1.020998716354370117e+00,-1.680450264607564748e+00,-3.141593043004171193e+00,-9.073933213949203491e-02,1.590547035448253155e-03,-3.070095553994178772e-03,1.476523582823574543e-03,-8.657371625304222107e-03,0.000000000000000000e+00
8.368239402770996094e-01,-1.091382608853101455e-01,-4.978419010357657548e-01,3.000003620598065135e-01,2.080574435377901751e-02,2.211986860367234353e+00,2.211986274564372579e+00,0.000000000000000000e+00,0.000000000000000000e+00,0.000000000000000000e+00,0.000000000000000000e+00,0.000000000000000000e+00,0.000000000000000000e+00,-1.479954067860738576e+00,-2.043240849171773732e+00,-2.119350258504049123e+00,1.020998716354370117e+00,-1.680450264607564748e+00,-3.141593043004171193e+00,0.000000000000000000e+00,0.000000000000000000e+00,0.000000000000000000e+00,0.000000000000000000e+00,0.000000000000000000e+00,0.000000000000000000e+00
8.446700572967529297e-01,-1.091382608853101455e-01,-4.978419010357657548e-01,3.000003620598065135e-01,2.080574435377901751e-02,2.211986860367234353e+00,2.211986274564372579e+00,0.000000000000000000e+00,0.000000000000000000e+00,0.000000000000000000e+00,0.000000000000000000e+00,0.000000000000000000e+00,0.000000000000000000e+00,-1.479954067860738576e+00,-2.043240849171773732e+00,-2.119350258504049123e+00,1.020998716354370117e+00,-1.680450264607564748e+00,-3.141593043004171193e+00,0.000000000000000000e+00,0.000000000000000000e+00,0.000000000000000000e+00,0.000000000000000000e+00,0.000000000000000000e+00,0.000000000000000000e+00
8.534817695617675781e-01,-1.091762085961382467e-01,-4.978319756446364930e-01,3.000003436080495578e-01,2.090185991985018393e-02,2.211942651487170508e+00,2.211942328029024019e+00,-9.695682650809023598e-03,2.550335998928944699e-03,1.983384975674113723e-07,6.811863906659339227e-07,6.163592817788323233e-08,-2.239187899976952112e-02,-1.480031792317525685e+00,-2.043239418660299123e+00,-2.119353119526998341e+00,1.021000027656555176e+00,-1.680459801350728810e+00,-3.141593043004171193e+00,-1.987200044095516205e-02,3.872974193654954433e-04,-7.475438760593533516e-04,3.595624875742942095e-04,-2.519878558814525604e-03,0.000000000000000000e+00
8.617517948150634766e-01,-1.092870686042831802e-01,-4.978027825751418778e-01,3.000002664018573961e-01,2.118543167849466433e-02,2.211812431345959951e+00,2.211812370152762330e+00,-1.922141743538352196e-02,5.077670069571982130e-03,4.084063176545172041e-07,1.337362072942444808e-06,1.212881027514137470e-07,-4.464113526046248337e-02,-1.480259243641988576e+00,-2.043235127125875294e+00,-2.119361702595845998e+00,1.021004199981689453e+00,-1.680489842091695607e+00,-3.141593043004171193e+00,-3.943488001823425293e-02,7.814180571585893631e-04,-1.508217654190957546e-03,7.254567462950944901e-04,-5.206255242228507996e-03,0.000000000000000000e+00
8.701694011688232422e-01,-1.093977070622993708e-01,-4.977733582679250701e-01,3.000003219907427798e-01,2.146844541958029678e-02,2.211682434074401016e+00,2.211682635121383189e+00,-2.477536779960306385e-02,6.555729086523786123e-03,5.303257624867113689e-07,1.719925124613148003e-06,1.563986923936542650e-07,-5.761542636901102049e-02,-1.480486218129293263e+00,-2.043230358754293263e+00,-2.119370762501851857e+00,1.021008372306823730e+00,-1.680519882832662404e+00,-3.141593043004171193e+00,-5.084351822733879089e-02,1.011199201457202435e-03,-1.951707410626113415e-03,9.387811878696084023e-04,-6.771908141672611237e-03,0.000000000000000000e+00
8.782444000244140625e-01,-1.093977070622993708e-01,-4.977733582679250701e-01,3.000003219907427798e-01,2.146844541958029678e-02,2.211682434074401016e+00,2.211682635121383189e+00,0.000000000000000000e+00,0.000000000000000000e+00,0.000000000000000000e+00,0.000000000000000000e+00,0.000000000000000000e+00,0.000000000000000000e+00,-1.480486218129293263e+00,-2.043230358754293263e+00,-2.119370762501851857e+00,1.021008372306823730e+00,-1.680519882832662404e+00,-3.141593043004171193e+00,0.000000000000000000e+00,0.000000000000000000e+00,0.000000000000000000e+00,0.000000000000000000e+00,0.000000000000000000e+00,0.000000000000000000e+00
8.871188163757324219e-01,-1.093977070622993708e-01,-4.977733582679250701e-01,3.000003219907427798e-01,2.146844541958029678e-02,2.211682434074401016e+00,2.211682635121383189e+00,0.000000000000000000e+00,0.000000000000000000e+00,0.000000000000000000e+00,0.000000000000000000e+00,0.000000000000000000e+00,0.000000000000000000e+00,-1.480486218129293263e+00,-2.043230358754293263e+00,-2.119370762501851857e+00,1.021008372306823730e+00,-1.680519882832662404e+00,-3.141593043004171193e+00,0.000000000000000000e+00,0.000000000000000000e+00,0.000000000000000000e+00,0.000000000000000000e+00,0.000000000000000000e+00,0.000000000000000000e+00
8.951838016510009766e-01,-1.094320205419656578e-01,-4.977641222392183984e-01,3.000002816876998768e-01,2.156083341724226651e-02,2.211640148277771889e+00,2.211640086941759176e+00,-8.768180780615067796e-03,2.399897864247955547e-03,2.217343964771388201e-07,6.735992632970707301e-07,6.086979246160889686e-08,-2.153325919061884960e-02,-1.480557266865865529e+00,-2.043228928242818654e+00,-2.119373623524801076e+00,1.021009922027587891e+00,-1.680532757435933888e+00,-3.141593043004171193e+00,-1.816320046782493591e-02,4.206138837616890669e-04,-8.118065888993442059e-04,3.905163612216711044e-04,-3.370058722794055939e-03,0.000000000000000000e+00
9.037902355194091797e-01,-1.095293598760048864e-01,-4.977371829368558154e-01,3.000002056099168590e-01,2.182806864143386344e-02,2.211517232111843256e+00,2.211517695337391842e+00,-1.700774911355089000e-02,4.715453349443376671e-03,4.422967555235362594e-07,1.340228379871135720e-06,1.225559614786119367e-07,-4.259044677019074854e-02,-1.480759445820943654e+00,-2.043224159871236623e+00,-2.119383160267965138e+00,1.021014451980590820e+00,-1.680573288594381154e+00,-3.141593043004171193e+00,-3.535487875342369080e-02,8.608845528215169907e-04,-1.661577261984348297e-03,7.993468898348510265e-04,-7.235568016767501831e-03,0.000000000000000000e+00
9.122660160064697266e-01,-1.096889667832913196e-01,-4.976926946760046322e-01,3.000004133938866113e-01,2.227207414164970173e-02,2.211313817363011580e+00,2.211313231133855250e+00,-2.513717929731028658e-02,7.043114366058627479e-03,6.905080771672515983e-07,1.943661839724649686e-06,1.717975200299994652e-07,-6.389341689646164946e-02,-1.481091801320211232e+00,-2.043215576802388966e+00,-2.119398895894185841e+00,1.021022081375122070e+00,-1.680644337330953419e+00,-3.141593043004171193e+00,-5.239848792552947998e-02,1.324071781709790230e-03,-2.555489540100097656e-03,1.229466521181166172e-03,-1.149492897093296051e-02,0.000000000000000000e+00
9.208385944366455078e-01,-1.099125617255252291e-01,-4.976296322676189710e-01,3.000003329876143043e-01,2.290288107203950971e-02,2.211023766014355019e+00,2.211023704168104231e+00,-3.348858009632792176e-02,9.489225794538338338e-03,9.358452281727235240e-07,2.682238888362418669e-06,2.396010200836773747e-07,-8.643100410699788849e-02,-1.481558624898092091e+00,-2.043203655873433888e+00,-2.119422260914937794e+00,1.021033287048339844e+00,-1.680750672017232716e+00,-3.141593043004171193e+00,-7.000978291034698486e-02,1.835422008298337460e-03,-3.542467020452022552e-03,1.704352092929184437e-03,-1.642122119665145874e-02,0.000000000000000000e+00
9.287021160125732422e-01,-1.100933548375271770e-01,-4.975781665407089105e-01,3.000002917442866068e-01,2.341759142502219254e-02,2.210786931153529533e+00,2.210787393629292552e+00,-3.843458315206564613e-02,1.094456942469306145e-02,1.079642969688612079e-06,3.118153102159295539e-06,2.819722188956354615e-07,-9.976728074252495804e-02,-1.481936756764547169e+00,-2.043193642293111623e+00,-2.119441811238424123e+00,1.021042585372924805e+00,-1.680840317402974904e+00,-3.141593043004171193e+00,-8.044262230396270752e-02,2.137415343895554543e-03,-4.125355277210474014e-03,1.984809059649705887e-03,-1.932465843856334686e-02,0.000000000000000000e+00
9.375004768371582031e-01,-1.100933548375271770e-01,-4.975781665407089105e-01,3.000002917442866068e-01,2.341759142502219254e-02,2.210786931153529533e+00,2.210787393629292552e+00,0.000000000000000000e+00,0.000000000000000000e+00,0.000000000000000000e+00,0.000000000000000000e+00,0.000000000000000000e+00,0.000000000000000000e+00,-1.481936756764547169e+00,-2.043193642293111623e+00,-2.119441811238424123e+00,1.021042585372924805e+00,-1.680840317402974904e+00,-3.141593043004171193e+00,0.000000000000000000e+00,0.000000000000000000e+00,0.000000000000000000e+00,0.000000000000000000e+00,0.000000000000000000e+00,0.000000000000000000e+00
9.459722042083740234e-01,-1.100933548375271770e-01,-4.975781665407089105e-01,3.000002917442866068e-01,2.341759142502219254e-02,2.210786931153529533e+00,2.210787393629292552e+00,0.000000000000000000e+00,0.000000000000000000e+00,0.000000000000000000e+00,0.000000000000000000e+00,0.000000000000000000e+00,0.000000000000000000e+00,-1.481936756764547169e+00,-2.043193642293111623e+00,-2.119441811238424123e+00,1.021042585372924805e+00,-1.680840317402974904e+00,-3.141593043004171193e+00,0.000000000000000000e+00,0.000000000000000000e+00,0.000000000000000000e+00,0.000000000000000000e+00,0.000000000000000000e+00,0.000000000000000000e+00
9.545037746429443359e-01,-1.101262525397599806e-01,-4.975678515267118462e-01,3.000004635163139310e-01,2.352768858414127848e-02,2.210736904849042173e+00,2.210736056004806382e+00,-8.415452758754172688e-03,2.653948873259713830e-03,3.500292312997335484e-07,7.507221484496428324e-07,6.399989712136134637e-08,-2.555595617741277317e-02,-1.482007805501119435e+00,-2.043190781270162404e+00,-2.119446579610006154e+00,1.021045088768005371e+00,-1.680869404469625294e+00,-3.141593043004171193e+00,-1.816320046782493591e-02,6.717832875438034534e-04,-1.296479022130370140e-03,6.239422946237027645e-04,-7.392755709588527679e-03,0.000000000000000000e+00
9.628753662109375000e-01,-1.102195407094647278e-01,-4.975379534736625864e-01,3.000003505006565985e-01,2.384561180971400685e-02,2.210590219187106520e+00,2.210590419220800129e+00,-1.627934930916662484e-02,5.238329396121339625e-03,6.959088519703678300e-07,1.548730991204479438e-06,1.390446577364964300e-07,-5.090018827468117957e-02,-1.482209984456197560e+00,-2.043183151875631154e+00,-2.119461838399068654e+00,1.021052241325378418e+00,-1.680956188832418263e+00,-3.141593043004171193e+00,-3.535487875342369080e-02,1.379720983095467091e-03,-2.662808401510119438e-03,1.281532458961009979e-03,-1.554530952125787735e-02,0.000000000000000000e+00
9.710919857025146484e-01,-1.103717848908928462e-01,-4.974883200432180796e-01,3.000003504701120871e-01,2.438158356595306053e-02,2.210343757296302947e+00,2.210343694888495580e+00,-2.393066099535428107e-02,7.904530453813240348e-03,1.117454876375938312e-06,2.366378794264596427e-06,2.087812564780010184e-07,-7.766727730631778348e-02,-1.482542339955465138e+00,-2.043169800435201466e+00,-2.119487587605611623e+00,1.021064758300781250e+00,-1.681111160908834279e+00,-3.141593043004171193e+00,-5.239848792552947998e-02,2.184074372053146362e-03,-4.215088207274675369e-03,2.028638264164328575e-03,-2.526878938078880310e-02,0.000000000000000000e+00
9.793887138366699219e-01,-1.105822462614677038e-01,-4.974159069325829741e-01,3.000003483048566122e-01,2.517696526485819347e-02,2.209977492557475998e+00,2.209977692020160145e+00,-3.127296353808504265e-02,1.105452857128586507e-02,1.766429868790383457e-06,3.329991863987269109e-06,2.970824927998417748e-07,-1.117809228599062621e-01,-1.483009163533345998e+00,-2.043148342763082326e+00,-2.119529072438375294e+00,1.021084666252136230e+00,-1.681367699299947560e+00,-3.141593043004171193e+00,-7.000978291034698486e-02,3.418251872062683105e-03,-6.596748251467943192e-03,3.175153164193034172e-03,-4.177113994956016541e-02,0.000000000000000000e+00
9.880201816558837891e-01,-1.108440266574896582e-01,-4.973192141818166823e-01,3.000004047478894154e-01,2.626866613701900333e-02,2.209474512788192957e+00,2.209474711781385103e+00,-3.683034860426616375e-02,1.405930010023476173e-02,2.392389521410923377e-06,4.484397951854461088e-06,3.979116445132765308e-07,-1.464163698256003565e-01,-1.483603779469625294e+00,-2.043116394673482716e+00,-2.119590584431783498e+00,1.021114230155944824e+00,-1.681766335164205373e+00,-3.141593043004171193e+00,-8.465847373008728027e-02,4.835534840822219849e-03,-9.332127869129180908e-03,4.492091014981269836e-03,-6.175789609551429749e-02,0.000000000000000000e+00
9.965431690216064453e-01,-1.111368118334517263e-01,-4.972016021859324009e-01,3.000003782337822278e-01,2.764058940048865626e-02,2.208841725182229876e+00,2.208841923584124345e+00,-3.860346162528648789e-02,1.624973996324453884e-02,3.041775407018867321e-06,5.394241010269285603e-06,4.757606487331628551e-07,-1.750637143850311550e-01,-1.484289471303121388e+00,-2.043073479329244435e+00,-2.119673554097310841e+00,1.021154284477233887e+00,-1.682329479848043263e+00,-3.141593043004171193e+00,-9.196177870035171509e-02,6.252593826502561569e-03,-1.206685788929462433e-02,5.808848887681961060e-03,-8.310193568468093872e-02,0.000000000000000000e+00
1.004908084869384766e+00,-1.114261991781455990e-01,-4.970699247161882717e-01,3.000005122468342722e-01,2.923675993384437788e-02,2.208104760434703717e+00,2.208104434227410984e+00,-3.522567264095949335e-02,1.734377732906737871e-02,3.649521454495568549e-06,6.002944450303536626e-06,5.009887355236464140e-07,-1.959345489740348389e-01,-1.484999958668844044e+00,-2.043018643056051076e+00,-2.119778935109273732e+00,1.021205067634582520e+00,-1.683072868977681935e+00,-3.141593043004171193e+00,-8.931261301040649414e-02,7.690256461501121521e-03,-1.484133116900920868e-02,7.145050913095474243e-03,-1.066219359636306763e-01,0.000000000000000000e+00
1.014587879180908203e+00,-1.116586703324301960e-01,-4.969354991406559896e-01,3.000003553986960725e-01,3.097162283329686280e-02,2.207301586232331303e+00,2.207302830644726654e+00,-2.286946701466441301e-02,1.624191664806169666e-02,4.159268225593463861e-06,5.981685757976096784e-06,5.856732758589926268e-07,-1.993384435772669883e-01,-1.485632244740621388e+00,-2.042952362691060841e+00,-2.119907681141988576e+00,1.021266818046569824e+00,-1.684021774922506154e+00,-3.141593043004171193e+00,-6.871650367975234985e-02,8.950415067374706268e-03,-1.727304793894290924e-02,8.316623046994209290e-03,-1.306219398975372314e-01,0.000000000000000000e+00
1.022707462310791016e+00,-1.117898189822932042e-01,-4.968148812742437803e-01,3.000005227088081150e-01,3.266279694173269271e-02,2.206518486750621566e+00,2.206518944737967836e+00,-9.955493592807847236e-03,1.392681973020922642e-02,4.214911277296577801e-06,5.980135687078092306e-06,5.382918402401982569e-07,-1.863323114812329429e-01,-1.486085716878072560e+00,-2.042878929768697560e+00,-2.120048824940816701e+00,1.021334886550903320e+00,-1.685110870991842091e+00,-3.141593043004171193e+00,-4.471650347113609314e-02,9.359021671116352081e-03,-1.806167513132095337e-02,8.696649223566055298e-03,-1.416158080101013184e-01,0.000000000000000000e+00
1.031298398971557617e+00,-1.118194814969431378e-01,-4.967138549498522071e-01,3.000005512553464149e-01,3.421862447338929608e-02,2.205796560223165947e+00,2.205797279104952047e+00,2.541784782507135534e-03,1.132279859452319133e-02,4.249238285071867970e-06,5.548081722120189588e-06,5.191895073097171644e-07,-1.686201114207412644e-01,-1.486347500477926076e+00,-2.042803589497701466e+00,-2.120194260274068654e+00,1.021404862403869629e+00,-1.686269108449117482e+00,-3.141593043004171193e+00,-2.071650512516498566e-02,9.473945014178752899e-03,-1.828307099640369415e-02,8.803553879261016846e-03,-1.479036062955856323e-01,0.000000000000000000e+00
1.039963245391845703e+00,-1.117497569791310735e-01,-4.966340751073162196e-01,3.000005583719345115e-01,3.561006895303430592e-02,2.205150161372140261e+00,2.205150879463195324e+00,1.488264038272444842e-02,8.616013476090150433e-03,4.093293577127099140e-06,4.967983798339858848e-06,4.712640478897772628e-07,-1.491833531763309406e-01,-1.486417118703023732e+00,-2.042727772389547169e+00,-2.120340649281637013e+00,1.021475434303283691e+00,-1.687470261250631154e+00,-3.141593043004171193e+00,3.283495316281914711e-03,9.481001645326614380e-03,-1.829674653708934784e-02,8.810754865407943726e-03,-1.524668484926223755e-01,0.000000000000000000e+00
1.048506975173950195e+00,-1.115817035668302121e-01,-4.965761445632064786e-01,3.000006854200432671e-01,3.682800839441686264e-02,2.204583938863726278e+00,2.204584133251604960e+00,2.715256652697195516e-02,5.871533899801363587e-03,4.068748269137903080e-06,4.330643993108329067e-06,3.817737993383240438e-07,-1.289880666881783600e-01,-1.486295048390523732e+00,-2.042651955281392873e+00,-2.120486561452047169e+00,1.021545767784118652e+00,-1.688705269490377248e+00,-3.141593043004171193e+00,2.728349529206752777e-02,9.440968744456768036e-03,-1.821902394294738770e-02,8.773707784712314606e-03,-1.562715619802474976e-01,0.000000000000000000e+00
1.056707859039306641e+00,-1.114608725620662433e-01,-4.965553355872320829e-01,3.000006438669084452e-01,3.737054742644983080e-02,2.204331169061136908e+00,2.204331886125877826e+00,3.162184166965097826e-02,4.279082312453044365e-03,3.855291350612437353e-06,3.807939222713322206e-06,3.733894494013604708e-07,-1.129458956420330007e-01,-1.486162010823385060e+00,-2.042614285145894826e+00,-2.120559517537252248e+00,1.021580815315246582e+00,-1.689334217702047169e+00,-3.141593043004171193e+00,3.731932118535041809e-02,8.949904702603816986e-03,-1.727115549147129059e-02,8.317424915730953217e-03,-1.502652168273925781e-01,0.000000000000000000e+00
1.065026760101318359e+00,-1.114608725620662433e-01,-4.965553355872320829e-01,3.000006438669084452e-01,3.737054742644983080e-02,2.204331169061136908e+00,2.204331886125877826e+00,0.000000000000000000e+00,0.000000000000000000e+00,0.000000000000000000e+00,0.000000000000000000e+00,0.000000000000000000e+00,0.000000000000000000e+00,-1.486162010823385060e+00,-2.042614285145894826e+00,-2.120559517537252248e+00,1.021580815315246582e+00,-1.689334217702047169e+00,-3.141593043004171193e+00,0.000000000000000000e+00,0.000000000000000000e+00,0.000000000000000000e+00,0.000000000000000000e+00,0.000000000000000000e+00,0.000000000000000000e+00
1.073900938034057617e+00,-1.114608725620662433e-01,-4.965553355872320829e-01,3.000006438669084452e-01,3.737054742644983080e-02,2.204331169061136908e+00,2.204331886125877826e+00,0.000000000000000000e+00,0.000000000000000000e+00,0.000000000000000000e+00,0.000000000000000000e+00,0.000000000000000000e+00,0.000000000000000000e+00,-1.486162010823385060e+00,-2.042614285145894826e+00,-2.120559517537252248e+00,1.021580815315246582e+00,-1.689334217702047169e+00,-3.141593043004171193e+00,0.000000000000000000e+00,0.000000000000000000e+00,0.000000000000000000e+00,0.000000000000000000e+00,0.000000000000000000e+00,0.000000000000000000e+00
1.082381248474121094e+00,-1.114213686008273946e-01,-4.965589842670449783e-01,3.000005653101655012e-01,3.738358711081158497e-02,2.204325098062940747e+00,2.204325815115308007e+00,1.010406828826815318e-02,-8.973299691999600753e-04,4.486984926757181218e-07,1.143348716693458759e-07,1.636410478526595831e-08,-3.033507615326704043e-03,-1.486096207295553029e+00,-2.042610470448629201e+00,-2.120567146931783498e+00,1.021584630012512207e+00,-1.689411942158834279e+00,-3.141593043004171193e+00,1.683849282562732697e-02,1.045834040269255638e-03,-2.018110360950231552e-03,9.721610113047063351e-04,-1.987200044095516205e-02,0.000000000000000000e+00
1.090914726257324219e+00,-1.113510065396351167e-01,-4.965650914447484188e-01,3.000006931002030530e-01,3.740653678488362749e-02,2.204314413013457763e+00,2.204315130043919435e+00,1.629094612105028497e-02,-1.444943790162472961e-03,7.215516648865362348e-07,1.842249646007283380e-07,2.639589788551191747e-08,-4.890980198977556287e-03,-1.485978905354635060e+00,-2.042602841054097951e+00,-2.120581452046529591e+00,1.021591305732727051e+00,-1.689550224934713185e+00,-3.141593043004171193e+00,2.714901976287364960e-02,1.686217961832880974e-03,-3.253837348893284798e-03,1.567433588206768036e-03,-3.203999996185302734e-02,0.000000000000000000e+00
1.099555253982543945e+00,-1.113510065396351167e-01,-4.965650914447484188e-01,3.000006931002030530e-01,3.740653678488362749e-02,2.204314413013457763e+00,2.204315130043919435e+00,0.000000000000000000e+00,0.000000000000000000e+00,0.000000000000000000e+00,0.000000000000000000e+00,0.000000000000000000e+00,0.000000000000000000e+00,-1.485978905354635060e+00,-2.042602841054097951e+00,-2.120581452046529591e+00,1.021591305732727051e+00,-1.689550224934713185e+00,-3.141593043004171193e+00,0.000000000000000000e+00,0.000000000000000000e+00,0.000000000000000000e+00,0.000000000000000000e+00,0.000000000000000000e+00,0.000000000000000000e+00
1.107906579971313477e+00,-1.113510065396351167e-01,-4.965650914447484188e-01,3.000006931002030530e-01,3.740653678488362749e-02,2.204314413013457763e+00,2.204315130043919435e+00,0.000000000000000000e+00,0.000000000000000000e+00,0.000000000000000000e+00,0.000000000000000000e+00,0.000000000000000000e+00,0.000000000000000000e+00,-1.485978905354635060e+00,-2.042602841054097951e+00,-2.120581452046529591e+00,1.021591305732727051e+00,-1.689550224934713185e+00,-3.141593043004171193e+00,0.000000000000000000e+00,0.000000000000000000e+00,0.000000000000000000e+00,0.000000000000000000e+00,0.000000000000000000e+00,0.000000000000000000e+00
1.116106510162353516e+00,-1.113140814927481015e-01,-4.965712733744111484e-01,3.000006636398931392e-01,3.737315545662368149e-02,2.204329954912158218e+00,2.204330671956666432e+00,9.448897272514156578e-03,-1.570731217920118272e-03,1.621812848609128388e-07,-2.397420578289365634e-07,-1.722728151536484819e-08,7.867678068578718570e-03,-1.485911194478170216e+00,-2.042601410542623341e+00,-2.120584313069478810e+00,1.021592736244201660e+00,-1.689587418233053029e+00,-3.141593043004171193e+00,1.733759976923465729e-02,3.906103374902158976e-04,-7.536770426668226719e-04,3.633070446085184813e-04,-9.469921700656414032e-03,0.000000000000000000e+00
1.124695062637329102e+00,-1.112106226037193057e-01,-4.965888300554280876e-01,3.000005850784891459e-01,3.727561674231327782e-02,2.204375364958660821e+00,2.204376082044767315e+00,1.814785746165150510e-02,-3.069341598680502478e-03,2.865298307889122240e-07,-4.853521136737544414e-07,-3.553276463042466148e-08,1.593119464814750710e-02,-1.485720936452047169e+00,-2.042597595845357716e+00,-2.120591942464010060e+00,1.021596550941467285e+00,-1.689688507710592091e+00,-3.141593043004171193e+00,3.342028707265853882e-02,7.051631109789013863e-04,-1.360606052912771702e-03,6.559295579791069031e-04,-1.748909242451190948e-02,0.000000000000000000e+00
1.133041381835937500e+00,-1.110838553309691917e-01,-4.966102128003225813e-01,3.000007401300879284e-01,3.715248712648200335e-02,2.204432920360374304e+00,2.204433114587716958e+00,2.459778794649079142e-02,-4.172624510790310867e-03,3.794165803451327598e-07,-6.655206400596224757e-07,-5.466641507699801920e-08,2.186292409896847810e-02,-1.485487286244527638e+00,-2.042592350636617482e+00,-2.120601479207174123e+00,1.021601080894470215e+00,-1.689809624348775685e+00,-3.141593043004171193e+00,4.533696174621582031e-02,9.409222402609884739e-04,-1.815502648241817951e-03,8.752481662668287754e-04,-2.347403764724731445e-02,0.000000000000000000e+00
1.141691923141479492e+00,-1.110838553309691917e-01,-4.966102128003225813e-01,3.000007401300879284e-01,3.715248712648200335e-02,2.204432920360374304e+00,2.204433114587716958e+00,0.000000000000000000e+00,0.000000000000000000e+00,0.000000000000000000e+00,0.000000000000000000e+00,0.000000000000000000e+00,0.000000000000000000e+00,-1.485487286244527638e+00,-2.042592350636617482e+00,-2.120601479207174123e+00,1.021601080894470215e+00,-1.689809624348775685e+00,-3.141593043004171193e+00,0.000000000000000000e+00,0.000000000000000000e+00,0.000000000000000000e+00,0.000000000000000000e+00,0.000000000000000000e+00,0.000000000000000000e+00
1.150311470031738281e+00,-1.110838553309691917e-01,-4.966102128003225813e-01,3.000007401300879284e-01,3.715248712648200335e-02,2.204432920360374304e+00,2.204433114587716958e+00,0.000000000000000000e+00,0.000000000000000000e+00,0.000000000000000000e+00,0.000000000000000000e+00,0.000000000000000000e+00,0.000000000000000000e+00,-1.485487286244527638e+00,-2.042592350636617482e+00,-2.120601479207174123e+00,1.021601080894470215e+00,-1.689809624348775685e+00,-3.141593043004171193e+00,0.000000000000000000e+00,0.000000000000000000e+00,0.000000000000000000e+00,0.000000000000000000e+00,0.000000000000000000e+00,0.000000000000000000e+00
1.158374071121215820e+00,-1.110510986086613722e-01,-4.966162357431873620e-01,3.000004999747753476e-01,3.711238845882084553e-02,2.204450993071374043e+00,2.204452494599354662e+00,8.377722075635559221e-03,-1.560209258274855614e-03,8.461440137810689633e-08,-2.868821435364320306e-07,-2.020756051447074914e-08,9.484897833318954585e-03,-1.485425774251119435e+00,-2.042591873799459279e+00,-2.120603386555806935e+00,1.021601915359497070e+00,-1.689834419881002248e+00,-3.141593043004171193e+00,1.574400067329406738e-02,2.085888409055769444e-04,-4.024263471364974976e-04,1.941250666277483106e-04,-6.259102839976549149e-03,0.000000000000000000e+00
1.166851520538330078e+00,-1.109619852144748259e-01,-4.966330216132430753e-01,3.000006921197168053e-01,3.699913516860367513e-02,2.204504180331013252e+00,2.204504636080918623e+00,1.578241481125643164e-02,-2.981356576658012250e-03,1.455341020995873420e-07,-5.582612737114061736e-07,-4.545076568109751439e-08,1.852445211261525421e-02,-1.485257927571431935e+00,-2.042589489613668263e+00,-2.120607201253072560e+00,1.021603822708129883e+00,-1.689898792897359669e+00,-3.141593043004171193e+00,2.975616045296192169e-02,3.568894462659955025e-04,-6.885157781653106213e-04,3.321864351164549589e-04,-1.123170834034681320e-02,0.000000000000000000e+00
1.175402879714965820e+00,-1.108361049820269922e-01,-4.966569711155940925e-01,3.000005223928622899e-01,3.683639642740164921e-02,2.204579680272523490e+00,2.204580659021543987e+00,2.221255301476803001e-02,-4.206422093921804821e-03,1.998920084845041992e-07,-7.925381362050109738e-07,-6.105165743895232183e-08,2.630489692092085469e-02,-1.485020462666646779e+00,-2.042587105427877248e+00,-2.120612446461812794e+00,1.021606445312500000e+00,-1.689987484608785451e+00,-3.141593043004171193e+00,4.191264137625694275e-02,4.894199082627892494e-04,-9.441858856007456779e-04,4.555608320515602827e-04,-1.560774445533752441e-02,0.000000000000000000e+00
1.184188127517700195e+00,-1.108361049820269922e-01,-4.966569711155940925e-01,3.000005223928622899e-01,3.683639642740164921e-02,2.204579680272523490e+00,2.204580659021543987e+00,0.000000000000000000e+00,0.000000000000000000e+00,0.000000000000000000e+00,0.000000000000000000e+00,0.000000000000000000e+00,0.000000000000000000e+00,-1.485020462666646779e+00,-2.042587105427877248e+00,-2.120612446461812794e+00,1.021606445312500000e+00,-1.689987484608785451e+00,-3.141593043004171193e+00,0.000000000000000000e+00,0.000000000000000000e+00,0.000000000000000000e+00,0.000000000000000000e+00,0.000000000000000000e+00,0.000000000000000000e+00
1.192227363586425781e+00,-1.108361049820269922e-01,-4.966569711155940925e-01,3.000005223928622899e-01,3.683639642740164921e-02,2.204579680272523490e+00,2.204580659021543987e+00,0.000000000000000000e+00,0.000000000000000000e+00,0.000000000000000000e+00,0.000000000000000000e+00,0.000000000000000000e+00,0.000000000000000000e+00,-1.485020462666646779e+00,-2.042587105427877248e+00,-2.120612446461812794e+00,1.021606445312500000e+00,-1.689987484608785451e+00,-3.141593043004171193e+00,0.000000000000000000e+00,0.000000000000000000e+00,0.000000000000000000e+00,0.000000000000000000e+00,0.000000000000000000e+00,0.000000000000000000e+00
1.200948953628540039e+00,-1.108070923892846005e-01,-4.966626766956813155e-01,3.000005234852797242e-01,3.679467339084248334e-02,2.204598977501381896e+00,2.204600217736658152e+00,7.465409496088037944e-03,-1.478254319069583064e-03,5.344533974665514770e-08,-3.105547725127602726e-07,-2.417238721980356149e-08,9.789630770683949504e-03,-1.484965149556295216e+00,-2.042586628590719044e+00,-2.120613400136129201e+00,1.021606802940368652e+00,-1.690004650746480763e+00,-3.141593043004171193e+00,1.422720029950141907e-02,1.124265618273057044e-04,-2.168278879253193736e-04,1.047128098434768617e-04,-4.437569528818130493e-03,0.000000000000000000e+00
1.209496259689331055e+00,-1.107300822295536474e-01,-4.966778294721559961e-01,3.000006255592844173e-01,3.668353266498813187e-02,2.204650811339537331e+00,2.204651790165443881e+00,1.381817761981378109e-02,-2.745299970328730216e-03,9.028683559385084549e-08,-5.782543033646830193e-07,-4.616944546643648103e-08,1.828460115939449515e-02,-1.484818283711568654e+00,-2.042585198079244435e+00,-2.120615784321920216e+00,1.021607875823974609e+00,-1.690049950276510060e+00,-3.141593043004171193e+00,2.635776065289974213e-02,1.990357850445434451e-04,-3.838695120066404343e-04,1.854138099588453770e-04,-8.073159493505954742e-03,0.000000000000000000e+00
1.217962980270385742e+00,-1.106094014250506991e-01,-4.967020447203516209e-01,3.000005851837214688e-01,3.650768771198000667e-02,2.204732742433695769e+00,2.204733459874332446e+00,1.956736280418236093e-02,-3.898723197504682519e-03,1.160477677850165398e-07,-8.237730768709405698e-07,-6.742963640970340979e-08,2.612545900046871206e-02,-1.484587971364156544e+00,-2.042583767567769826e+00,-2.120618645344869435e+00,1.021609425544738770e+00,-1.690119568501607716e+00,-3.141593043004171193e+00,3.735736384987831116e-02,2.689534740056842566e-04,-5.187227507121860981e-04,2.505957963876426220e-04,-1.123190484941005707e-02,0.000000000000000000e+00
1.226214647293090820e+00,-1.104473964878951858e-01,-4.967342934476386418e-01,3.000006676148762041e-01,3.626973351646750610e-02,2.204843549541284364e+00,2.204844005613676661e+00,2.507381376940352735e-02,-5.007845370056997550e-03,1.395529293712480949e-07,-1.061768093117656399e-06,-8.904655034667541686e-08,3.377225343137989916e-02,-1.484278504048482716e+00,-2.042581383381978810e+00,-2.120622936879293263e+00,1.021611452102661133e+00,-1.690211598073140919e+00,-3.141593043004171193e+00,4.791138693690299988e-02,3.283321566414088011e-04,-6.332340417429804802e-04,3.059673763345927000e-04,-1.413913350552320480e-02,0.000000000000000000e+00
1.234724760055541992e+00,-1.102434067624179920e-01,-4.967750454721248654e-01,3.000005197125311662e-01,3.596711047608967815e-02,2.204983812479157645e+00,2.204985314647866623e+00,3.060094997073822473e-02,-6.132586165322940000e-03,1.613455443676986249e-07,-1.307305568370440583e-06,-1.022175097342315859e-07,4.170547612011808042e-02,-1.483888451253072560e+00,-2.042578999196187794e+00,-2.120628182088033498e+00,1.021613836288452148e+00,-1.690325085316793263e+00,-3.141593043004171193e+00,5.854139104485511780e-02,3.736972284968942404e-04,-7.206879672594368458e-04,3.483019827399402857e-04,-1.683591492474079132e-02,0.000000000000000000e+00
1.243201017379760742e+00,-1.099960215448113343e-01,-4.968248349539988173e-01,3.000005704954978869e-01,3.559597688674025900e-02,2.205156713040485439e+00,2.205157430914531425e+00,3.638810235840113372e-02,-7.307696595472173116e-03,1.746429604775649558e-07,-1.545712583889692797e-06,-1.288452208338972834e-07,5.008265934884625903e-02,-1.483414951954976857e+00,-2.042576138173238576e+00,-2.120633427296773732e+00,1.021616578102111816e+00,-1.690459553395406544e+00,-3.141593043004171193e+00,6.967962533235549927e-02,4.171830078121274710e-04,-8.045429713092744350e-04,3.889110230375081301e-04,-1.959696598351001740e-02,0.000000000000000000e+00
1.251323938369750977e+00,-1.097637487491877478e-01,-4.968713747766843603e-01,3.000006540148154599e-01,3.524518716036897231e-02,2.205319747484446147e+00,2.205320465525622886e+00,4.194888179543580092e-02,-8.422418438214666903e-03,1.920062209841329684e-07,-1.777437495354907525e-06,-1.490142067439665800e-07,5.799437314272015698e-02,-1.482970062886373341e+00,-2.042573277150289357e+00,-2.120638672505513966e+00,1.021618962287902832e+00,-1.690584007893697560e+00,-3.141593043004171193e+00,8.036018162965774536e-02,4.664534935727715492e-04,-8.995567914098501205e-04,4.348869551904499531e-04,-2.236580848693847656e-02,0.000000000000000000e+00
1.259935140609741211e+00,-1.097637487491877478e-01,-4.968713747766843603e-01,3.000006540148154599e-01,3.524518716036897231e-02,2.205319747484446147e+00,2.205320465525622886e+00,0.000000000000000000e+00,0.000000000000000000e+00,0.000000000000000000e+00,0.000000000000000000e+00,0.000000000000000000e+00,0.000000000000000000e+00,-1.482970062886373341e+00,-2.042573277150289357e+00,-2.120638672505513966e+00,1.021618962287902832e+00,-1.690584007893697560e+00,-3.141593043004171193e+00,0.000000000000000000e+00,0.000000000000000000e+00,0.000000000000000000e+00,0.000000000000000000e+00,0.000000000000000000e+00,0.000000000000000000e+00
1.268161535263061523e+00,-1.097637487491877478e-01,-4.968713747766843603e-01,3.000006540148154599e-01,3.524518716036897231e-02,2.205319747484446147e+00,2.205320465525622886e+00,0.000000000000000000e+00,0.000000000000000000e+00,0.000000000000000000e+00,0.000000000000000000e+00,0.000000000000000000e+00,0.000000000000000000e+00,-1.482970062886373341e+00,-2.042573277150289357e+00,-2.120638672505513966e+00,1.021618962287902832e+00,-1.690584007893697560e+00,-3.141593043004171193e+00,0.000000000000000000e+00,0.000000000000000000e+00,0.000000000000000000e+00,0.000000000000000000e+00,0.000000000000000000e+00,0.000000000000000000e+00
1.276467561721801758e+00,-1.097317529162654265e-01,-4.968779675192658285e-01,3.000005333927802664e-01,3.519509763685959441e-02,2.205342786482656692e+00,2.205344027576788157e+00,8.184641904633130002e-03,-1.672795850638572742e-03,3.083167021962305197e-08,-3.634276339760298272e-07,-2.973162347184651270e-08,1.175433676689921145e-02,-1.482908550892965138e+00,-2.042573277150289357e+00,-2.120639149342672169e+00,1.021619200706481934e+00,-1.690599743519918263e+00,-3.141593043004171193e+00,1.574400067329406738e-02,6.690400914521887898e-05,-1.289802021346986294e-04,6.244082760531455278e-05,-3.989663906395435333e-03,0.000000000000000000e+00
1.284893751144409180e+00,-1.096514516729936994e-01,-4.968942519539296665e-01,3.000006343720154067e-01,3.506872904452756207e-02,2.205401739455396193e+00,2.205402457581215447e+00,1.478520373797870963e-02,-3.019383610575387608e-03,5.567990694909113588e-08,-6.563454494947536182e-07,-5.552104538070639858e-08,2.123306179419186604e-02,-1.482754055653707326e+00,-2.042572323475972951e+00,-2.120640579854146779e+00,1.021619915962219238e+00,-1.690638844166890919e+00,-3.141593043004171193e+00,2.844000048935413361e-02,1.208555695484392345e-04,-2.329901471966877580e-04,1.127932628151029348e-04,-7.206938695162534714e-03,0.000000000000000000e+00
1.293629169464111328e+00,-1.096514516729936994e-01,-4.968942519539296665e-01,3.000006343720154067e-01,3.506872904452756207e-02,2.205401739455396193e+00,2.205402457581215447e+00,0.000000000000000000e+00,0.000000000000000000e+00,0.000000000000000000e+00,0.000000000000000000e+00,0.000000000000000000e+00,0.000000000000000000e+00,-1.482754055653707326e+00,-2.042572323475972951e+00,-2.120640579854146779e+00,1.021619915962219238e+00,-1.690638844166890919e+00,-3.141593043004171193e+00,0.000000000000000000e+00,0.000000000000000000e+00,0.000000000000000000e+00,0.000000000000000000e+00,0.000000000000000000e+00,0.000000000000000000e+00
1.302156686782836914e+00,-1.096514516729936994e-01,-4.968942519539296665e-01,3.000006343720154067e-01,3.506872904452756207e-02,2.205401739455396193e+00,2.205402457581215447e+00,0.000000000000000000e+00,0.000000000000000000e+00,0.000000000000000000e+00,0.000000000000000000e+00,0.000000000000000000e+00,0.000000000000000000e+00,-1.482754055653707326e+00,-2.042572323475972951e+00,-2.120640579854146779e+00,1.021619915962219238e+00,-1.690638844166890919e+00,-3.141593043004171193e+00,0.000000000000000000e+00,0.000000000000000000e+00,0.000000000000000000e+00,0.000000000000000000e+00,0.000000000000000000e+00,0.000000000000000000e+00
1.310655832290649414e+00,-1.096242470971176552e-01,-4.969000252699535825e-01,3.000006234597272226e-01,3.502485980914431946e-02,2.205422239752676372e+00,2.205422696379635727e+00,7.000655752957307340e-03,-1.443861272708685337e-03,1.486010978884256999e-08,-3.053069144968206648e-07,-2.626987382981144282e-08,1.026717061176897310e-02,-1.482701603566304982e+00,-2.042572323475972951e+00,-2.120640579854146779e+00,1.021620035171508789e+00,-1.690651241933004201e+00,-3.141593043004171193e+00,1.349760033190250397e-02,4.548846118268556893e-05,-8.769694250077009201e-05,4.251491554896347225e-05,-3.230429720133543015e-03,0.000000000000000000e+00
1.318647623062133789e+00,-1.095528244014179198e-01,-4.969147449373330083e-01,3.000006245505318914e-01,3.490948803679672086e-02,2.205475720275657192e+00,2.205476438478205292e+00,1.283011331292268839e-02,-2.653008243439156522e-03,2.494333762804138190e-08,-5.643283431705435685e-07,-4.797442745056892961e-08,1.894389791414162125e-02,-1.482563797627584279e+00,-2.042571846638814748e+00,-2.120641533528463185e+00,1.021620392799377441e+00,-1.690683666859762013e+00,-3.141593043004171193e+00,2.475532889366149902e-02,7.635060319444164634e-05,-1.471799041610211134e-04,7.139566150726750493e-05,-5.811430979520082474e-03,0.000000000000000000e+00
1.327224731445312500e+00,-1.094282834488512490e-01,-4.969404448699563659e-01,3.000007255295439879e-01,3.470791422112501357e-02,2.205569589622863980e+00,2.205569784861606486e+00,1.923711501730353615e-02,-3.976367676036939719e-03,3.647534042460881847e-08,-8.477913929597808315e-07,-7.437285682628567666e-08,2.845348510891185928e-02,-1.482323471699849904e+00,-2.042570892964498341e+00,-2.120642964039937794e+00,1.021621108055114746e+00,-1.690739933644429982e+00,-3.141593043004171193e+00,3.712319955229759216e-02,1.116775820264592767e-04,-2.152722445316612720e-04,1.044457094394601882e-04,-8.669714443385601044e-03,0.000000000000000000e+00
1.335910558700561523e+00,-1.094282834488512490e-01,-4.969404448699563659e-01,3.000007255295439879e-01,3.470791422112501357e-02,2.205569589622863980e+00,2.205569784861606486e+00,0.000000000000000000e+00,0.000000000000000000e+00,0.000000000000000000e+00,0.000000000000000000e+00,0.000000000000000000e+00,0.000000000000000000e+00,-1.482323471699849904e+00,-2.042570892964498341e+00,-2.120642964039937794e+00,1.021621108055114746e+00,-1.690739933644429982e+00,-3.141593043004171193e+00,0.000000000000000000e+00,0.000000000000000000e+00,0.000000000000000000e+00,0.000000000000000000e+00,0.000000000000000000e+00,0.000000000000000000e+00
