ThomasAsmussen/golf_robot/log/run1_20251013_150621.csv
t,x,y,z,rx,ry,rz,vx,vy,vz,wx,wy,wz,q1,q2,q3,q4,q5,q6,dq1,dq2,dq3,dq4,dq5,dq6
2.175228595733642578e-01,-1.000000822680490037e-01,-5.000002094581326162e-01,3.000001472795442714e-01,-4.422814919258157490e-09,2.221441698759650141e+00,2.221440329442017081e+00,0.000000000000000000e+00,0.000000000000000000e+00,0.000000000000000000e+00,0.000000000000000000e+00,0.000000000000000000e+00,0.000000000000000000e+00,-1.461602036152974904e+00,-2.043482128773824513e+00,-2.118884865437642873e+00,1.020774960517883301e+00,-1.679991070424215138e+00,-3.141593043004171193e+00,0.000000000000000000e+00,0.000000000000000000e+00,0.000000000000000000e+00,0.000000000000000000e+00,0.000000000000000000e+00,0.000000000000000000e+00
2.254273891448974609e-01,-1.000000822680490037e-01,-5.000002094581326162e-01,3.000001472795442714e-01,-4.422814919258157490e-09,2.221441698759650141e+00,2.221440329442017081e+00,0.000000000000000000e+00,0.000000000000000000e+00,0.000000000000000000e+00,0.000000000000000000e+00,0.000000000000000000e+00,0.000000000000000000e+00,-1.461602036152974904e+00,-2.043482128773824513e+00,-2.118884865437642873e+00,1.020774960517883301e+00,-1.679991070424215138e+00,-3.141593043004171193e+00,0.000000000000000000e+00,0.000000000000000000e+00,0.000000000000000000e+00,0.000000000000000000e+00,0.000000000000000000e+00,0.000000000000000000e+00
2.338206768035888672e-01,-1.000000822680490037e-01,-5.000002094581326162e-01,3.000001472795442714e-01,-4.422814919258157490e-09,2.221441698759650141e+00,2.221440329442017081e+00,0.000000000000000000e+00,0.000000000000000000e+00,0.000000000000000000e+00,0.000000000000000000e+00,0.000000000000000000e+00,0.000000000000000000e+00,-1.461602036152974904e+00,-2.043482128773824513e+00,-2.118884865437642873e+00,1.020774960517883301e+00,-1.679991070424215138e+00,-3.141593043004171193e+00,0.000000000000000000e+00,0.000000000000000000e+00,0.000000000000000000e+00,0.000000000000000000e+00,0.000000000000000000e+00,0.000000000000000000e+00
2.426486015319824219e-01,-1.000000822680490037e-01,-5.000002094581326162e-01,3.000001472795442714e-01,-4.422814919258157490e-09,2.221441698759650141e+00,2.221440329442017081e+00,0.000000000000000000e+00,0.000000000000000000e+00,0.000000000000000000e+00,0.000000000000000000e+00,0.000000000000000000e+00,0.000000000000000000e+00,-1.461602036152974904e+00,-2.043482128773824513e+00,-2.118884865437642873e+00,1.020774960517883301e+00,-1.679991070424215138e+00,-3.141593043004171193e+00,0.000000000000000000e+00,0.000000000000000000e+00,0.000000000000000000e+00,0.000000000000000000e+00,0.000000000000000000e+00,0.000000000000000000e+00
2.521250247955322266e-01,-1.000000822680490037e-01,-5.000002094581326162e-01,3.000001472795442714e-01,-4.422814919258157490e-09,2.221441698759650141e+00,2.221440329442017081e+00,0.000000000000000000e+00,0.000000000000000000e+00,0.000000000000000000e+00,0.000000000000000000e+00,0.000000000000000000e+00,0.000000000000000000e+00,-1.461602036152974904e+00,-2.043482128773824513e+00,-2.118884865437642873e+00,1.020774960517883301e+00,-1.679991070424215138e+00,-3.141593043004171193e+00,0.000000000000000000e+00,0.000000000000000000e+00,0.000000000000000000e+00,0.000000000000000000e+00,0.000000000000000000e+00,0.000000000000000000e+00
2.614820003509521484e-01,-1.000000822680490037e-01,-5.000002094581326162e-01,3.000001472795442714e-01,-4.422814919258157490e-09,2.221441698759650141e+00,2.221440329442017081e+00,0.000000000000000000e+00,0.000000000000000000e+00,0.000000000000000000e+00,0.000000000000000000e+00,0.000000000000000000e+00,0.000000000000000000e+00,-1.461602036152974904e+00,-2.043482128773824513e+00,-2.118884865437642873e+00,1.020774960517883301e+00,-1.679991070424215138e+00,-3.141593043004171193e+00,0.000000000000000000e+00,0.000000000000000000e+00,0.000000000000000000e+00,0.000000000000000000e+00,0.000000000000000000e+00,0.000000000000000000e+00
2.701022624969482422e-01,-1.000000822680490037e-01,-5.000002094581326162e-01,3.000001472795442714e-01,-4.422814919258157490e-09,2.221441698759650141e+00,2.221440329442017081e+00,0.000000000000000000e+00,0.000000000000000000e+00,0.000000000000000000e+00,0.000000000000000000e+00,0.000000000000000000e+00,0.000000000000000000e+00,-1.461602036152974904e+00,-2.043482128773824513e+00,-2.118884865437642873e+00,1.020774960517883301e+00,-1.679991070424215138e+00,-3.141593043004171193e+00,0.000000000000000000e+00,0.000000000000000000e+00,0.000000000000000000e+00,0.000000000000000000e+00,0.000000000000000000e+00,0.000000000000000000e+00
2.786376476287841797e-01,-1.000000822680490037e-01,-5.000002094581326162e-01,3.000001472795442714e-01,-4.422814919258157490e-09,2.221441698759650141e+00,2.221440329442017081e+00,0.000000000000000000e+00,0.000000000000000000e+00,0.000000000000000000e+00,0.000000000000000000e+00,0.000000000000000000e+00,0.000000000000000000e+00,-1.461602036152974904e+00,-2.043482128773824513e+00,-2.118884865437642873e+00,1.020774960517883301e+00,-1.679991070424215138e+00,-3.141593043004171193e+00,0.000000000000000000e+00,0.000000000000000000e+00,0.000000000000000000e+00,0.000000000000000000e+00,0.000000000000000000e+00,0.000000000000000000e+00
2.866744995117187500e-01,-1.000000822680490037e-01,-5.000002094581326162e-01,3.000001472795442714e-01,-4.422814919258157490e-09,2.221441698759650141e+00,2.221440329442017081e+00,0.000000000000000000e+00,0.000000000000000000e+00,0.000000000000000000e+00,0.000000000000000000e+00,0.000000000000000000e+00,0.000000000000000000e+00,-1.461602036152974904e+00,-2.043482128773824513e+00,-2.118884865437642873e+00,1.020774960517883301e+00,-1.679991070424215138e+00,-3.141593043004171193e+00,0.000000000000000000e+00,0.000000000000000000e+00,0.000000000000000000e+00,0.000000000000000000e+00,0.000000000000000000e+00,0.000000000000000000e+00
2.951574325561523438e-01,-1.000000822680490037e-01,-5.000002094581326162e-01,3.000001472795442714e-01,-4.422814919258157490e-09,2.221441698759650141e+00,2.221440329442017081e+00,0.000000000000000000e+00,0.000000000000000000e+00,0.000000000000000000e+00,0.000000000000000000e+00,0.000000000000000000e+00,0.000000000000000000e+00,-1.461602036152974904e+00,-2.043482128773824513e+00,-2.118884865437642873e+00,1.020774960517883301e+00,-1.679991070424215138e+00,-3.141593043004171193e+00,0.000000000000000000e+00,0.000000000000000000e+00,0.000000000000000000e+00,0.000000000000000000e+00,0.000000000000000000e+00,0.000000000000000000e+00
3.037927150726318359e-01,-1.000000822680490037e-01,-5.000002094581326162e-01,3.000001472795442714e-01,-4.422814919258157490e-09,2.221441698759650141e+00,2.221440329442017081e+00,0.000000000000000000e+00,0.000000000000000000e+00,0.000000000000000000e+00,0.000000000000000000e+00,0.000000000000000000e+00,0.000000000000000000e+00,-1.461602036152974904e+00,-2.043482128773824513e+00,-2.118884865437642873e+00,1.020774960517883301e+00,-1.679991070424215138e+00,-3.141593043004171193e+00,0.000000000000000000e+00,0.000000000000000000e+00,0.000000000000000000e+00,0.000000000000000000e+00,0.000000000000000000e+00,0.000000000000000000e+00
3.120810985565185547e-01,-1.000000822680490037e-01,-5.000002094581326162e-01,3.000001472795442714e-01,-4.422814919258157490e-09,2.221441698759650141e+00,2.221440329442017081e+00,0.000000000000000000e+00,0.000000000000000000e+00,0.000000000000000000e+00,0.000000000000000000e+00,0.000000000000000000e+00,0.000000000000000000e+00,-1.461602036152974904e+00,-2.043482128773824513e+00,-2.118884865437642873e+00,1.020774960517883301e+00,-1.679991070424215138e+00,-3.141593043004171193e+00,0.000000000000000000e+00,0.000000000000000000e+00,0.000000000000000000e+00,0.000000000000000000e+00,0.000000000000000000e+00,0.000000000000000000e+00
3.217961788177490234e-01,-1.000000822680490037e-01,-5.000002094581326162e-01,3.000001472795442714e-01,-4.422814919258157490e-09,2.221441698759650141e+00,2.221440329442017081e+00,0.000000000000000000e+00,0.000000000000000000e+00,0.000000000000000000e+00,0.000000000000000000e+00,0.000000000000000000e+00,0.000000000000000000e+00,-1.461602036152974904e+00,-2.043482128773824513e+00,-2.118884865437642873e+00,1.020774960517883301e+00,-1.679991070424215138e+00,-3.141593043004171193e+00,0.000000000000000000e+00,0.000000000000000000e+00,0.000000000000000000e+00,0.000000000000000000e+00,0.000000000000000000e+00,0.000000000000000000e+00
3.299224376678466797e-01,-1.000000822680490037e-01,-5.000002094581326162e-01,3.000001472795442714e-01,-4.422814919258157490e-09,2.221441698759650141e+00,2.221440329442017081e+00,0.000000000000000000e+00,0.000000000000000000e+00,0.000000000000000000e+00,0.000000000000000000e+00,0.000000000000000000e+00,0.000000000000000000e+00,-1.461602036152974904e+00,-2.043482128773824513e+00,-2.118884865437642873e+00,1.020774960517883301e+00,-1.679991070424215138e+00,-3.141593043004171193e+00,0.000000000000000000e+00,0.000000000000000000e+00,0.000000000000000000e+00,0.000000000000000000e+00,0.000000000000000000e+00,0.000000000000000000e+00
3.382396697998046875e-01,-1.000000822680490037e-01,-5.000002094581326162e-01,3.000001472795442714e-01,-4.422814919258157490e-09,2.221441698759650141e+00,2.221440329442017081e+00,0.000000000000000000e+00,0.000000000000000000e+00,0.000000000000000000e+00,0.000000000000000000e+00,0.000000000000000000e+00,0.000000000000000000e+00,-1.461602036152974904e+00,-2.043482128773824513e+00,-2.118884865437642873e+00,1.020774960517883301e+00,-1.679991070424215138e+00,-3.141593043004171193e+00,0.000000000000000000e+00,0.000000000000000000e+00,0.000000000000000000e+00,0.000000000000000000e+00,0.000000000000000000e+00,0.000000000000000000e+00
3.467421531677246094e-01,-1.000000822680490037e-01,-5.000002094581326162e-01,3.000001472795442714e-01,-4.422814919258157490e-09,2.221441698759650141e+00,2.221440329442017081e+00,9.811082684510503601e-17,-4.444296606843256496e-23,6.627874167738209355e-24,7.188553993268133474e-23,-6.557083309302968736e-22,-1.064108751031414805e-15,-1.461602036152974904e+00,-2.043482128773824513e+00,-2.118884865437642873e+00,1.020774960517883301e+00,-1.679991070424215138e+00,-3.141593043004171193e+00,0.000000000000000000e+00,0.000000000000000000e+00,0.000000000000000000e+00,0.000000000000000000e+00,-1.064108751031619515e-15,0.000000000000000000e+00
3.549678325653076172e-01,-1.000000822680490037e-01,-5.000002094581326162e-01,3.000001472795442714e-01,-4.422814919258157490e-09,2.221441698759650141e+00,2.221440329442017081e+00,2.747103210235269122e-17,-1.244403076448637197e-23,1.855804806535218675e-24,2.012795161030865223e-23,-1.835983365750728500e-22,-2.979504566415432775e-16,-1.461602036152974904e+00,-2.043482128773824513e+00,-2.118884865437642873e+00,1.020774960517883301e+00,-1.679991070424215138e+00,-3.141593043004171193e+00,0.000000000000000000e+00,0.000000000000000000e+00,0.000000000000000000e+00,0.000000000000000000e+00,-2.979504566416005685e-16,0.000000000000000000e+00
3.632640838623046875e-01,-1.000000822680490037e-01,-5.000002094581326162e-01,3.000001472795442714e-01,-4.422814919258157490e-09,2.221441698759650141e+00,2.221440329442017081e+00,8.241309630705807367e-18,-3.733209229345911150e-24,5.567414419605655473e-25,6.038385483092595963e-24,-5.507950097252185265e-23,-8.938513699246298817e-17,-1.461602036152974904e+00,-2.043482128773824513e+00,-2.118884865437642873e+00,1.020774960517883301e+00,-1.679991070424215138e+00,-3.141593043004171193e+00,0.000000000000000000e+00,0.000000000000000000e+00,0.000000000000000000e+00,0.000000000000000000e+00,-8.938513699248017055e-17,0.000000000000000000e+00
3.718595504760742188e-01,-1.000000822680490037e-01,-5.000002094581326162e-01,3.000001472795442714e-01,-4.422814919258157490e-09,2.221441698759650141e+00,2.221440329442017081e+00,2.637219081825858573e-18,-1.194626953390691649e-24,1.781572614273809963e-25,1.932283354589630532e-24,-1.762544031120699355e-23,-2.860324383758815720e-17,-1.461602036152974904e+00,-2.043482128773824513e+00,-2.118884865437642873e+00,1.020774960517883301e+00,-1.679991070424215138e+00,-3.141593043004171193e+00,0.000000000000000000e+00,0.000000000000000000e+00,0.000000000000000000e+00,0.000000000000000000e+00,-2.860324383759365457e-17,0.000000000000000000e+00
3.815093040466308594e-01,-1.000000822680490037e-01,-5.000002094581326162e-01,3.000001472795442714e-01,-4.422814919258157490e-09,2.221441698759650141e+00,2.221440329442017081e+00,8.966544878207917762e-19,-4.061731641528351643e-25,6.057346888530953689e-26,6.569763405604744139e-25,-5.992649705810378043e-24,-9.725102904779972092e-18,-1.461602036152974904e+00,-2.043482128773824513e+00,-2.118884865437642873e+00,1.020774960517883301e+00,-1.679991070424215138e+00,-3.141593043004171193e+00,0.000000000000000000e+00,0.000000000000000000e+00,0.000000000000000000e+00,0.000000000000000000e+00,-9.725102904781842555e-18,0.000000000000000000e+00
3.986220359802246094e-01,-1.000000822680490037e-01,-5.000002094581326162e-01,3.000001472795442714e-01,-4.422814919258157490e-09,2.221441698759650141e+00,2.221440329442017081e+00,3.227956095142008519e-19,-1.462223363312159454e-25,2.180644838653935002e-26,2.365114781313761980e-25,-2.157353853314759652e-24,-3.501036979546341011e-18,-1.461602036152974904e+00,-2.043482128773824513e+00,-2.118884865437642873e+00,1.020774960517883301e+00,-1.679991070424215138e+00,-3.141593043004171193e+00,0.000000000000000000e+00,0.000000000000000000e+00,0.000000000000000000e+00,0.000000000000000000e+00,-3.501036979547014316e-18,0.000000000000000000e+00
4.074900150299072266e-01,-1.000000822680490037e-01,-5.000002094581326162e-01,3.000001472795442714e-01,-4.422814919258157490e-09,2.221441698759650141e+00,2.221440329442017081e+00,2.154298630337741350e-16,-9.758700849655293140e-23,1.455335838128419941e-23,1.578448833812787808e-22,-1.439791717844096698e-21,-2.336549490604721213e-15,-1.461602036152974904e+00,-2.043482128773824513e+00,-2.118884865437642873e+00,1.020774960517883301e+00,-1.679991070424215138e+00,-3.141593043004171193e+00,0.000000000000000000e+00,0.000000000000000000e+00,0.000000000000000000e+00,0.000000000000000000e+00,-2.336549490605170469e-15,0.000000000000000000e+00
4.159719944000244141e-01,-1.000000822680490037e-01,-5.000002094581326162e-01,3.000001472795442714e-01,-4.422814919258157490e-09,2.221441698759650141e+00,2.221440329442017081e+00,5.629845289737351299e-17,-2.550248848451177585e-23,3.803240413325952711e-24,4.124972558117054207e-23,-3.762618843440774429e-22,-6.106122873901147904e-16,-1.461602036152974904e+00,-2.043482128773824513e+00,-2.118884865437642873e+00,1.020774960517883301e+00,-1.679991070424215138e+00,-3.141593043004171193e+00,0.000000000000000000e+00,0.000000000000000000e+00,0.000000000000000000e+00,0.000000000000000000e+00,-6.106122873902322321e-16,0.000000000000000000e+00
4.244651794433593750e-01,-1.000000822680490037e-01,-5.000002094581326162e-01,3.000001472795442714e-01,-4.422814919258157490e-09,2.221441698759650141e+00,2.221440329442017081e+00,2.364535119310234571e-17,-1.071104560570370143e-23,1.597361039544433346e-24,1.732488545935476012e-23,-1.580299979488287692e-22,-2.564571712917600743e-16,-1.461602036152974904e+00,-2.043482128773824513e+00,-2.118884865437642873e+00,1.020774960517883301e+00,-1.679991070424215138e+00,-3.141593043004171193e+00,0.000000000000000000e+00,0.000000000000000000e+00,0.000000000000000000e+00,0.000000000000000000e+00,-2.564571712918093781e-16,0.000000000000000000e+00
4.328086376190185547e-01,-1.000000822680490037e-01,-5.000002094581326162e-01,3.000001472795442714e-01,-4.422814919258157490e-09,2.221441698759650141e+00,2.221440329442017081e+00,1.040395374400065438e-17,-4.712859712742624070e-24,7.028388046415239600e-25,7.622949029905587389e-24,-6.953319387803166759e-23,-1.128411468980449602e-16,-1.461602036152974904e+00,-2.043482128773824513e+00,-2.118884865437642873e+00,1.020774960517883301e+00,-1.679991070424215138e+00,-3.141593043004171193e+00,0.000000000000000000e+00,0.000000000000000000e+00,0.000000000000000000e+00,0.000000000000000000e+00,-1.128411468980666538e-16,0.000000000000000000e+00
4.429867267608642578e-01,-1.000000822680490037e-01,-5.000002094581326162e-01,3.000001472795442714e-01,-4.422814919258157490e-09,2.221441698759650141e+00,2.221440329442017081e+00,4.785818954089100696e-18,-2.167915572886186639e-24,3.233058657976402151e-25,3.506556723631564966e-24,-3.198527073341967393e-23,-5.190693008772973891e-17,-1.461602036152974904e+00,-2.043482128773824513e+00,-2.118884865437642873e+00,1.020774960517883301e+00,-1.679991070424215138e+00,-3.141593043004171193e+00,0.000000000000000000e+00,0.000000000000000000e+00,0.000000000000000000e+00,0.000000000000000000e+00,-5.190693008773972293e-17,0.000000000000000000e+00
4.520268440246582031e-01,-1.000000822680490037e-01,-5.000002094581326162e-01,3.000001472795442714e-01,-4.422814919258157490e-09,2.221441698759650141e+00,2.221440329442017081e+00,2.297193140671757724e-18,-1.040599494332002685e-24,1.551868184680718885e-25,1.683147258635913122e-24,-1.535293023748027842e-23,-2.491532690533141832e-17,-1.461602036152974904e+00,-2.043482128773824513e+00,-2.118884865437642873e+00,1.020774960517883301e+00,-1.679991070424215138e+00,-3.141593043004171193e+00,0.000000000000000000e+00,0.000000000000000000e+00,0.000000000000000000e+00,0.000000000000000000e+00,-2.491532690533621003e-17,0.000000000000000000e+00
4.607210159301757812e-01,-1.000000822680490037e-01,-5.000002094581326162e-01,3.000001472795442714e-01,-4.422814919258157490e-09,2.221441698759650141e+00,2.221440329442017081e+00,-5.978170688143983501e-07,5.197565627128053957e-07,-2.294714097466879503e-07,1.099333366962257928e-06,1.205203120600395648e-07,-1.105919977603023099e-06,-1.461602036152974904e+00,-2.043482128773824513e+00,-2.118884865437642873e+00,1.020774960517883301e+00,-1.679991070424215138e+00,-3.141593043004171193e+00,-1.105919977817393374e-06,0.000000000000000000e+00,-1.105919977817393374e-06,0.000000000000000000e+00,-1.245766345266810502e-17,0.000000000000000000e+00
4.688560962677001953e-01,-1.000003206867166317e-01,-5.000001617743204951e-01,3.000001472795442714e-01,5.252101020741351578e-07,2.221441460341464946e+00,2.221440091023129337e+00,-2.671928701036523491e-05,5.903774141333857425e-06,-3.474398433202451637e-07,1.664486993735950342e-06,1.824790605511613559e-07,-5.034646073874948221e-05,-1.461602512990133107e+00,-2.043482128773824513e+00,-2.118884865437642873e+00,1.020774960517883301e+00,-1.679991070424215138e+00,-3.141593043004171193e+00,-5.284246071823872626e-05,0.000000000000000000e+00,-1.674459781497716904e-06,0.000000000000000000e+00,2.495999979146290570e-06,0.000000000000000000e+00
4.775006771087646484e-01,-1.000012758641989352e-01,-4.999999573275704101e-01,3.000001363538995491e-01,2.629290293184769026e-06,2.221440631806929300e+00,2.221438999231642342e+00,-1.463210870884407448e-04,3.211526509112850539e-05,-1.920819834474493666e-07,6.446936728029092709e-07,7.068447124353567121e-08,-2.791708229777731948e-04,-1.461604420338765919e+00,-2.043482128773824513e+00,-2.118884865437642873e+00,1.020775079727172852e+00,-1.679991070424215138e+00,-3.141593043004171193e+00,-2.899676037486642599e-04,2.803507186399656348e-06,-6.255571406654780731e-06,2.803507186399656348e-06,1.079678077076096088e-05,0.000000000000000000e+00
4.858031272888183594e-01,-1.000049154435604659e-01,-4.999990656307023995e-01,3.000000374132487102e-01,1.010184505630168218e-05,2.221436793426522893e+00,2.221436213825514816e+00,-4.665389881595937674e-04,1.017993860577977148e-04,-2.312016670216728643e-07,2.263569208919819360e-07,2.482199022928417466e-08,-8.925071051634857330e-04,-1.461611572896138966e+00,-2.043482128773824513e+00,-2.118885342274801076e+00,1.020775079727172852e+00,-1.679990593587056935e+00,-3.141593043004171193e+00,-9.250431903637945652e-04,8.967380381363909692e-06,-1.816247458918951452e-05,8.967380381363909692e-06,3.253608520026318729e-05,0.000000000000000000e+00
4.946429729461669922e-01,-1.000116455819315686e-01,-4.999976348054773201e-01,3.000002582897425274e-01,2.432971030822185475e-05,2.221430981687664730e+00,2.221429085894279343e+00,-8.600688528950389562e-04,1.869044886059594284e-04,-3.353515230715686337e-07,4.716942777991079164e-08,5.220690483108140415e-09,-1.647187989874522238e-03,-1.461624924336568654e+00,-2.043481651936666310e+00,-2.118885342274801076e+00,1.020775198936462402e+00,-1.679990116749898732e+00,-3.141593043004171193e+00,-1.705768634565174580e-03,1.586740108905360103e-05,-3.178225961164571345e-05,1.586740108905360103e-05,5.858064469066448510e-05,0.000000000000000000e+00
5.084156990051269531e-01,-1.000224406465406030e-01,-4.999952848310271203e-01,3.000001374978143454e-01,4.766208179497655910e-05,2.221420240843751781e+00,2.221418871517757410e+00,-1.399039060465269435e-03,3.038575254633580345e-04,-3.451561681402770448e-07,1.891670277441048464e-06,2.073579398636913722e-07,-2.681533704162202339e-03,-1.461646382008687794e+00,-2.043481651936666310e+00,-2.118885819111959279e+00,1.020775437355041504e+00,-1.679989639912740529e+00,-3.141593043004171193e+00,-2.775091212242841721e-03,2.583321474958211184e-05,-5.163176683709025383e-05,2.389555083937011659e-05,9.355750808026641607e-05,0.000000000000000000e+00
5.167934894561767578e-01,-1.000428899704357832e-01,-4.999907545517295326e-01,3.000001386417178728e-01,9.110519649697770871e-05,2.221400564728380100e+00,2.221399458629813140e+00,-2.644590827122159007e-03,5.748546788485139371e-04,-7.194141156370301922e-07,2.872992484541919090e-06,3.148086424450339115e-07,-5.070862345746147623e-03,-1.461686913167135060e+00,-2.043481175099508107e+00,-2.118886772786275685e+00,1.020775794982910156e+00,-1.679988209401265919e+00,-3.141593043004171193e+00,-5.246019456535577774e-03,4.908759001409634948e-05,-9.809939365368336439e-05,4.612161501427181065e-05,1.751571107888594270e-04,0.000000000000000000e+00
5.255029201507568359e-01,-1.000652270687229506e-01,-4.999860181424585770e-01,3.000002387260107817e-01,1.387266758639580202e-04,2.221379481209099893e+00,2.221377585398899512e+00,-4.130254604763987890e-03,8.980764160956314053e-04,-1.140131639043502549e-06,4.313485503826352539e-06,4.725607149787365520e-07,-7.920102303614050612e-03,-1.461731259022847951e+00,-2.043480698262349904e+00,-2.118887249623433888e+00,1.020776152610778809e+00,-1.679986778889791310e+00,-3.141593043004171193e+00,-8.193242363631725311e-03,7.672745414311066270e-05,-1.533340255264192820e-04,7.226727757370099425e-05,2.731400600168853998e-04,0.000000000000000000e+00
5.337355136871337891e-01,-1.000652270687229506e-01,-4.999860181424585770e-01,3.000002387260107817e-01,1.387266758639580202e-04,2.221379481209099893e+00,2.221377585398899512e+00,0.000000000000000000e+00,0.000000000000000000e+00,0.000000000000000000e+00,0.000000000000000000e+00,0.000000000000000000e+00,0.000000000000000000e+00,-1.461731259022847951e+00,-2.043480698262349904e+00,-2.118887249623433888e+00,1.020776152610778809e+00,-1.679986778889791310e+00,-3.141593043004171193e+00,0.000000000000000000e+00,0.000000000000000000e+00,0.000000000000000000e+00,0.000000000000000000e+00,0.000000000000000000e+00,0.000000000000000000e+00
5.426390171051025391e-01,-1.000652270687229506e-01,-4.999860181424585770e-01,3.000002387260107817e-01,1.387266758639580202e-04,2.221379481209099893e+00,2.221377585398899512e+00,0.000000000000000000e+00,0.000000000000000000e+00,0.000000000000000000e+00,0.000000000000000000e+00,0.000000000000000000e+00,0.000000000000000000e+00,-1.461731259022847951e+00,-2.043480698262349904e+00,-2.118887249623433888e+00,1.020776152610778809e+00,-1.679986778889791310e+00,-3.141593043004171193e+00,0.000000000000000000e+00,0.000000000000000000e+00,0.000000000000000000e+00,0.000000000000000000e+00,0.000000000000000000e+00,0.000000000000000000e+00
5.508351325988769531e-01,-1.000796612990928897e-01,-4.999827747703731173e-01,3.000000189940112971e-01,1.695299880931552252e-04,2.221364901117845569e+00,2.221364584699247136e+00,-1.847034098892984299e-03,4.016197793045728367e-04,-5.572189750432715750e-07,1.419450377558136491e-06,1.554054188094087382e-07,-3.544270621204922977e-03,-1.461759869252340138e+00,-2.043480698262349904e+00,-2.118888203297750294e+00,1.020776391029357910e+00,-1.679985825215474904e+00,-3.141593043004171193e+00,-3.664403920993208885e-03,3.416001709410920739e-05,-6.827773177064955235e-05,3.268978252890519798e-05,1.201332997879944742e-04,0.000000000000000000e+00
5.598220825195312500e-01,-1.001080229847920444e-01,-4.999766532315300660e-01,3.000000092123595308e-01,2.299032456820672443e-04,2.221337718698702890e+00,2.221337402259595972e+00,-4.086317425464417938e-03,8.887738734162825864e-04,-1.232792790317025135e-06,3.140409595470287735e-06,3.436420555864129418e-07,-7.841331185772371440e-03,-1.461816136037008107e+00,-2.043480221425191701e+00,-2.118889156972066701e+00,1.020776867866516113e+00,-1.679983917866842091e+00,-3.141593043004171193e+00,-8.107113651931285858e-03,7.557549542980268598e-05,-1.510574074927717447e-04,7.232275675050914288e-05,2.657824661582708359e-04,0.000000000000000000e+00
5.683643817901611328e-01,-1.001080229847920444e-01,-4.999766532315300660e-01,3.000000092123595308e-01,2.299032456820672443e-04,2.221337718698702890e+00,2.221337402259595972e+00,0.000000000000000000e+00,0.000000000000000000e+00,0.000000000000000000e+00,0.000000000000000000e+00,0.000000000000000000e+00,0.000000000000000000e+00,-1.461816136037008107e+00,-2.043480221425191701e+00,-2.118889156972066701e+00,1.020776867866516113e+00,-1.679983917866842091e+00,-3.141593043004171193e+00,0.000000000000000000e+00,0.000000000000000000e+00,0.000000000000000000e+00,0.000000000000000000e+00,0.000000000000000000e+00,0.000000000000000000e+00
5.768299102783203125e-01,-1.001080229847920444e-01,-4.999766532315300660e-01,3.000000092123595308e-01,2.299032456820672443e-04,2.221337718698702890e+00,2.221337402259595972e+00,0.000000000000000000e+00,0.000000000000000000e+00,0.000000000000000000e+00,0.000000000000000000e+00,0.000000000000000000e+00,0.000000000000000000e+00,-1.461816136037008107e+00,-2.043480221425191701e+00,-2.118889156972066701e+00,1.020776867866516113e+00,-1.679983917866842091e+00,-3.141593043004171193e+00,0.000000000000000000e+00,0.000000000000000000e+00,0.000000000000000000e+00,0.000000000000000000e+00,0.000000000000000000e+00,0.000000000000000000e+00
5.850870609283447266e-01,-1.001404476228689167e-01,-4.999696227663625869e-01,3.000002203059753403e-01,2.992056572465424881e-04,2.221307107384739243e+00,2.221305474785315592e+00,-4.230111648802674720e-03,9.213026669197560024e-04,-2.353017214937615168e-07,9.651370025077725904e-07,1.057302699220000259e-07,-8.134159783366939206e-03,-1.461880509053365529e+00,-2.043479267750875294e+00,-2.118890110646383107e+00,1.020777463912963867e+00,-1.679982010518209279e+00,-3.141593043004171193e+00,-8.395003154873847961e-03,8.073485514614731073e-05,-1.570172607898712158e-04,7.531149458372965455e-05,2.608433715067803860e-04,0.000000000000000000e+00
6.020772457122802734e-01,-1.001959523401422247e-01,-4.999574336624480475e-01,3.000001018023043531e-01,4.178838276559661931e-04,2.221253191563847373e+00,2.221252611837929436e+00,-7.204796700292784989e-03,1.570059195329376323e-03,-5.490832139761284438e-07,2.701950164281729283e-06,2.952695332923406332e-07,-1.385835802648162363e-02,-1.461990658436910451e+00,-2.043478314076558888e+00,-2.118892494832174123e+00,1.020778417587280273e+00,-1.679978672658101857e+00,-3.141593043004171193e+00,-1.429947372525930405e-02,1.372156402794644237e-04,-2.676898729987442493e-04,1.277561968890950084e-04,4.411156987771391869e-04,0.000000000000000000e+00
6.103522777557373047e-01,-1.003221017469452803e-01,-4.999300768008516638e-01,3.000001627579187424e-01,6.868339417283340692e-04,2.221132416932551923e+00,2.221131047489074639e+00,-1.545624491465342511e-02,3.372319266638183679e-03,-1.242996967845888085e-06,6.259601937783416432e-06,6.827842353816719212e-07,-2.973333932459243378e-02,-1.462240997944967091e+00,-2.043475929890767873e+00,-2.118896786366597951e+00,1.020780682563781738e+00,-1.679970566426412404e+00,-3.141593043004171193e+00,-3.067832253873348236e-02,2.942523278761655092e-04,-5.744100199081003666e-04,2.738609618972986937e-04,9.449832141399383545e-04,0.000000000000000000e+00
6.190335750579833984e-01,-1.003221017469452803e-01,-4.999300768008516638e-01,3.000001627579187424e-01,6.868339417283340692e-04,2.221132416932551923e+00,2.221131047489074639e+00,0.000000000000000000e+00,0.000000000000000000e+00,0.000000000000000000e+00,0.000000000000000000e+00,0.000000000000000000e+00,0.000000000000000000e+00,-1.462240997944967091e+00,-2.043475929890767873e+00,-2.118896786366597951e+00,1.020780682563781738e+00,-1.679970566426412404e+00,-3.141593043004171193e+00,0.000000000000000000e+00,0.000000000000000000e+00,0.000000000000000000e+00,0.000000000000000000e+00,0.000000000000000000e+00,0.000000000000000000e+00
6.273493766784667969e-01,-1.003221017469452803e-01,-4.999300768008516638e-01,3.000001627579187424e-01,6.868339417283340692e-04,2.221132416932551923e+00,2.221131047489074639e+00,0.000000000000000000e+00,0.000000000000000000e+00,0.000000000000000000e+00,0.000000000000000000e+00,0.000000000000000000e+00,0.000000000000000000e+00,-1.462240997944967091e+00,-2.043475929890767873e+00,-2.118896786366597951e+00,1.020780682563781738e+00,-1.679970566426412404e+00,-3.141593043004171193e+00,0.000000000000000000e+00,0.000000000000000000e+00,0.000000000000000000e+00,0.000000000000000000e+00,0.000000000000000000e+00,0.000000000000000000e+00
6.356527805328369141e-01,-1.003221017469452803e-01,-4.999300768008516638e-01,3.000001627579187424e-01,6.868339417283340692e-04,2.221132416932551923e+00,2.221131047489074639e+00,0.000000000000000000e+00,0.000000000000000000e+00,0.000000000000000000e+00,0.000000000000000000e+00,0.000000000000000000e+00,0.000000000000000000e+00,-1.462240997944967091e+00,-2.043475929890767873e+00,-2.118896786366597951e+00,1.020780682563781738e+00,-1.679970566426412404e+00,-3.141593043004171193e+00,0.000000000000000000e+00,0.000000000000000000e+00,0.000000000000000000e+00,0.000000000000000000e+00,0.000000000000000000e+00,0.000000000000000000e+00
6.632933616638183594e-01,-1.003559637285242334e-01,-4.999226507683035559e-01,3.000000431111346511e-01,7.594155390912624539e-04,2.221099366397571995e+00,2.221098786568409089e+00,-4.450802947013761911e-03,9.723532319465315538e-04,3.573564821618872550e-08,4.750173571156306604e-07,5.180552701259357890e-08,-8.576071937568395531e-03,-1.462308231984273732e+00,-2.043475453053609669e+00,-2.118898216878072560e+00,1.020781278610229492e+00,-1.679968659077779591e+00,-3.141593043004171193e+00,-8.836342021822929382e-03,8.616284321760758758e-05,-1.664438605075702071e-04,7.980318332556635141e-05,2.602700842544436455e-04,0.000000000000000000e+00
6.723763942718505859e-01,-1.004609276692197406e-01,-4.998996872242653655e-01,3.000002357813245091e-01,9.838430781342782146e-04,2.220998733460757268e+00,2.220997100762561960e+00,-1.375751071156894496e-02,3.008598446103305252e-03,1.102914006824548028e-07,1.468333869161131633e-06,1.602132084884874412e-07,-2.651010500267139344e-02,-1.462516609822408498e+00,-2.043473068867818654e+00,-2.118902031575338185e+00,1.020783185958862305e+00,-1.679962460194722951e+00,-3.141593043004171193e+00,-2.731464430689811707e-02,2.663440827745944262e-04,-5.145064205862581730e-04,2.466852893121540546e-04,8.045393042266368866e-04,0.000000000000000000e+00
6.814045906066894531e-01,-1.005487895185130098e-01,-4.998804875148029625e-01,3.000000965707317335e-01,1.172353108044354390e-03,2.220913435337481090e+00,2.220912592190750434e+00,-1.150346154853727765e-02,2.517870488090119714e-03,-1.356296793283541264e-07,1.940498966133470952e-06,2.108554004646260659e-07,-2.217315853340515869e-02,-1.462691132222310841e+00,-2.043471638356344044e+00,-2.118905369435445607e+00,1.020784735679626465e+00,-1.679957691823140919e+00,-3.141593043004171193e+00,-2.284119464457035065e-02,2.223106130259111524e-04,-4.304269095882773399e-04,2.061643754132091999e-04,6.680361111648380756e-04,0.000000000000000000e+00
6.900510787963867188e-01,-1.006532583186883489e-01,-4.998576613514128519e-01,3.000000574421614608e-01,1.395741876928994086e-03,2.220812758167817424e+00,2.220811914962450118e+00,-1.362662029359010610e-02,2.986811552877821022e-03,-2.165639770781273565e-07,2.321360745755058859e-06,2.517438072560450324e-07,-2.628528903005602352e-02,-1.462898556386129201e+00,-2.043469731007711232e+00,-2.118909184132711232e+00,1.020786643028259277e+00,-1.679951492940084279e+00,-3.141593043004171193e+00,-2.706094831228256226e-02,2.642309409566223621e-04,-5.117804976180195808e-04,2.452145854476839304e-04,7.756592822261154652e-04,0.000000000000000000e+00
6.983392238616943359e-01,-1.008962560110029799e-01,-4.998041745605326658e-01,2.999999923969414728e-01,1.916064523072927512e-03,2.220577823404053852e+00,2.220577769552158021e+00,-3.166646301088726911e-02,6.958003585577083282e-03,-5.422148964326231448e-07,5.410986643951570670e-06,5.835110076786511770e-07,-6.110333651304133973e-02,-1.463381115590230763e+00,-2.043464962636129201e+00,-2.118918720875875294e+00,1.020791053771972656e+00,-1.679937664662496388e+00,-3.141593043004171193e+00,-6.289519369602203369e-02,6.147154490463435650e-04,-1.190753420814871788e-03,5.705956136807799339e-04,1.791857182979583740e-03,0.000000000000000000e+00
7.079353332519531250e-01,-1.010911771724069957e-01,-4.997613691028466310e-01,3.000000458510327928e-01,2.333570622292924744e-03,2.220389636611489692e+00,2.220389319453674126e+00,-2.537829462032367700e-02,5.587549263470914171e-03,-3.784333980198438899e-07,2.938936971091582369e-06,3.159600742797544241e-07,-4.898853611666649510e-02,-1.463768307362691701e+00,-2.043461147938863576e+00,-2.118925873433248341e+00,1.020794510841369629e+00,-1.679926697407857716e+00,-3.141593043004171193e+00,-5.041255429387092590e-02,4.934445023536682129e-04,-9.552180999889969826e-04,4.588177253026515245e-04,1.424018177203834057e-03,0.000000000000000000e+00
7.276167869567871094e-01,-1.013059541974800637e-01,-4.997139888026314036e-01,3.000000895198735584e-01,2.794387126435359317e-03,2.220181833196140264e+00,2.220181252752407186e+00,-2.789812368418208288e-02,6.157955709197243145e-03,-1.562961702446182381e-08,3.394920614536461877e-06,3.636836299299007416e-07,-5.389905744232173501e-02,-1.464195076619283498e+00,-2.043456856404439748e+00,-2.118933979664937794e+00,1.020798444747924805e+00,-1.679915253316060841e+00,-3.141593043004171193e+00,-5.542966350913047791e-02,5.455611972138285637e-04,-1.054803724400699139e-03,5.058281822130084038e-04,1.530606066808104515e-03,0.000000000000000000e+00
7.358105182647705078e-01,-1.015605623723397632e-01,-4.996577026039582536e-01,3.000002344049650382e-01,3.340245967733452333e-03,2.219935783705252685e+00,2.219934413776658566e+00,-3.302237140360145262e-02,7.309409008742505202e-03,-2.323429967391196429e-07,3.839956317047567163e-06,4.100458096435187099e-07,-6.384573492687151131e-02,-1.464701000844137013e+00,-2.043451611195699513e+00,-2.118943516408101857e+00,1.020803093910217285e+00,-1.679901425038472951e+00,-3.141593043004171193e+00,-6.562449038028717041e-02,6.476154085248708725e-04,-1.252772402949631214e-03,6.012952071614563465e-04,1.778755453415215015e-03,0.000000000000000000e+00
7.448427677154541016e-01,-1.019780132329077965e-01,-4.995651638047394760e-01,3.000002107251722450e-01,4.235537647147197965e-03,2.219531377370075109e+00,2.219530007278417205e+00,-5.771205887959107023e-02,1.282664130659847031e-02,-5.240144399303834781e-07,6.614602104344563010e-06,7.008003563309190929e-07,-1.116246315650634147e-01,-1.465530697499410451e+00,-2.043443504964010060e+00,-2.118959252034322560e+00,1.020810723304748535e+00,-1.679879013692037404e+00,-3.141593043004171193e+00,-1.147157251834869385e-01,1.133010722696781158e-03,-2.192097250372171402e-03,1.052434905432164669e-03,3.091093618422746658e-03,0.000000000000000000e+00
7.578787803649902344e-01,-1.019780132329077965e-01,-4.995651638047394760e-01,3.000002107251722450e-01,4.235537647147197965e-03,2.219531377370075109e+00,2.219530007278417205e+00,0.000000000000000000e+00,0.000000000000000000e+00,0.000000000000000000e+00,0.000000000000000000e+00,0.000000000000000000e+00,0.000000000000000000e+00,-1.465530697499410451e+00,-2.043443504964010060e+00,-2.118959252034322560e+00,1.020810723304748535e+00,-1.679879013692037404e+00,-3.141593043004171193e+00,0.000000000000000000e+00,0.000000000000000000e+00,0.000000000000000000e+00,0.000000000000000000e+00,0.000000000000000000e+00,0.000000000000000000e+00
7.657790184020996094e-01,-1.019780132329077965e-01,-4.995651638047394760e-01,3.000002107251722450e-01,4.235537647147197965e-03,2.219531377370075109e+00,2.219530007278417205e+00,0.000000000000000000e+00,0.000000000000000000e+00,0.000000000000000000e+00,0.000000000000000000e+00,0.000000000000000000e+00,0.000000000000000000e+00,-1.465530697499410451e+00,-2.043443504964010060e+00,-2.118959252034322560e+00,1.020810723304748535e+00,-1.679879013692037404e+00,-3.141593043004171193e+00,0.000000000000000000e+00,0.000000000000000000e+00,0.000000000000000000e+00,0.000000000000000000e+00,0.000000000000000000e+00,0.000000000000000000e+00
7.747719287872314453e-01,-1.019780132329077965e-01,-4.995651638047394760e-01,3.000002107251722450e-01,4.235537647147197965e-03,2.219531377370075109e+00,2.219530007278417205e+00,0.000000000000000000e+00,0.000000000000000000e+00,0.000000000000000000e+00,0.000000000000000000e+00,0.000000000000000000e+00,0.000000000000000000e+00,-1.465530697499410451e+00,-2.043443504964010060e+00,-2.118959252034322560e+00,1.020810723304748535e+00,-1.679879013692037404e+00,-3.141593043004171193e+00,0.000000000000000000e+00,0.000000000000000000e+00,0.000000000000000000e+00,0.000000000000000000e+00,0.000000000000000000e+00,0.000000000000000000e+00
7.888317108154296875e-01,-1.020737010258098987e-01,-4.995438192385167619e-01,3.000001934428831452e-01,4.441230803928404754e-03,2.219438181236666807e+00,2.219437337233296947e+00,-1.252455444895643651e-02,2.788132108571190256e-03,8.767362762039773312e-08,1.172105908168301011e-06,1.238631257160719977e-07,-2.425295440480093948e-02,-1.465720955525533498e+00,-2.043441597615377248e+00,-2.118963066731588185e+00,1.020812392234802246e+00,-1.679874245320455373e+00,-3.141593043004171193e+00,-2.490049041807651520e-02,2.478393435012549162e-04,-4.787470970768481493e-04,2.297291212016716599e-04,6.475360132753849030e-04,0.000000000000000000e+00
7.976264953613281250e-01,-1.023660697968652722e-01,-4.994785601914932816e-01,3.000001088174978348e-01,5.068735438745206393e-03,2.219154130787308610e+00,2.219154075733150044e+00,-3.822514442436975718e-02,8.532999844743392737e-03,2.672431010308653267e-07,3.578070383306009205e-06,3.753014651856050881e-07,-7.403086381964311957e-02,-1.466302220021383107e+00,-2.043435875569478810e+00,-2.118974510823385060e+00,1.020817756652832031e+00,-1.679858986531392873e+00,-3.141593043004171193e+00,-7.600743323564529419e-02,7.565165287815034389e-04,-1.461350242607295513e-03,7.012360147200524807e-04,1.976569416001439095e-03,0.000000000000000000e+00
8.057882785797119141e-01,-1.024775702488334855e-01,-4.994536846448057177e-01,2.999999489017612930e-01,5.308182590018362124e-03,2.219045596956402910e+00,2.219046067867389560e+00,-4.281722207147007492e-02,9.568162059571918426e-03,2.993920419673488174e-07,4.008399672633983940e-06,4.190091094320594247e-07,-8.292883168905895719e-02,-1.466523949299947560e+00,-2.043433968220845998e+00,-2.118978802357808888e+00,1.020819902420043945e+00,-1.679853264485494435e+00,-3.141593043004171193e+00,-8.514297008514404297e-02,8.474442292936146259e-04,-1.636993838474154472e-03,7.855193689465522766e-04,2.214138396084308624e-03,0.000000000000000000e+00
8.144571781158447266e-01,-1.024775702488334855e-01,-4.994536846448057177e-01,2.999999489017612930e-01,5.308182590018362124e-03,2.219045596956402910e+00,2.219046067867389560e+00,0.000000000000000000e+00,0.000000000000000000e+00,0.000000000000000000e+00,0.000000000000000000e+00,0.000000000000000000e+00,0.000000000000000000e+00,-1.466523949299947560e+00,-2.043433968220845998e+00,-2.118978802357808888e+00,1.020819902420043945e+00,-1.679853264485494435e+00,-3.141593043004171193e+00,0.000000000000000000e+00,0.000000000000000000e+00,0.000000000000000000e+00,0.000000000000000000e+00,0.000000000000000000e+00,0.000000000000000000e+00
8.230965137481689453e-01,-1.024775702488334855e-01,-4.994536846448057177e-01,2.999999489017612930e-01,5.308182590018362124e-03,2.219045596956402910e+00,2.219046067867389560e+00,0.000000000000000000e+00,0.000000000000000000e+00,0.000000000000000000e+00,0.000000000000000000e+00,0.000000000000000000e+00,0.000000000000000000e+00,-1.466523949299947560e+00,-2.043433968220845998e+00,-2.118978802357808888e+00,1.020819902420043945e+00,-1.679853264485494435e+00,-3.141593043004171193e+00,0.000000000000000000e+00,0.000000000000000000e+00,0.000000000000000000e+00,0.000000000000000000e+00,0.000000000000000000e+00,0.000000000000000000e+00
8.312921524047851562e-01,-1.025823398884060655e-01,-4.994302761493067955e-01,3.000001415448526054e-01,5.533253929192573708e-03,2.218944256453239561e+00,2.218943675183506326e+00,-1.377071479244137628e-02,3.084766832252981445e-03,6.243126720205126644e-08,8.464034398895500207e-07,8.857188069319992749e-08,-2.674092311644911402e-02,-1.466732327138082326e+00,-2.043431584035054982e+00,-2.118982617055074513e+00,1.020821809768676758e+00,-1.679848019276754201e+00,-3.141593043004171193e+00,-2.739478833973407745e-02,2.759896742645651102e-04,-5.330998683348298073e-04,2.562591689638793468e-04,6.538652232848107815e-04,0.000000000000000000e+00
8.402416706085205078e-01,-1.028984550024514416e-01,-4.993593238132937873e-01,3.000000471309501315e-01,6.213838602680024983e-03,2.218635897123098388e+00,2.218636104624264416e+00,-4.147676238409390287e-02,9.318860298925802504e-03,1.875739545678101785e-07,2.550015573902233021e-06,2.645168376202280203e-07,-8.055481570772775324e-02,-1.467361275349752248e+00,-2.043425385151998341e+00,-2.118995014821187794e+00,1.020827651023864746e+00,-1.679833237324849904e+00,-3.141593043004171193e+00,-8.252453058958053589e-02,8.313959697261452675e-04,-1.605919213034212589e-03,7.719595450907945633e-04,1.969714881852269173e-03,0.000000000000000000e+00
8.483023643493652344e-01,-1.031594233785834008e-01,-4.993006458482209253e-01,3.000000712096554945e-01,6.775341609149769517e-03,2.218381761570881849e+00,2.218381705865977160e+00,-3.417664367909442613e-02,7.699026189922035003e-03,2.047795268414865085e-07,2.014094162474339418e-06,2.080555127485742844e-07,-6.640492775477425946e-02,-1.467880551015035451e+00,-2.043420139943258107e+00,-2.119005028401510060e+00,1.020832538604736328e+00,-1.679820839558736623e+00,-3.141593043004171193e+00,-6.801130622625350952e-02,6.864537717774510384e-04,-1.325753168202936649e-03,6.372745847329497337e-04,1.606378471478819847e-03,0.000000000000000000e+00
8.576884269714355469e-01,-1.036816925761345765e-01,-4.991827822404840131e-01,3.000001193552800371e-01,7.899546925350721741e-03,2.217872559604675775e+00,2.217871977622396518e+00,-6.825828203651233828e-02,1.545328475614747218e-02,4.510399755296500290e-07,3.948283762530361345e-06,4.044759849900994291e-07,-1.326762202661477541e-01,-1.468920056019918263e+00,-2.043409649525777638e+00,-2.119025055562154591e+00,1.020842313766479492e+00,-1.679796520863668263e+00,-3.141593043004171193e+00,-1.358707249164581299e-01,1.372475991956889629e-03,-2.650503069162368774e-03,1.274058129638433456e-03,3.194504650309681892e-03,0.000000000000000000e+00
8.661842346191406250e-01,-1.038731018397486411e-01,-4.991393455510671484e-01,3.000000629282517650e-01,8.311330462930721988e-03,2.217685590331390344e+00,2.217685534040799489e+00,-7.347734312241117893e-02,1.666478456776714426e-02,4.916052595510939295e-07,4.239444512241804314e-06,4.318495979801690694e-07,-1.428366939071557262e-01,-1.469301048909322560e+00,-2.043405834828512013e+00,-2.119032684956685841e+00,1.020845890045166016e+00,-1.679787460957662404e+00,-3.141593043004171193e+00,-1.462735980749130249e-01,1.477723009884357452e-03,-2.853729063645005226e-03,1.371744670905172825e-03,3.436904167756438255e-03,0.000000000000000000e+00
8.748795986175537109e-01,-1.038731018397486411e-01,-4.991393455510671484e-01,3.000000629282517650e-01,8.311330462930721988e-03,2.217685590331390344e+00,2.217685534040799489e+00,0.000000000000000000e+00,0.000000000000000000e+00,0.000000000000000000e+00,0.000000000000000000e+00,0.000000000000000000e+00,0.000000000000000000e+00,-1.469301048909322560e+00,-2.043405834828512013e+00,-2.119032684956685841e+00,1.020845890045166016e+00,-1.679787460957662404e+00,-3.141593043004171193e+00,0.000000000000000000e+00,0.000000000000000000e+00,0.000000000000000000e+00,0.000000000000000000e+00,0.000000000000000000e+00,0.000000000000000000e+00
8.827059268951416016e-01,-1.038731018397486411e-01,-4.991393455510671484e-01,3.000000629282517650e-01,8.311330462930721988e-03,2.217685590331390344e+00,2.217685534040799489e+00,0.000000000000000000e+00,0.000000000000000000e+00,0.000000000000000000e+00,0.000000000000000000e+00,0.000000000000000000e+00,0.000000000000000000e+00,-1.469301048909322560e+00,-2.043405834828512013e+00,-2.119032684956685841e+00,1.020845890045166016e+00,-1.679787460957662404e+00,-3.141593043004171193e+00,0.000000000000000000e+00,0.000000000000000000e+00,0.000000000000000000e+00,0.000000000000000000e+00,0.000000000000000000e+00,0.000000000000000000e+00
8.915839195251464844e-01,-1.040437662088501414e-01,-4.991004985707515051e-01,3.000002371226991871e-01,8.680226584657143099e-03,2.217518604770138957e+00,2.217517759660041055e+00,-2.243625806660913546e-02,5.109118872758790751e-03,1.857200448418018824e-07,1.904194735857144169e-06,1.936229806038458901e-07,-4.379756434354898503e-02,-1.469641033803121388e+00,-2.043402020131246388e+00,-2.119039360676900685e+00,1.020849108695983887e+00,-1.679780785237447560e+00,-3.141593043004171193e+00,-4.469449818134307861e-02,4.611772601492702961e-04,-8.906798320822417736e-04,4.275885585229843855e-04,8.969338377937674522e-04,0.000000000000000000e+00
9.001753330230712891e-01,-1.043115896356378441e-01,-4.990393507992386679e-01,3.000000414892308176e-01,9.259189556607524962e-03,2.217255262714554309e+00,2.217255731801863305e+00,-3.515220527913000270e-02,8.026800571045928159e-03,3.023276202941468324e-07,2.210693932309366794e-06,2.229004746827652435e-07,-6.866189127322243346e-02,-1.470174614583150685e+00,-2.043396774922506154e+00,-2.119050327931539357e+00,1.020854234695434570e+00,-1.679770294819967091e+00,-3.141593043004171193e+00,-7.003959268331527710e-02,7.243399741128087044e-04,-1.398654188960790634e-03,6.720923120155930519e-04,1.377701410092413425e-03,0.000000000000000000e+00
9.087307453155517578e-01,-1.048193687155411224e-01,-4.989231849321675294e-01,3.000000896033006570e-01,1.035641583725468648e-02,2.216757175673425451e+00,2.216757118603157828e+00,-6.648849846616780579e-02,1.525432556692372064e-02,5.731676169253419085e-07,3.975910279935010909e-06,3.974172495316469471e-07,-1.299117305316022652e-01,-1.471186463032857716e+00,-2.043386284505025685e+00,-2.119070355092183888e+00,1.020864009857177734e+00,-1.679750267659322560e+00,-3.141593043004171193e+00,-1.325108110904693604e-01,1.370847690850496292e-03,-2.646945416927337646e-03,1.272102002985775471e-03,2.599080558866262436e-03,0.000000000000000000e+00
9.175238609313964844e-01,-1.052942068310747520e-01,-4.988139013619047879e-01,3.000001693398382518e-01,1.138306433663394471e-02,2.216290457577010375e+00,2.216290400115349168e+00,-6.203551969547302369e-02,1.429882300042821866e-02,5.920669852805049153e-07,3.476164342231796807e-06,3.441443115234785682e-07,-1.212905508000396426e-01,-1.472132984791890919e+00,-2.043376270924703419e+00,-2.119089428578512013e+00,1.020873069763183594e+00,-1.679732147847310841e+00,-3.141593043004171193e+00,-1.236728280782699585e-01,1.282424433156847954e-03,-2.475942950695753098e-03,1.190025359392166138e-03,2.382277278229594231e-03,0.000000000000000000e+00
9.287676811218261719e-01,-1.057939502872845688e-01,-4.986983657412510929e-01,3.000002283490605937e-01,1.246460031418783823e-02,2.215798438383593805e+00,2.215798117769592235e+00,-6.518946862551418253e-02,1.510710019038935016e-02,7.352874813117814818e-07,4.015693206829130553e-06,3.937898856390118603e-07,-1.276650598738334474e-01,-1.473129574452535451e+00,-2.043365780507222951e+00,-2.119109455739156544e+00,1.020882725715637207e+00,-1.679714028035299123e+00,-3.141593043004171193e+00,-1.300189495086669922e-01,1.357821864075958729e-03,-2.621245104819536209e-03,1.259388285689055920e-03,2.353889634832739830e-03,0.000000000000000000e+00
9.375777244567871094e-01,-1.066109109115755266e-01,-4.985083574264886908e-01,3.000000611966458508e-01,1.423298941889733493e-02,2.214992364154986682e+00,2.214992830943451896e+00,-1.063626874152817370e-01,2.483822873217862368e-02,1.244203324092915357e-06,6.706683811163346412e-06,6.452620404396296185e-07,-2.084568447899060317e-01,-1.474759403859273732e+00,-2.043349091206685841e+00,-2.119142357503072560e+00,1.020898580551147461e+00,-1.679684940968648732e+00,-3.141593043004171193e+00,-2.122364193201065063e-01,2.220438560470938683e-03,-4.286397714167833328e-03,2.059221500530838966e-03,3.779574530199170113e-03,0.000000000000000000e+00
9.456229209899902344e-01,-1.067177300083825414e-01,-4.984833844270480929e-01,3.000001439476708831e-01,1.446413106863996163e-02,2.214887075002729411e+00,2.214887279025423705e+00,-1.044972386633421790e-01,2.442670237281856227e-02,1.225076452320757245e-06,6.601093733799336760e-06,6.341296124365888885e-07,-2.048174405936138698e-01,-1.474972550068990529e+00,-2.043346707020894826e+00,-2.119146649037496388e+00,1.020900607109069824e+00,-1.679681126271383107e+00,-3.141593043004171193e+00,-2.085262238979339600e-01,2.181922784075140953e-03,-4.212037660181522369e-03,2.023483393713831902e-03,3.708783304318785667e-03,0.000000000000000000e+00
9.542818069458007812e-01,-1.067177300083825414e-01,-4.984833844270480929e-01,3.000001439476708831e-01,1.446413106863996163e-02,2.214887075002729411e+00,2.214887279025423705e+00,0.000000000000000000e+00,0.000000000000000000e+00,0.000000000000000000e+00,0.000000000000000000e+00,0.000000000000000000e+00,0.000000000000000000e+00,-1.474972550068990529e+00,-2.043346707020894826e+00,-2.119146649037496388e+00,1.020900607109069824e+00,-1.679681126271383107e+00,-3.141593043004171193e+00,0.000000000000000000e+00,0.000000000000000000e+00,0.000000000000000000e+00,0.000000000000000000e+00,0.000000000000000000e+00,0.000000000000000000e+00
9.627697467803955078e-01,-1.067177300083825414e-01,-4.984833844270480929e-01,3.000001439476708831e-01,1.446413106863996163e-02,2.214887075002729411e+00,2.214887279025423705e+00,0.000000000000000000e+00,0.000000000000000000e+00,0.000000000000000000e+00,0.000000000000000000e+00,0.000000000000000000e+00,0.000000000000000000e+00,-1.474972550068990529e+00,-2.043346707020894826e+00,-2.119146649037496388e+00,1.020900607109069824e+00,-1.679681126271383107e+00,-3.141593043004171193e+00,0.000000000000000000e+00,0.000000000000000000e+00,0.000000000000000000e+00,0.000000000000000000e+00,0.000000000000000000e+00,0.000000000000000000e+00
9.711906909942626953e-01,-1.067177300083825414e-01,-4.984833844270480929e-01,3.000001439476708831e-01,1.446413106863996163e-02,2.214887075002729411e+00,2.214887279025423705e+00,0.000000000000000000e+00,0.000000000000000000e+00,0.000000000000000000e+00,0.000000000000000000e+00,0.000000000000000000e+00,0.000000000000000000e+00,-1.474972550068990529e+00,-2.043346707020894826e+00,-2.119146649037496388e+00,1.020900607109069824e+00,-1.679681126271383107e+00,-3.141593043004171193e+00,0.000000000000000000e+00,0.000000000000000000e+00,0.000000000000000000e+00,0.000000000000000000e+00,0.000000000000000000e+00,0.000000000000000000e+00
9.805657863616943359e-01,-1.068933118298221602e-01,-4.984422405670175804e-01,3.000001973342670269e-01,1.484476520801370110e-02,2.214713564431984860e+00,2.214713505650719227e+00,-2.313163103561330716e-02,5.421551417136821760e-03,1.412203255258760156e-07,1.774228959949559094e-06,1.699260249797780616e-07,-4.542601428693123639e-02,-1.475323025380269826e+00,-2.043342892323629201e+00,-2.119153801594869435e+00,1.020904064178466797e+00,-1.679675404225484669e+00,-3.141593043004171193e+00,-4.617600142955780029e-02,4.874101432505995035e-04,-9.414427331648766994e-04,4.522502422332763672e-04,7.499871426261961460e-04,0.000000000000000000e+00
9.894878864288330078e-01,-1.071605413272855439e-01,-4.983794711096213303e-01,3.000002224925412131e-01,1.542483628067217033e-02,2.214448845122107379e+00,2.214448786119739498e+00,-3.510877319777015032e-02,8.251241470233454042e-03,3.966730422956339155e-07,2.131813511547830900e-06,2.030305899459770675e-07,-6.899342534597920074e-02,-1.475856606160299123e+00,-2.043337170277730763e+00,-2.119164768849508107e+00,1.020909309387207031e+00,-1.679667297993795216e+00,-3.141593043004171193e+00,-7.010015845298767090e-02,7.422227645292878151e-04,-1.432833960279822350e-03,6.884697359055280685e-04,1.106733107008039951e-03,0.000000000000000000e+00
9.981844425201416016e-01,-1.074909894925756698e-01,-4.983017922489520468e-01,3.000001073115549088e-01,1.614212921713809035e-02,2.214121073794080630e+00,2.214121539699287933e+00,-4.334081637696743372e-02,1.021992086605361463e-02,3.660988703764245186e-07,2.907220057033425724e-06,2.746221652770782665e-07,-8.523719257209393108e-02,-1.476516548787252248e+00,-2.043330494557515919e+00,-2.119178120289937794e+00,1.020915746688842773e+00,-1.679657284413472951e+00,-3.141593043004171193e+00,-8.655907213687896729e-02,9.189668926410377026e-04,-1.774530624970793724e-03,8.526435703970491886e-04,1.321879564784467220e-03,0.000000000000000000e+00
1.006617069244384766e+00,-1.078769937156360548e-01,-4.982105610046470012e-01,3.000003152437866194e-01,1.698011048280271412e-02,2.213738639953178211e+00,2.213738055245479064e+00,-5.049232898805548070e-02,1.195239366583785746e-02,6.080622869036844571e-07,3.373660889681229945e-06,3.167804249528774014e-07,-9.938734094612237946e-02,-1.477287594472066701e+00,-2.043321911488668263e+00,-2.119193855916158498e+00,1.020923376083374023e+00,-1.679645840321676076e+00,-3.141593043004171193e+00,-1.008715778589248657e-01,1.074800733476877213e-03,-2.074831863865256310e-03,9.966426296159625053e-04,1.484236912801861763e-03,0.000000000000000000e+00
1.015156507492065430e+00,-1.083182310435307910e-01,-4.981057835231437747e-01,3.000000631314381216e-01,1.793888306999949153e-02,2.213299344993441498e+00,2.213300597618142795e+00,-5.759039326498264361e-02,1.369213100742539338e-02,6.482175171067786769e-07,3.735719720275516140e-06,3.460871394575813813e-07,-1.134632512694219719e-01,-1.478169266377584279e+00,-2.043312851582662404e+00,-2.119212452565328419e+00,1.020932078361511230e+00,-1.679633442555562794e+00,-3.141593043004171193e+00,-1.150896400213241577e-01,1.230345224030315876e-03,-2.375218784436583519e-03,1.141121843829751015e-03,1.626388751901686192e-03,0.000000000000000000e+00
1.024880647659301758e+00,-1.088177426081356342e-01,-4.979867183893038618e-01,3.000002220920152118e-01,1.902484319304784122e-02,2.212802738876643804e+00,2.212802940974726074e+00,-6.506833850959929666e-02,1.554982833619646988e-02,7.781493038325132434e-07,3.965876347635302951e-06,3.642443801222020168e-07,-1.283817705698303002e-01,-1.479167763386861623e+00,-2.043301884328023732e+00,-2.119232956563131154e+00,1.020942091941833496e+00,-1.679620091115133107e+00,-3.141593043004171193e+00,-1.300899237394332886e-01,1.398875610902905464e-03,-2.700339769944548607e-03,1.297481590881943703e-03,1.708153169602155685e-03,0.000000000000000000e+00
1.035481452941894531e+00,-1.096453403278239008e-01,-4.977882231271530955e-01,3.000001559982952704e-01,2.082522798162669483e-02,2.211977446206560671e+00,2.211977909943221299e+00,-1.076712479623686131e-01,2.592552565204036402e-02,1.303591087099521144e-06,6.458390414330790113e-06,5.820593988802696719e-07,-2.125946152955280888e-01,-1.480822865162984669e+00,-2.043284241353170216e+00,-2.119267288838521779e+00,1.020958662033081055e+00,-1.679599110280172169e+00,-3.141593043004171193e+00,-2.153677195310592651e-01,2.319318940863013268e-03,-4.477033857256174088e-03,2.151230350136756897e-03,2.773104235529899597e-03,0.000000000000000000e+00
1.043715238571166992e+00,-1.104172241020549561e-01,-4.976015699738695064e-01,3.000001203787937554e-01,2.250517218079232593e-02,2.211206027914052630e+00,2.211207015531154951e+00,-1.002529162584675643e-01,2.431879233223680631e-02,1.224554282545753769e-06,5.711380643251796899e-06,5.052760552990370596e-07,-1.982305767014613529e-01,-1.482367340718404591e+00,-2.043267552052633107e+00,-2.119299713765279591e+00,1.020974159240722656e+00,-1.679580513631002248e+00,-3.141593043004171193e+00,-2.006408870220184326e-01,2.171633299440145493e-03,-4.191821906715631485e-03,2.014454919844865799e-03,2.410310320556163788e-03,0.000000000000000000e+00
1.052573919296264648e+00,-1.112013018808781090e-01,-4.974106115220245927e-01,3.000001847513869002e-01,2.421276317866971617e-02,2.210421080004459249e+00,2.210421804429938852e+00,-1.016908913976769663e-01,2.485178869702723073e-02,9.482048981877888588e-07,6.883268219538080894e-06,5.986198986603936281e-07,-2.013532205019133436e-01,-1.483937088643209279e+00,-2.043250385914937794e+00,-2.119332615529195607e+00,1.020990014076232910e+00,-1.679562870656148732e+00,-3.141593043004171193e+00,-2.036324888467788696e-01,2.213947009295225143e-03,-4.274812061339616776e-03,2.053955802693963051e-03,2.279268344864249229e-03,0.000000000000000000e+00
1.061514616012573242e+00,-1.120354153031540151e-01,-4.972059223605108658e-01,3.000001196886095123e-01,2.603029339572538250e-02,2.209583902339148587e+00,2.209585150214028459e+00,-1.079992828681002326e-01,2.659996683927306343e-02,9.685053873580184634e-07,7.002384879704734764e-06,5.966744164353397699e-07,-2.141359492670733833e-01,-1.485607926045553029e+00,-2.043232266102926076e+00,-2.119367901478902638e+00,1.021006941795349121e+00,-1.679545227681295216e+00,-3.141593043004171193e+00,-2.163905203342437744e-01,2.362952101975679398e-03,-4.562542308121919632e-03,2.192562445998191833e-03,2.254571067169308662e-03,0.000000000000000000e+00
1.070120334625244141e+00,-1.129424411664885219e-01,-4.969814555769954678e-01,3.000001470767132417e-01,2.800930019108176933e-02,2.208670929312467557e+00,2.208672438124206217e+00,-1.173495149786441677e-01,2.915294838932078539e-02,1.322152427624410593e-06,7.182829545891187076e-06,5.987090035401982553e-07,-2.331008536275466780e-01,-1.487426106129781544e+00,-2.043212238942281544e+00,-2.119406525288717091e+00,1.021025419235229492e+00,-1.679528538380758107e+00,-3.141593043004171193e+00,-2.352863997220993042e-01,2.586398972198367119e-03,-4.992941860109567642e-03,2.399335149675607681e-03,2.185546094551682472e-03,0.000000000000000000e+00
1.078862667083740234e+00,-1.139403542810477205e-01,-4.967321760445341239e-01,3.000002461716242963e-01,3.018860976016140771e-02,2.207663920670018598e+00,2.207665166096057341e+00,-1.289236004341854647e-01,3.233236941407480886e-02,1.457516837222209146e-06,8.126847725058032837e-06,6.615484463630225639e-07,-2.566305457148687630e-01,-1.489427868519918263e+00,-2.043189827595845998e+00,-2.119449440632955373e+00,1.021046042442321777e+00,-1.679512325917379201e+00,-3.141593043004171193e+00,-2.586927115917205811e-01,2.864836249500513077e-03,-5.530501715838909149e-03,2.657511737197637558e-03,2.062165876850485802e-03,0.000000000000000000e+00
1.087117433547973633e+00,-1.150435602454444456e-01,-4.964539466870604434e-01,3.000003071471098459e-01,3.260168745421157532e-02,2.206546456764611364e+00,2.206547700767065301e+00,-1.423867490332662300e-01,3.608022996037148211e-02,1.773535755682314729e-06,8.815769505983084403e-06,6.981863309697995817e-07,-2.840811725473016969e-01,-1.491642777119771779e+00,-2.043165032063619435e+00,-2.119497124348775685e+00,1.021068930625915527e+00,-1.679498020802633107e+00,-3.141593043004171193e+00,-2.859524190425872803e-01,3.192522795870900154e-03,-6.162486039102077484e-03,2.961119869723916054e-03,1.871246495284140110e-03,0.000000000000000000e+00
1.096051931381225586e+00,-1.162663285734472224e-01,-4.961421907100123652e-01,3.000003201898288618e-01,3.527967465104327183e-02,2.205303357753192195e+00,2.205304861971377317e+00,-1.576519184996483802e-01,4.040331022276515138e-02,1.943415906588968048e-06,9.400844227405071780e-06,7.213223687595537306e-07,-3.153145826654493167e-01,-1.494099918995992482e+00,-2.043137375508443654e+00,-2.119550530110494435e+00,1.021094560623168945e+00,-1.679485623036519826e+00,-3.141593043004171193e+00,-3.169090747833251953e-01,3.568055806681513786e-03,-6.887322291731834412e-03,3.309838008135557175e-03,1.594492117874324322e-03,0.000000000000000000e+00
1.105865955352783203e+00,-1.176235502277103856e-01,-4.957922135878018444e-01,3.000001536426362136e-01,3.825506690931169268e-02,2.203918469747506492e+00,2.203920757097276528e+00,-1.747834219392044031e-01,4.534075515093922287e-02,2.175585147178801865e-06,1.008313014335620853e-05,7.457550139383807827e-07,-3.503371542319642096e-01,-1.496829811726705373e+00,-2.043106857930318654e+00,-2.119610134755269826e+00,1.021123290061950684e+00,-1.679475132619039357e+00,-3.141593043004171193e+00,-3.516890704631805420e-01,3.985766787081956863e-03,-7.693428080528974533e-03,3.697550622746348381e-03,1.351916231215000153e-03,0.000000000000000000e+00
1.114742755889892578e+00,-1.191305382893311920e-01,-4.953985301599142521e-01,3.000002827673790562e-01,4.156104986153764946e-02,2.202375887151172495e+00,2.202377910450549425e+00,-1.939196823704340544e-01,5.097122423807953079e-02,2.121000247781331404e-06,1.246095400626448352e-05,8.843469474092525354e-07,-3.895031418651321298e-01,-1.499863926564351857e+00,-2.043072048817769826e+00,-2.119676891957418263e+00,1.021155357360839844e+00,-1.679466549550191701e+00,-3.141593043004171193e+00,-3.906014561653137207e-01,4.451425746083259583e-03,-8.593589067459106445e-03,4.129671026021242142e-03,1.098314300179481506e-03,0.000000000000000000e+00
1.123105287551879883e+00,-1.208049054184399396e-01,-4.949549993924085012e-01,3.000002235539700468e-01,4.523844737831046042e-02,2.200654246784643497e+00,2.200656790185117284e+00,-2.152516318266785578e-01,5.741000954518873239e-02,2.196421451345957312e-06,1.425116108125897756e-05,9.634998713414790302e-07,-4.334646348142971450e-01,-1.503238979970113576e+00,-2.043033425007955373e+00,-2.119751755391256154e+00,1.021191358566284180e+00,-1.679461781178609669e+00,-3.141593043004171193e+00,-4.340950250625610352e-01,4.983850754797458649e-03,-9.622059762477874756e-03,4.623925313353538513e-03,6.303902482613921165e-04,0.000000000000000000e+00
1.131362676620483398e+00,-1.226658461205503009e-01,-4.944544481365849009e-01,3.000002086780463317e-01,4.933065834762604546e-02,2.198731751576060045e+00,2.198734814071741983e+00,-2.390464088196005976e-01,6.478841227375042866e-02,2.555400491840017298e-06,1.574961193093779403e-05,1.006290857790434608e-06,-4.828017571817294074e-01,-1.506995026265279591e+00,-2.042990032826558888e+00,-2.119835678731099904e+00,1.021231651306152344e+00,-1.679462258015767873e+00,-3.141593043004171193e+00,-4.827453792095184326e-01,5.590084474533796310e-03,-1.079200487583875656e-02,5.186138674616813660e-03,-5.637797221424989402e-05,0.000000000000000000e+00
1.139981269836425781e+00,-1.247354247541283823e-01,-4.938882066983973362e-01,3.000003281932046018e-01,5.388782653537444595e-02,2.196582906722958750e+00,2.196585704127356209e+00,-2.656285714623907168e-01,7.327154653147718855e-02,3.084877647269087346e-06,1.712580252675809751e-05,1.023492546413042580e-06,-5.382475588703485858e-01,-1.511178318654195607e+00,-2.042940918599263966e+00,-2.119930092488424123e+00,1.021277070045471191e+00,-1.679469887410299123e+00,-3.141593043004171193e+00,-5.372590422630310059e-01,6.279435940086841583e-03,-1.212181802839040756e-02,5.825225729495286942e-03,-9.885166073217988014e-04,0.000000000000000000e+00
1.148608207702636719e+00,-1.270388954376151791e-01,-4.932465209729445799e-01,3.000003515589131364e-01,5.896521917847338812e-02,2.194178167769585297e+00,2.194181221610816745e+00,-2.954083990820333128e-01,8.305209787528526622e-02,3.337724622428461866e-06,1.954902031335562746e-05,1.078162719086777762e-06,-6.004574720282048750e-01,-1.515841786061422169e+00,-2.042886082326070607e+00,-2.120035950337545216e+00,1.021327972412109375e+00,-1.679485146199361623e+00,-3.141593043004171193e+00,-5.984894633293151855e-01,7.049119565635919571e-03,-1.360797323286533356e-02,6.539274938404560089e-03,-1.968008698895573616e-03,0.000000000000000000e+00
1.157566785812377930e+00,-1.278849897664779134e-01,-4.930077420983616232e-01,3.000004780120626990e-01,6.083002145772907487e-02,2.193292508188713796e+00,2.193295038938824160e+00,-2.217548642645862655e-01,6.276897485718981040e-02,2.484739922848639221e-06,1.475439726671535634e-05,7.881463767951882934e-07,-4.511369905667338420e-01,-1.517556492482320607e+00,-2.042865578328267873e+00,-2.120075050984517873e+00,1.021346807479858398e+00,-1.679491345082418263e+00,-3.141593043004171193e+00,-4.495285749435424805e-01,5.302747711539268494e-03,-1.023674290627241135e-02,4.919219762086868286e-03,-1.608415623195469379e-03,0.000000000000000000e+00
1.165536403656005859e+00,-1.286509201243190570e-01,-4.927903619617803876e-01,3.000004121450244310e-01,6.251792510619126608e-02,2.192489131284995896e+00,2.192492181920366878e+00,-9.571174318538816506e-02,2.725348595402238977e-02,1.068147685917384393e-06,6.371919567776742205e-06,3.306158650412935053e-07,-1.948085405165309592e-01,-1.519109551106588185e+00,-2.042847458516256154e+00,-2.120110336934224904e+00,1.021363735198974609e+00,-1.679497067128316701e+00,-3.141593043004171193e+00,-1.941139996051788330e-01,2.289815573021769524e-03,-4.420397803187370300e-03,2.124201739206910133e-03,-6.945409113541245461e-04,0.000000000000000000e+00
1.174364805221557617e+00,-1.286509201243190570e-01,-4.927903619617803876e-01,3.000004121450244310e-01,6.251792510619126608e-02,2.192489131284995896e+00,2.192492181920366878e+00,0.000000000000000000e+00,0.000000000000000000e+00,0.000000000000000000e+00,0.000000000000000000e+00,0.000000000000000000e+00,0.000000000000000000e+00,-1.519109551106588185e+00,-2.042847458516256154e+00,-2.120110336934224904e+00,1.021363735198974609e+00,-1.679497067128316701e+00,-3.141593043004171193e+00,0.000000000000000000e+00,0.000000000000000000e+00,0.000000000000000000e+00,0.000000000000000000e+00,0.000000000000000000e+00,0.000000000000000000e+00
1.182676553726196289e+00,-1.286509201243190570e-01,-4.927903619617803876e-01,3.000004121450244310e-01,6.251792510619126608e-02,2.192489131284995896e+00,2.192492181920366878e+00,0.000000000000000000e+00,0.000000000000000000e+00,0.000000000000000000e+00,0.000000000000000000e+00,0.000000000000000000e+00,0.000000000000000000e+00,-1.519109551106588185e+00,-2.042847458516256154e+00,-2.120110336934224904e+00,1.021363735198974609e+00,-1.679497067128316701e+00,-3.141593043004171193e+00,0.000000000000000000e+00,0.000000000000000000e+00,0.000000000000000000e+00,0.000000000000000000e+00,0.000000000000000000e+00,0.000000000000000000e+00
1.191290616989135742e+00,-1.286509201243190570e-01,-4.927903619617803876e-01,3.000004121450244310e-01,6.251792510619126608e-02,2.192489131284995896e+00,2.192492181920366878e+00,0.000000000000000000e+00,0.000000000000000000e+00,0.000000000000000000e+00,0.000000000000000000e+00,0.000000000000000000e+00,0.000000000000000000e+00,-1.519109551106588185e+00,-2.042847458516256154e+00,-2.120110336934224904e+00,1.021363735198974609e+00,-1.679497067128316701e+00,-3.141593043004171193e+00,0.000000000000000000e+00,0.000000000000000000e+00,0.000000000000000000e+00,0.000000000000000000e+00,0.000000000000000000e+00,0.000000000000000000e+00
1.199775218963623047e+00,-1.290900242183875279e-01,-4.926647892936945605e-01,3.000002509709767118e-01,6.348916822820568906e-02,2.192025843603096824e+00,2.192030196304008971e+00,-5.673435877543865635e-02,1.624309713796241034e-02,6.831951385420125929e-07,3.339866565504836866e-06,1.714312391032173323e-07,-1.159832207486010264e-01,-1.520000759755269826e+00,-2.042836968098775685e+00,-2.120131317769185841e+00,1.021373629570007324e+00,-1.679503266011373341e+00,-3.141593043004171193e+00,-1.151679977774620056e-01,1.383817289024591446e-03,-2.671116730198264122e-03,1.283955178223550320e-03,-8.152229711413383484e-04,0.000000000000000000e+00
1.208034992218017578e+00,-1.296069843188459303e-01,-4.925164455396278118e-01,3.000003808337872169e-01,6.463217685080760444e-02,2.191481180861361455e+00,2.191484750661537362e+00,-9.140089462960135358e-02,2.627265823461926927e-02,1.096994540759803095e-06,5.382556407283870262e-06,2.701459540703620287e-07,-1.869137773755908949e-01,-1.521050278340474904e+00,-2.042824093495504201e+00,-2.120155636464254201e+00,1.021385431289672852e+00,-1.679510418568746388e+00,-3.141593043004171193e+00,-1.855999976396560669e-01,2.230102894827723503e-03,-4.304661415517330170e-03,2.069169189780950546e-03,-1.313779735937714577e-03,0.000000000000000000e+00
1.216597318649291992e+00,-1.296069843188459303e-01,-4.925164455396278118e-01,3.000003808337872169e-01,6.463217685080760444e-02,2.191481180861361455e+00,2.191484750661537362e+00,0.000000000000000000e+00,0.000000000000000000e+00,0.000000000000000000e+00,0.000000000000000000e+00,0.000000000000000000e+00,0.000000000000000000e+00,-1.521050278340474904e+00,-2.042824093495504201e+00,-2.120155636464254201e+00,1.021385431289672852e+00,-1.679510418568746388e+00,-3.141593043004171193e+00,0.000000000000000000e+00,0.000000000000000000e+00,0.000000000000000000e+00,0.000000000000000000e+00,0.000000000000000000e+00,0.000000000000000000e+00
1.226361989974975586e+00,-1.296069843188459303e-01,-4.925164455396278118e-01,3.000003808337872169e-01,6.463217685080760444e-02,2.191481180861361455e+00,2.191484750661537362e+00,0.000000000000000000e+00,0.000000000000000000e+00,0.000000000000000000e+00,0.000000000000000000e+00,0.000000000000000000e+00,0.000000000000000000e+00,-1.521050278340474904e+00,-2.042824093495504201e+00,-2.120155636464254201e+00,1.021385431289672852e+00,-1.679510418568746388e+00,-3.141593043004171193e+00,0.000000000000000000e+00,0.000000000000000000e+00,0.000000000000000000e+00,0.000000000000000000e+00,0.000000000000000000e+00,0.000000000000000000e+00
1.236031055450439453e+00,-1.299606988455059287e-01,-4.924144509361586541e-01,3.000005673039893850e-01,6.541945064240732577e-02,2.191106062541234856e+00,2.191108329036886460e+00,-4.588530678280632741e-02,1.326355703728803251e-02,5.639305441533102728e-07,2.822993636545798924e-06,1.396937532606793236e-07,-9.440340893342970274e-02,-1.521769348775045216e+00,-2.042815033589498341e+00,-2.120172325764791310e+00,1.021393656730651855e+00,-1.679519478474752248e+00,-3.141593043004171193e+00,-9.328000247478485107e-02,1.149718998931348324e-03,-2.219262300059199333e-03,1.066716853529214859e-03,-1.123406458646059036e-03,0.000000000000000000e+00
1.244813442230224609e+00,-1.305433878179522444e-01,-4.922455152819657509e-01,3.000003385333714356e-01,6.671671718488639269e-02,2.190485648915117434e+00,2.190489477088440662e+00,-7.546268084436703882e-02,2.192188848279071761e-02,8.072879577515912056e-07,4.972404739933145243e-06,2.415775245675649495e-07,-1.554744674358475853e-01,-1.522954289113179982e+00,-2.042800728474752248e+00,-2.120200935994283498e+00,1.021407246589660645e+00,-1.679534737263814748e+00,-3.141593043004171193e+00,-1.534896045923233032e-01,1.900129020214080811e-03,-3.668255638331174850e-03,1.763148349709808826e-03,-1.984862843528389931e-03,0.000000000000000000e+00
1.253553152084350586e+00,-1.312960635192557401e-01,-4.920261334869686642e-01,3.000003735522380754e-01,6.839424924530457250e-02,2.189683247190105320e+00,2.189687073617799129e+00,-9.736688033902556050e-02,2.846436218570249158e-02,1.076048081813112855e-06,6.459014240934621554e-06,3.042159973885129345e-07,-2.009391339961383027e-01,-1.524485890065328419e+00,-2.042781654988424123e+00,-2.120237652455465138e+00,1.021424889564514160e+00,-1.679556194935933888e+00,-3.141593043004171193e+00,-1.981748640537261963e-01,2.465935191139578819e-03,-4.760448355227708817e-03,2.288046991452574730e-03,-2.764269942417740822e-03,0.000000000000000000e+00
1.262030839920043945e+00,-1.321929431881457284e-01,-4.917627906768182733e-01,3.000003518739194908e-01,7.039473475040271266e-02,2.188724557072893262e+00,2.188728901986416009e+00,-1.158868115554934075e-01,3.413139478367978319e-02,1.377834080396078880e-06,7.632229904100511908e-06,3.468687032978292667e-07,-2.396119872573676257e-01,-1.526312176381246388e+00,-2.042758766804830373e+00,-2.120281998311178029e+00,1.021446108818054199e+00,-1.679583374653951466e+00,-3.141593043004171193e+00,-2.360546737909317017e-01,2.953874180093407631e-03,-5.702049937099218369e-03,2.740535652264952660e-03,-3.557313466444611549e-03,0.000000000000000000e+00
1.270589590072631836e+00,-1.332256541617905243e-01,-4.914572479706424413e-01,3.000004928803298720e-01,7.270136129448459550e-02,2.187617552135310284e+00,2.187621374070124691e+00,-1.332621696422044144e-01,3.958255998897200478e-02,1.573564951696766209e-06,8.671337157321281602e-06,3.755148542297014496e-07,-2.761124302633020111e-01,-1.528416935597554982e+00,-2.042732063923970998e+00,-2.120333019887105763e+00,1.021470665931701660e+00,-1.679617706929342091e+00,-3.141593043004171193e+00,-2.716904282569885254e-01,3.420262131839990616e-03,-6.602329667657613754e-03,3.173388075083494186e-03,-4.422002006322145462e-03,0.000000000000000000e+00
1.279276371002197266e+00,-1.343946877998812295e-01,-4.911081029707028422e-01,3.000003456855442896e-01,7.531743756494335695e-02,2.186358519193125627e+00,2.186363378659526013e+00,-1.507237328876018523e-01,4.521280469451419148e-02,1.704252966765370279e-06,1.009649905316136282e-05,4.166087506425989926e-07,-3.132526311091916593e-01,-1.530802075062887013e+00,-2.042702023183004201e+00,-2.120391670857564748e+00,1.021498799324035645e+00,-1.679661099110738576e+00,-3.141593043004171193e+00,-3.076387941837310791e-01,3.910555504262447357e-03,-7.549100089818239212e-03,3.628439502790570259e-03,-5.613836925476789474e-03,0.000000000000000000e+00
1.287685155868530273e+00,-1.357071421707077008e-01,-4.907119778931968712e-01,3.000005717650977566e-01,7.826229222242286898e-02,2.184938893122330583e+00,2.184942449295706357e+00,-1.690392251473617213e-01,5.127285780609346783e-02,1.792561590917210688e-06,1.185169943493204268e-05,4.541808790583600077e-07,-3.526174286380289180e-01,-1.533483330403463185e+00,-2.042667214070455373e+00,-2.120457951222554982e+00,1.021530866622924805e+00,-1.679716889058248341e+00,-3.141593043004171193e+00,-3.454779982566833496e-01,4.443492274731397629e-03,-8.578431792557239532e-03,4.123079124838113785e-03,-7.139430381357669830e-03,0.000000000000000000e+00
1.295729875564575195e+00,-1.371743691725926251e-01,-4.902640628221358599e-01,3.000004010005442034e-01,8.155995999742206293e-02,2.183343477556769940e+00,2.183348329352548856e+00,-1.887633483495013142e-01,5.794181604517852774e-02,1.979280609617710329e-06,1.291428683088498854e-05,4.629286927270919140e-07,-3.950752317905179556e-01,-1.536484543477193654e+00,-2.042628590260640919e+00,-2.120533291493551076e+00,1.021566987037658691e+00,-1.679784599934713185e+00,-3.141593043004171193e+00,-3.863158226013183594e-01,5.017098039388656616e-03,-9.685744531452655792e-03,4.655723925679922104e-03,-8.759409189224243164e-03,0.000000000000000000e+00
1.304787158966064453e+00,-1.388101784857669330e-01,-4.897582376498372803e-01,3.000005946264781009e-01,8.524609405787875183e-02,2.181555615529200853e+00,2.181559683907504876e+00,-2.102877685333901792e-01,6.541476910538776557e-02,2.279867065500127044e-06,1.461551981156705558e-05,4.731268811091305773e-07,-4.419190231710449779e-01,-1.539835755025045216e+00,-2.042584244404928029e+00,-2.120618168507711232e+00,1.021607875823974609e+00,-1.679869000111715138e+00,-3.141593043004171193e+00,-4.310522377490997314e-01,5.666533950716257095e-03,-1.093926187604665756e-02,5.258104763925075531e-03,-1.086678542196750641e-02,0.000000000000000000e+00
1.313895940780639648e+00,-1.406322803245450836e-01,-4.891870272024357869e-01,3.000005921215737059e-01,8.936081934497649981e-02,2.179552293313617550e+00,2.179556876028503343e+00,-2.340302746848309801e-01,7.385186049692595012e-02,2.517517648833171781e-06,1.633696453673921638e-05,4.727683252864645075e-07,-4.936859365552334067e-01,-1.543574635182515919e+00,-2.042534653340474904e+00,-2.120714012776510060e+00,1.021653890609741211e+00,-1.679971520100728810e+00,-3.141593043004171193e+00,-4.805241227149963379e-01,6.382153369486331940e-03,-1.232076808810234070e-02,5.922270938754081726e-03,-1.316181384027004242e-02,0.000000000000000000e+00
1.322070360183715820e+00,-1.426611987618926769e-01,-4.885413021331794781e-01,3.000004834454443325e-01,9.395072231365086957e-02,2.177308750211875310e+00,2.177314364347061382e+00,-2.603782799770202883e-01,8.345576209753335917e-02,2.713301280726862598e-06,1.814897025618941086e-05,4.593631534056183576e-07,-5.513395890592959203e-01,-1.547745052968160451e+00,-2.042478863392965138e+00,-2.120822254811422169e+00,1.021705865859985352e+00,-1.680094067250387013e+00,-3.141593043004171193e+00,-5.355930924415588379e-01,7.180567365139722824e-03,-1.386227738112211227e-02,6.663555279374122620e-03,-1.574649661779403687e-02,0.000000000000000000e+00
1.330635547637939453e+00,-1.449201591741494377e-01,-4.878102193415302934e-01,3.000005897836180990e-01,9.907897959440591096e-02,2.174791889492819319e+00,2.174797237533401262e+00,-2.896740596555461567e-01,9.450858012334856229e-02,3.188005096556475311e-06,1.994233183126674550e-05,4.155266588288188960e-07,-6.167996600269627372e-01,-1.552398506795064748e+00,-2.042415444050924123e+00,-2.120944325123922169e+00,1.021764636039733887e+00,-1.680247131978170216e+00,-3.141593043004171193e+00,-5.972067117691040039e-01,8.133972994983196259e-03,-1.570206321775913239e-02,7.548143621534109116e-03,-1.959294825792312622e-02,0.000000000000000000e+00
1.339048147201538086e+00,-1.474370557901936440e-01,-4.869804629987943834e-01,3.000004625623216570e-01,1.048080013885232392e-01,2.171965743561146578e+00,2.171972636286480185e+00,-3.224854489525161294e-01,1.072372047437165493e-01,3.389052416082795411e-06,2.196977539541090661e-05,3.660706000159597429e-07,-6.902437973766258894e-01,-1.557595078145162404e+00,-2.042343918477193654e+00,-2.121083084736959279e+00,1.021831154823303223e+00,-1.680432621632711232e+00,-3.141593043004171193e+00,-6.664493083953857422e-01,9.197331964969635010e-03,-1.775508560240268707e-02,8.535780943930149078e-03,-2.379448898136615753e-02,0.000000000000000000e+00
1.347127437591552734e+00,-1.482535373294441849e-01,-4.867082056340386043e-01,3.000005285486433415e-01,1.066667255223863742e-01,2.171046222370867529e+00,2.171052594784367074e+00,-2.158694899566523107e-01,7.221018833384861002e-02,2.240083257703954777e-06,1.468124209396189596e-05,2.168837005836594827e-07,-4.626179579644658091e-01,-1.559283081685201466e+00,-2.042320553456441701e+00,-2.121127907429830373e+00,1.021852850914001465e+00,-1.680493656788961232e+00,-3.141593043004171193e+00,-4.464345574378967285e-01,6.176237016916275024e-03,-1.192301698029041290e-02,5.732097197324037552e-03,-1.618340052664279938e-02,0.000000000000000000e+00
1.355512619018554688e+00,-1.489918559050127933e-01,-4.864604601217052959e-01,3.000006447194081272e-01,1.083473216599315919e-01,2.170213418761096857e+00,2.170219530027245547e+00,-9.227502528854220065e-02,3.102396396708023696e-02,9.505948304387290151e-07,6.279398913342178594e-06,8.234639128429020134e-08,-1.978592989034659022e-01,-1.560810391102926076e+00,-2.042299095784322560e+00,-2.121168915425435841e+00,1.021872520446777344e+00,-1.680548969899312794e+00,-3.141593043004171193e+00,-1.909377425909042358e-01,2.641544444486498833e-03,-5.099412519484758377e-03,2.451588166877627373e-03,-6.921556312590837479e-03,0.000000000000000000e+00
1.364343166351318359e+00,-1.489918559050127933e-01,-4.864604601217052959e-01,3.000006447194081272e-01,1.083473216599315919e-01,2.170213418761096857e+00,2.170219530027245547e+00,0.000000000000000000e+00,0.000000000000000000e+00,0.000000000000000000e+00,0.000000000000000000e+00,0.000000000000000000e+00,0.000000000000000000e+00,-1.560810391102926076e+00,-2.042299095784322560e+00,-2.121168915425435841e+00,1.021872520446777344e+00,-1.680548969899312794e+00,-3.141593043004171193e+00,0.000000000000000000e+00,0.000000000000000000e+00,0.000000000000000000e+00,0.000000000000000000e+00,0.000000000000000000e+00,0.000000000000000000e+00
1.372708320617675781e+00,-1.489918559050127933e-01,-4.864604601217052959e-01,3.000006447194081272e-01,1.083473216599315919e-01,2.170213418761096857e+00,2.170219530027245547e+00,0.000000000000000000e+00,0.000000000000000000e+00,0.000000000000000000e+00,0.000000000000000000e+00,0.000000000000000000e+00,0.000000000000000000e+00,-1.560810391102926076e+00,-2.042299095784322560e+00,-2.121168915425435841e+00,1.021872520446777344e+00,-1.680548969899312794e+00,-3.141593043004171193e+00,0.000000000000000000e+00,0.000000000000000000e+00,0.000000000000000000e+00,0.000000000000000000e+00,0.000000000000000000e+00,0.000000000000000000e+00
1.381627798080444336e+00,-1.495296980411936483e-01,-4.862783969128780526e-01,3.000007266153444929e-01,1.095860993305094316e-01,2.169598792005788646e+00,2.169604642911340697e+00,-6.924408090932351878e-02,2.348939289922920975e-02,7.804985037224668562e-07,4.516925233414045223e-06,5.819422278544370875e-08,-1.502844388596457914e-01,-1.561925713215963185e+00,-2.042282883320943654e+00,-2.121199909840719044e+00,1.021887421607971191e+00,-1.680600945149556935e+00,-3.141593043004171193e+00,-1.436160057783126831e-01,2.078242599964141846e-03,-4.011723212897777557e-03,1.928963349200785160e-03,-6.668433081358671188e-03,0.000000000000000000e+00
1.390664339065551758e+00,-1.499492408959131329e-01,-4.861359115166965505e-01,3.000006351632812374e-01,1.105516854309510910e-01,2.169118903726137582e+00,2.169125270165271235e+00,-1.002544851556872313e-01,3.410634299795275992e-02,1.126244921510510690e-06,6.542336100472243002e-06,8.089579642007345647e-08,-2.176579404621880875e-01,-1.562795941029683888e+00,-2.042270485554830373e+00,-2.121224228535787404e+00,1.021899104118347168e+00,-1.680640999470845998e+00,-3.141593043004171193e+00,-2.080000042915344238e-01,3.009932348504662514e-03,-5.810205359011888504e-03,2.793730236589908600e-03,-9.657936170697212219e-03,0.000000000000000000e+00
1.398665904998779297e+00,-1.499492408959131329e-01,-4.861359115166965505e-01,3.000006351632812374e-01,1.105516854309510910e-01,2.169118903726137582e+00,2.169125270165271235e+00,0.000000000000000000e+00,0.000000000000000000e+00,0.000000000000000000e+00,0.000000000000000000e+00,0.000000000000000000e+00,0.000000000000000000e+00,-1.562795941029683888e+00,-2.042270485554830373e+00,-2.121224228535787404e+00,1.021899104118347168e+00,-1.680640999470845998e+00,-3.141593043004171193e+00,0.000000000000000000e+00,0.000000000000000000e+00,0.000000000000000000e+00,0.000000000000000000e+00,0.000000000000000000e+00,0.000000000000000000e+00
1.406935453414916992e+00,-1.499492408959131329e-01,-4.861359115166965505e-01,3.000006351632812374e-01,1.105516854309510910e-01,2.169118903726137582e+00,2.169125270165271235e+00,0.000000000000000000e+00,0.000000000000000000e+00,0.000000000000000000e+00,0.000000000000000000e+00,0.000000000000000000e+00,0.000000000000000000e+00,-1.562795941029683888e+00,-2.042270485554830373e+00,-2.121224228535787404e+00,1.021899104118347168e+00,-1.680640999470845998e+00,-3.141593043004171193e+00,0.000000000000000000e+00,0.000000000000000000e+00,0.000000000000000000e+00,0.000000000000000000e+00,0.000000000000000000e+00,0.000000000000000000e+00
1.418811082839965820e+00,-1.503932025143733253e-01,-4.859843977181950159e-01,3.000005349519027642e-01,1.115770280949778953e-01,2.168608760718301109e+00,2.168615900829935494e+00,-5.732921435392894505e-02,1.958771847839099398e-02,6.713110312668856044e-07,4.104448232428279852e-06,4.837553687093161148e-08,-1.248699659481316004e-01,-1.563717667256490529e+00,-2.042257134114400685e+00,-2.121250454579488576e+00,1.021911621093750000e+00,-1.680686299000875294e+00,-3.141593043004171193e+00,-1.190399974584579468e-01,1.741525484248995781e-03,-3.361767157912254333e-03,1.616136985830962658e-03,-5.829968489706516266e-03,0.000000000000000000e+00
1.427636861801147461e+00,-1.511510319339424702e-01,-4.857245348078381153e-01,3.000006116015068725e-01,1.133298296895930424e-01,2.167736357693939464e+00,2.167743236516607830e+00,-9.775292808775941367e-02,3.360055114271821158e-02,1.009630532889878461e-06,6.968334556214106469e-06,7.124904919446060379e-08,-2.134575285016950541e-01,-1.565292183552877248e+00,-2.042233769093648732e+00,-2.121295277272359669e+00,1.021933197975158691e+00,-1.680765930806295216e+00,-3.141593043004171193e+00,-2.031615972518920898e-01,2.993655856698751450e-03,-5.779253318905830383e-03,2.778628841042518616e-03,-1.029593124985694885e-02,0.000000000000000000e+00
1.436090230941772461e+00,-1.521548619990407136e-01,-4.853778158908649276e-01,3.000005526358100472e-01,1.156611496372573628e-01,2.166573631022676860e+00,2.166580764246266000e+00,-1.293676669935211188e-01,4.484808480491881549e-02,1.429249714156120174e-06,9.152819877224166272e-06,7.956921800937425856e-08,-2.838310953228846412e-01,-1.567380730305806935e+00,-2.042202774678365529e+00,-2.121355358754293263e+00,1.021962165832519531e+00,-1.680879418049947560e+00,-3.141593043004171193e+00,-2.692546546459197998e-01,4.025769885629415512e-03,-7.771393284201622009e-03,3.736470360308885574e-03,-1.457644067704677582e-02,0.000000000000000000e+00
1.444356203079223633e+00,-1.533724567062529354e-01,-4.849533951967714973e-01,3.000007195191624065e-01,1.184966192133652813e-01,2.165156743363992220e+00,2.165163097506036305e+00,-1.567365948007427290e-01,5.486033291038375920e-02,1.684040660210751110e-06,1.153484291771611703e-05,6.518326699884816539e-08,-3.453285824506637236e-01,-1.569917503987447560e+00,-2.042164150868551076e+00,-2.121429268513814748e+00,1.021997809410095215e+00,-1.681023899708883107e+00,-3.141593043004171193e+00,-3.267091512680053711e-01,4.942971281707286835e-03,-9.542214684188365936e-03,4.587708506733179092e-03,-1.861943118274211884e-02,0.000000000000000000e+00
1.453488111495971680e+00,-1.547915038165104396e-01,-4.844535588492530076e-01,3.000006716233359350e-01,1.218107934999707737e-01,2.163495339940786799e+00,2.163502462744885335e+00,-1.824871873308532289e-01,6.456867529132469252e-02,2.056324706732667569e-06,1.312618898935411353e-05,4.810195104196383577e-08,-4.037788435815488075e-01,-1.572878662739888966e+00,-2.042118851338521779e+00,-2.121517006550924123e+00,1.022039890289306641e+00,-1.681200806294576466e+00,-3.141593043004171193e+00,-3.810164034366607666e-01,5.830303765833377838e-03,-1.125468779355287552e-02,5.411257967352867126e-03,-2.276244014501571655e-02,0.000000000000000000e+00
1.462266206741333008e+00,-1.564122306939370599e-01,-4.838762670411057565e-01,3.000007277457561461e-01,1.256065505903121438e-01,2.161586950071376023e+00,2.161594066418121241e+00,-2.082505211404774292e-01,7.458109954901762095e-02,2.261947271434886993e-06,1.478082763754911726e-05,9.427104128163763512e-09,-4.628542121498250839e-01,-1.576266590748922169e+00,-2.042066399251119435e+00,-2.121618096028463185e+00,1.022088527679443359e+00,-1.681412521992818654e+00,-3.141593043004171193e+00,-4.356118142604827881e-01,6.741603836417198181e-03,-1.301395986229181290e-02,6.257575470954179764e-03,-2.724239788949489594e-02,0.000000000000000000e+00
1.470901727676391602e+00,-1.582434846558586905e-01,-4.832149770594422189e-01,3.000007803189855826e-01,1.299151169927976190e-01,2.159412720900931948e+00,2.159420345003860930e+00,-2.350658394256285866e-01,8.537970168206379662e-02,2.601839679174967636e-06,1.653740168878219642e-05,-3.694336530786220049e-08,-5.257749259469781666e-01,-1.580103222523824513e+00,-2.042005840932027638e+00,-2.121734921132222951e+00,1.022144556045532227e+00,-1.681669060383931935e+00,-3.141593043004171193e+00,-4.928487539291381836e-01,7.758924737572669983e-03,-1.497745607048273087e-02,7.201994303613901138e-03,-3.292617201805114746e-02,0.000000000000000000e+00
1.479408502578735352e+00,-1.603002428662749779e-01,-4.824616423961843870e-01,3.000006650114435680e-01,1.347730880914875251e-01,2.156951336345210635e+00,2.156959466311497930e+00,-2.638331687799196357e-01,9.730054944704975839e-02,3.013060470577443079e-06,1.846843749891343984e-05,-1.030150662698081584e-07,-5.937430933115011022e-01,-1.584422413502828419e+00,-2.041937176381246388e+00,-2.121867958699361623e+00,1.022208690643310547e+00,-1.681974236165181935e+00,-3.141593043004171193e+00,-5.545330643653869629e-01,8.865221403539180756e-03,-1.711248792707920074e-02,8.228798396885395050e-03,-3.921002894639968872e-02,0.000000000000000000e+00
1.487750291824340820e+00,-1.626033591607677076e-01,-4.816038340942120910e-01,3.000007374459659482e-01,1.402427997273144877e-01,2.154167621524182508e+00,2.154175741034479064e+00,-2.951628143777839108e-01,1.107547547465811827e-01,3.416221793955255984e-06,2.062020226201059586e-05,-2.019128757543496090e-07,-6.694741323586841375e-01,-1.589272801076070607e+00,-2.041858021412984669e+00,-2.122020546589986623e+00,1.022282123565673828e+00,-1.682342354451314748e+00,-3.141593043004171193e+00,-6.222317814826965332e-01,1.015038695186376572e-02,-1.959285326302051544e-02,9.421845898032188416e-03,-4.724235087633132935e-02,0.000000000000000000e+00
1.496620416641235352e+00,-1.651779450714822850e-01,-4.806268290998803039e-01,3.000008472448003061e-01,1.463979605397873751e-01,2.151018961620852821e+00,2.151027069310179396e+00,-3.297038522663883753e-01,1.261311993163411749e-01,3.743640641008642250e-06,2.385047944762365877e-05,-3.530935189641714070e-07,-7.548082880671623807e-01,-1.594713036214010060e+00,-2.041766945515767873e+00,-2.122196022664205373e+00,1.022366523742675781e+00,-1.682789627705709279e+00,-3.141593043004171193e+00,-6.974654197692871094e-01,1.165135856717824936e-02,-2.249032258987426758e-02,1.081511192023754120e-02,-5.734286829829216003e-02,0.000000000000000000e+00
1.505030632019042969e+00,-1.680555922895466125e-01,-4.795128999110074286e-01,3.000007552966018620e-01,1.533183091800377484e-01,2.147457679534220176e+00,2.147467312453348764e+00,-3.682330984527372730e-01,1.438172483913447153e-01,4.193106719070729846e-06,2.642459471104424159e-05,-4.837610827942085774e-07,-8.505422845475797411e-01,-1.600815121327535451e+00,-2.041662995015279591e+00,-2.122397247944967091e+00,1.022463083267211914e+00,-1.683326069508687794e+00,-3.141593043004171193e+00,-7.818416357040405273e-01,1.333698909729719162e-02,-2.574353106319904327e-02,1.238011475652456284e-02,-6.870064884424209595e-02,0.000000000000000000e+00
1.513820171356201172e+00,-1.712738052078954243e-01,-4.782402480623332841e-01,3.000008497494925930e-01,1.610995080696679960e-01,2.143428229596617385e+00,2.143437845147546206e+00,-4.114757770318563379e-01,1.643481786815164103e-01,4.388681553047321517e-06,3.040339538237676165e-05,-7.526275589961190237e-07,-9.589573666444994871e-01,-1.607665363942281544e+00,-2.041543785725728810e+00,-2.122627083455220998e+00,1.022573709487915039e+00,-1.683964554463521779e+00,-3.141593043004171193e+00,-8.771629929542541504e-01,1.525716297328472137e-02,-2.945058606564998627e-02,1.416301261633634567e-02,-8.179437369108200073e-02,0.000000000000000000e+00
1.522219657897949219e+00,-1.748763365556069427e-01,-4.767817731671485371e-01,3.000007838533203519e-01,1.698581446398064465e-01,2.138858883340557071e+00,2.138869757338704769e+00,-4.602576043779475490e-01,1.883790188294698353e-01,4.872249653841612077e-06,3.479104981637002946e-05,-1.055431367172788002e-06,-1.082690946756521555e+00,-1.615366284047262013e+00,-2.041407410298482716e+00,-2.122890774403707326e+00,1.022700428962707520e+00,-1.684724156056539357e+00,-3.141593043004171193e+00,-9.855281710624694824e-01,1.747103966772556305e-02,-3.372352197766304016e-02,1.621767878532409668e-02,-9.716277569532394409e-02,0.000000000000000000e+00
1.530695199966430664e+00,-1.789116636149813977e-01,-4.751030491785829257e-01,3.000008967447779784e-01,1.797644213043151917e-01,2.133649078253613052e+00,2.133659672289931031e+00,-5.151403023588400076e-01,2.169214244803446545e-01,5.117117528635753864e-06,3.990467370676363773e-05,-1.529535626606643924e-06,-1.229108631609376445e+00,-1.624039951954976857e+00,-2.041248623524801076e+00,-2.123196903859273732e+00,1.022847890853881836e+00,-1.685659710560933888e+00,-3.141593043004171193e+00,-1.109440803527832031e+00,2.030971832573413849e-02,-3.920321911573410034e-02,1.885357126593589783e-02,-1.196678280830383301e-01,0.000000000000000000e+00
1.539479017257690430e+00,-1.834403412308132919e-01,-4.731625549100744177e-01,3.000010749032950286e-01,1.909837522329743964e-01,2.127693228733994690e+00,2.127704558730411311e+00,-5.776378031360195342e-01,2.508101911011096918e-01,5.666156466196979531e-06,4.436266236543309072e-05,-2.018948995384332958e-06,-1.397927343843276438e+00,-1.633832756672994435e+00,-2.041063610707418263e+00,-2.123553578053609669e+00,1.023019194602966309e+00,-1.686801735554830373e+00,-3.141593043004171193e+00,-1.251936674118041992e+00,2.360286749899387360e-02,-4.555838927626609802e-02,2.191112004220485687e-02,-1.459906697273254395e-01,0.000000000000000000e+00
1.547659397125244141e+00,-1.840732203359262409e-01,-4.728871732085550561e-01,3.000009782545303150e-01,1.925526128352352540e-01,2.126855635190900706e+00,2.126867215549760548e+00,-3.552816021383790601e-01,1.548992703246463432e-01,3.471458897847589455e-06,2.726393111514275838e-05,-1.262877569039969009e-06,-8.612435162053855287e-01,-1.635205094014303029e+00,-2.041037861500875294e+00,-2.123603645955220998e+00,1.023043394088745117e+00,-1.686962906514303029e+00,-3.141593043004171193e+00,-7.706604599952697754e-01,1.457400992512702942e-02,-2.813074178993701935e-02,1.352944318205118179e-02,-9.058305621147155762e-02,0.000000000000000000e+00
1.556018114089965820e+00,-1.859709232991405004e-01,-4.720553136325587040e-01,3.000009512553465374e-01,1.972563818254766399e-01,2.124337561797872809e+00,2.124349638028323106e+00,-2.369648201833968737e-01,1.044663641986119107e-01,2.227193658258296035e-06,1.821890151585285191e-05,-9.047308457129489787e-07,-5.755543559779792151e-01,-1.639325443898336232e+00,-2.040960137044088185e+00,-2.123753849660054982e+00,1.023115634918212891e+00,-1.687446896229879201e+00,-3.141593043004171193e+00,-5.150192379951477051e-01,9.739562869071960449e-03,-1.879929751157760620e-02,9.041496552526950836e-03,-6.053511798381805420e-02,0.000000000000000000e+00
1.564987421035766602e+00,-1.869250140822844575e-01,-4.716334240606874229e-01,3.000011030266161449e-01,1.996214970879665873e-01,2.123067886299978113e+00,2.123079447646165629e+00,-1.191985183543812082e-01,5.284146572840953821e-02,1.096463108744057892e-06,9.171702303372293203e-06,-4.818018600976465508e-07,-2.898039687420336241e-01,-1.641400162373678029e+00,-2.040920559559957326e+00,-2.123829666768209279e+00,1.023152112960815430e+00,-1.687691036854879201e+00,-3.141593043004171193e+00,-2.593232393264770508e-01,4.904078785330057144e-03,-9.465849027037620544e-03,4.552587401121854782e-03,-3.048072941601276398e-02,0.000000000000000000e+00
1.573605298995971680e+00,-1.869381703876537015e-01,-4.716276413543347701e-01,3.000010931335562736e-01,1.996540647502077770e-01,2.123050381050156421e+00,2.123061942308581695e+00,-1.654537830956562001e-03,7.335232069843879935e-04,1.521483423694770058e-08,1.273199527715974263e-07,-6.692129855952443472e-09,-4.022685578086600960e-03,-1.641428772603170216e+00,-2.040920082722799123e+00,-2.123830620442525685e+00,1.023152589797973633e+00,-1.687694374714986623e+00,-3.141593043004171193e+00,-3.599591320380568504e-03,6.807210593251511455e-05,-1.313927350565791130e-04,6.319315434666350484e-05,-4.230942577123641968e-04,0.000000000000000000e+00
1.582066297531127930e+00,-1.869381703876537015e-01,-4.716276413543347701e-01,3.000010931335562736e-01,1.996540647502077770e-01,2.123050381050156421e+00,2.123061942308581695e+00,0.000000000000000000e+00,0.000000000000000000e+00,0.000000000000000000e+00,0.000000000000000000e+00,0.000000000000000000e+00,0.000000000000000000e+00,-1.641428772603170216e+00,-2.040920082722799123e+00,-2.123830620442525685e+00,1.023152589797973633e+00,-1.687694374714986623e+00,-3.141593043004171193e+00,0.000000000000000000e+00,0.000000000000000000e+00,0.000000000000000000e+00,0.000000000000000000e+00,0.000000000000000000e+00,0.000000000000000000e+00
1.590962648391723633e+00,-1.869381703876537015e-01,-4.716276413543347701e-01,3.000010931335562736e-01,1.996540647502077770e-01,2.123050381050156421e+00,2.123061942308581695e+00,0.000000000000000000e+00,0.000000000000000000e+00,0.000000000000000000e+00,0.000000000000000000e+00,0.000000000000000000e+00,0.000000000000000000e+00,-1.641428772603170216e+00,-2.040920082722799123e+00,-2.123830620442525685e+00,1.023152589797973633e+00,-1.687694374714986623e+00,-3.141593043004171193e+00,0.000000000000000000e+00,0.000000000000000000e+00,0.000000000000000000e+00,0.000000000000000000e+00,0.000000000000000000e+00,0.000000000000000000e+00
1.600565195083618164e+00,-1.874605894825036867e-01,-4.713905257965937956e-01,3.000010168610654504e-01,2.010234190321335546e-01,2.122313647031272676e+00,2.122325712718698298e+00,-6.723016744419610391e-02,3.056666339016103282e-02,5.503861511743708454e-07,5.906360258611182916e-06,-2.814693526663367557e-07,-1.730070263143271836e-01,-1.642577950154439748e+00,-2.040894810353414357e+00,-2.123879734669820607e+00,1.023176193237304688e+00,-1.687888924275533498e+00,-3.141593043004171193e+00,-1.479360014200210571e-01,3.276978386566042900e-03,-6.325729656964540482e-03,3.042839933186769485e-03,-2.507102489471435547e-02,0.000000000000000000e+00
1.609679698944091797e+00,-1.883839194052825405e-01,-4.709683553749491325e-01,3.000011718194427468e-01,2.034611426602496442e-01,2.121000614676502138e+00,2.121012165623592516e+00,-1.186896705898628224e-01,5.440388161885445495e-02,1.036088823648495545e-06,9.789405397009328183e-06,-4.714174507311875695e-07,-3.079284541301984257e-01,-1.644613567982808888e+00,-2.040848557149068654e+00,-2.123968426381246388e+00,1.023218870162963867e+00,-1.688247505818502248e+00,-3.141593043004171193e+00,-2.618025541305541992e-01,5.909155122935771942e-03,-1.140623446553945541e-02,5.487281829118728638e-03,-4.612590000033378601e-02,0.000000000000000000e+00
1.619179248809814453e+00,-1.889095659510965364e-01,-4.707268099953784146e-01,3.000010864515231801e-01,2.048509113933024706e-01,2.120250271598102643e+00,2.120262580396191865e+00,-1.441444052074364324e-01,6.629572414697056104e-02,1.253089887505563863e-06,1.178894138390491218e-05,-5.567988081463869075e-07,-3.745517693450427510e-01,-1.645773712788717091e+00,-2.040822331105367482e+00,-2.124019447957174123e+00,1.023243308067321777e+00,-1.688453499470845998e+00,-3.141593043004171193e+00,-3.181964755058288574e-01,7.200377993285655975e-03,-1.389855053275823593e-02,6.686375010758638382e-03,-5.635529384016990662e-02,0.000000000000000000e+00
1.627784490585327148e+00,-1.891361809974260733e-01,-4.706227411361471047e-01,3.000010008742249323e-01,2.054492303655699459e-01,2.119927115291774466e+00,2.119939422375528348e+00,-2.832085438989452933e-02,1.304229177486416341e-02,2.445272989985947484e-07,2.316900927438667222e-06,-1.105939648434427114e-07,-7.360871881227779023e-02,-1.646273914967672169e+00,-2.040811363850728810e+00,-2.124040905629293263e+00,1.023253798484802246e+00,-1.688541714345113576e+00,-3.141593043004171193e+00,-6.253350526094436646e-02,1.415052916854619980e-03,-2.731410088017582893e-03,1.314038527198135853e-03,-1.107521355152130127e-02,0.000000000000000000e+00
1.636526346206665039e+00,-1.891361809974260733e-01,-4.706227411361471047e-01,3.000010008742249323e-01,2.054492303655699459e-01,2.119927115291774466e+00,2.119939422375528348e+00,0.000000000000000000e+00,0.000000000000000000e+00,0.000000000000000000e+00,0.000000000000000000e+00,0.000000000000000000e+00,0.000000000000000000e+00,-1.646273914967672169e+00,-2.040811363850728810e+00,-2.124040905629293263e+00,1.023253798484802246e+00,-1.688541714345113576e+00,-3.141593043004171193e+00,0.000000000000000000e+00,0.000000000000000000e+00,0.000000000000000000e+00,0.000000000000000000e+00,0.000000000000000000e+00,0.000000000000000000e+00
