ThomasAsmussen/golf_robot/log/run1_20251013_153326.csv
t,x,y,z,rx,ry,rz,vx,vy,vz,wx,wy,wz,q1,q2,q3,q4,q5,q6,dq1,dq2,dq3,dq4,dq5,dq6
3.858666419982910156e-01,-1.000000822680490037e-01,-5.000002094581326162e-01,3.000001472795442714e-01,-4.422814919258157490e-09,2.221441698759650141e+00,2.221440329442017081e+00,0.000000000000000000e+00,0.000000000000000000e+00,0.000000000000000000e+00,0.000000000000000000e+00,0.000000000000000000e+00,0.000000000000000000e+00,-1.461602036152974904e+00,-2.043482128773824513e+00,-2.118884865437642873e+00,1.020774960517883301e+00,-1.679991070424215138e+00,-3.141593043004171193e+00,0.000000000000000000e+00,0.000000000000000000e+00,0.000000000000000000e+00,0.000000000000000000e+00,0.000000000000000000e+00,0.000000000000000000e+00
3.944473266601562500e-01,-1.000000822680490037e-01,-5.000002094581326162e-01,3.000001472795442714e-01,-4.422814919258157490e-09,2.221441698759650141e+00,2.221440329442017081e+00,0.000000000000000000e+00,0.000000000000000000e+00,0.000000000000000000e+00,0.000000000000000000e+00,0.000000000000000000e+00,0.000000000000000000e+00,-1.461602036152974904e+00,-2.043482128773824513e+00,-2.118884865437642873e+00,1.020774960517883301e+00,-1.679991070424215138e+00,-3.141593043004171193e+00,0.000000000000000000e+00,0.000000000000000000e+00,0.000000000000000000e+00,0.000000000000000000e+00,0.000000000000000000e+00,0.000000000000000000e+00
4.023342132568359375e-01,-1.000000822680490037e-01,-5.000002094581326162e-01,3.000001472795442714e-01,-4.422814919258157490e-09,2.221441698759650141e+00,2.221440329442017081e+00,0.000000000000000000e+00,0.000000000000000000e+00,0.000000000000000000e+00,0.000000000000000000e+00,0.000000000000000000e+00,0.000000000000000000e+00,-1.461602036152974904e+00,-2.043482128773824513e+00,-2.118884865437642873e+00,1.020774960517883301e+00,-1.679991070424215138e+00,-3.141593043004171193e+00,0.000000000000000000e+00,0.000000000000000000e+00,0.000000000000000000e+00,0.000000000000000000e+00,0.000000000000000000e+00,0.000000000000000000e+00
4.106378555297851562e-01,-1.000000822680490037e-01,-5.000002094581326162e-01,3.000001472795442714e-01,-4.422814919258157490e-09,2.221441698759650141e+00,2.221440329442017081e+00,0.000000000000000000e+00,0.000000000000000000e+00,0.000000000000000000e+00,0.000000000000000000e+00,0.000000000000000000e+00,0.000000000000000000e+00,-1.461602036152974904e+00,-2.043482128773824513e+00,-2.118884865437642873e+00,1.020774960517883301e+00,-1.679991070424215138e+00,-3.141593043004171193e+00,0.000000000000000000e+00,0.000000000000000000e+00,0.000000000000000000e+00,0.000000000000000000e+00,0.000000000000000000e+00,0.000000000000000000e+00
4.187269210815429688e-01,-1.000000822680490037e-01,-5.000002094581326162e-01,3.000001472795442714e-01,-4.422814919258157490e-09,2.221441698759650141e+00,2.221440329442017081e+00,0.000000000000000000e+00,0.000000000000000000e+00,0.000000000000000000e+00,0.000000000000000000e+00,0.000000000000000000e+00,0.000000000000000000e+00,-1.461602036152974904e+00,-2.043482128773824513e+00,-2.118884865437642873e+00,1.020774960517883301e+00,-1.679991070424215138e+00,-3.141593043004171193e+00,0.000000000000000000e+00,0.000000000000000000e+00,0.000000000000000000e+00,0.000000000000000000e+00,0.000000000000000000e+00,0.000000000000000000e+00
4.276235103607177734e-01,-1.000000822680490037e-01,-5.000002094581326162e-01,3.000001472795442714e-01,-4.422814919258157490e-09,2.221441698759650141e+00,2.221440329442017081e+00,0.000000000000000000e+00,0.000000000000000000e+00,0.000000000000000000e+00,0.000000000000000000e+00,0.000000000000000000e+00,0.000000000000000000e+00,-1.461602036152974904e+00,-2.043482128773824513e+00,-2.118884865437642873e+00,1.020774960517883301e+00,-1.679991070424215138e+00,-3.141593043004171193e+00,0.000000000000000000e+00,0.000000000000000000e+00,0.000000000000000000e+00,0.000000000000000000e+00,0.000000000000000000e+00,0.000000000000000000e+00
4.355385303497314453e-01,-1.000000822680490037e-01,-5.000002094581326162e-01,3.000001472795442714e-01,-4.422814919258157490e-09,2.221441698759650141e+00,2.221440329442017081e+00,0.000000000000000000e+00,0.000000000000000000e+00,0.000000000000000000e+00,0.000000000000000000e+00,0.000000000000000000e+00,0.000000000000000000e+00,-1.461602036152974904e+00,-2.043482128773824513e+00,-2.118884865437642873e+00,1.020774960517883301e+00,-1.679991070424215138e+00,-3.141593043004171193e+00,0.000000000000000000e+00,0.000000000000000000e+00,0.000000000000000000e+00,0.000000000000000000e+00,0.000000000000000000e+00,0.000000000000000000e+00
4.439120292663574219e-01,-1.000000822680490037e-01,-5.000002094581326162e-01,3.000001472795442714e-01,-4.422814919258157490e-09,2.221441698759650141e+00,2.221440329442017081e+00,0.000000000000000000e+00,0.000000000000000000e+00,0.000000000000000000e+00,0.000000000000000000e+00,0.000000000000000000e+00,0.000000000000000000e+00,-1.461602036152974904e+00,-2.043482128773824513e+00,-2.118884865437642873e+00,1.020774960517883301e+00,-1.679991070424215138e+00,-3.141593043004171193e+00,0.000000000000000000e+00,0.000000000000000000e+00,0.000000000000000000e+00,0.000000000000000000e+00,0.000000000000000000e+00,0.000000000000000000e+00
4.521620273590087891e-01,-1.000000822680490037e-01,-5.000002094581326162e-01,3.000001472795442714e-01,-4.422814919258157490e-09,2.221441698759650141e+00,2.221440329442017081e+00,0.000000000000000000e+00,0.000000000000000000e+00,0.000000000000000000e+00,0.000000000000000000e+00,0.000000000000000000e+00,0.000000000000000000e+00,-1.461602036152974904e+00,-2.043482128773824513e+00,-2.118884865437642873e+00,1.020774960517883301e+00,-1.679991070424215138e+00,-3.141593043004171193e+00,0.000000000000000000e+00,0.000000000000000000e+00,0.000000000000000000e+00,0.000000000000000000e+00,0.000000000000000000e+00,0.000000000000000000e+00
4.603738784790039062e-01,-1.000000822680490037e-01,-5.000002094581326162e-01,3.000001472795442714e-01,-4.422814919258157490e-09,2.221441698759650141e+00,2.221440329442017081e+00,0.000000000000000000e+00,0.000000000000000000e+00,0.000000000000000000e+00,0.000000000000000000e+00,0.000000000000000000e+00,0.000000000000000000e+00,-1.461602036152974904e+00,-2.043482128773824513e+00,-2.118884865437642873e+00,1.020774960517883301e+00,-1.679991070424215138e+00,-3.141593043004171193e+00,0.000000000000000000e+00,0.000000000000000000e+00,0.000000000000000000e+00,0.000000000000000000e+00,0.000000000000000000e+00,0.000000000000000000e+00
4.689555168151855469e-01,-1.000000822680490037e-01,-5.000002094581326162e-01,3.000001472795442714e-01,-4.422814919258157490e-09,2.221441698759650141e+00,2.221440329442017081e+00,0.000000000000000000e+00,0.000000000000000000e+00,0.000000000000000000e+00,0.000000000000000000e+00,0.000000000000000000e+00,0.000000000000000000e+00,-1.461602036152974904e+00,-2.043482128773824513e+00,-2.118884865437642873e+00,1.020774960517883301e+00,-1.679991070424215138e+00,-3.141593043004171193e+00,0.000000000000000000e+00,0.000000000000000000e+00,0.000000000000000000e+00,0.000000000000000000e+00,0.000000000000000000e+00,0.000000000000000000e+00
4.779007434844970703e-01,-1.000000822680490037e-01,-5.000002094581326162e-01,3.000001472795442714e-01,-4.422814919258157490e-09,2.221441698759650141e+00,2.221440329442017081e+00,0.000000000000000000e+00,0.000000000000000000e+00,0.000000000000000000e+00,0.000000000000000000e+00,0.000000000000000000e+00,0.000000000000000000e+00,-1.461602036152974904e+00,-2.043482128773824513e+00,-2.118884865437642873e+00,1.020774960517883301e+00,-1.679991070424215138e+00,-3.141593043004171193e+00,0.000000000000000000e+00,0.000000000000000000e+00,0.000000000000000000e+00,0.000000000000000000e+00,0.000000000000000000e+00,0.000000000000000000e+00
4.859299659729003906e-01,-1.000000822680490037e-01,-5.000002094581326162e-01,3.000001472795442714e-01,-4.422814919258157490e-09,2.221441698759650141e+00,2.221440329442017081e+00,0.000000000000000000e+00,0.000000000000000000e+00,0.000000000000000000e+00,0.000000000000000000e+00,0.000000000000000000e+00,0.000000000000000000e+00,-1.461602036152974904e+00,-2.043482128773824513e+00,-2.118884865437642873e+00,1.020774960517883301e+00,-1.679991070424215138e+00,-3.141593043004171193e+00,0.000000000000000000e+00,0.000000000000000000e+00,0.000000000000000000e+00,0.000000000000000000e+00,0.000000000000000000e+00,0.000000000000000000e+00
4.939899444580078125e-01,-1.000000822680490037e-01,-5.000002094581326162e-01,3.000001472795442714e-01,-4.422814919258157490e-09,2.221441698759650141e+00,2.221440329442017081e+00,0.000000000000000000e+00,0.000000000000000000e+00,0.000000000000000000e+00,0.000000000000000000e+00,0.000000000000000000e+00,0.000000000000000000e+00,-1.461602036152974904e+00,-2.043482128773824513e+00,-2.118884865437642873e+00,1.020774960517883301e+00,-1.679991070424215138e+00,-3.141593043004171193e+00,0.000000000000000000e+00,0.000000000000000000e+00,0.000000000000000000e+00,0.000000000000000000e+00,0.000000000000000000e+00,0.000000000000000000e+00
5.021064281463623047e-01,-1.000000822680490037e-01,-5.000002094581326162e-01,3.000001472795442714e-01,-4.422814919258157490e-09,2.221441698759650141e+00,2.221440329442017081e+00,0.000000000000000000e+00,0.000000000000000000e+00,0.000000000000000000e+00,0.000000000000000000e+00,0.000000000000000000e+00,0.000000000000000000e+00,-1.461602036152974904e+00,-2.043482128773824513e+00,-2.118884865437642873e+00,1.020774960517883301e+00,-1.679991070424215138e+00,-3.141593043004171193e+00,0.000000000000000000e+00,0.000000000000000000e+00,0.000000000000000000e+00,0.000000000000000000e+00,0.000000000000000000e+00,0.000000000000000000e+00
5.109562873840332031e-01,-1.000000822680490037e-01,-5.000002094581326162e-01,3.000001472795442714e-01,-4.422814919258157490e-09,2.221441698759650141e+00,2.221440329442017081e+00,0.000000000000000000e+00,0.000000000000000000e+00,0.000000000000000000e+00,0.000000000000000000e+00,0.000000000000000000e+00,0.000000000000000000e+00,-1.461602036152974904e+00,-2.043482128773824513e+00,-2.118884865437642873e+00,1.020774960517883301e+00,-1.679991070424215138e+00,-3.141593043004171193e+00,0.000000000000000000e+00,0.000000000000000000e+00,0.000000000000000000e+00,0.000000000000000000e+00,0.000000000000000000e+00,0.000000000000000000e+00
5.190196037292480469e-01,-1.000000822680490037e-01,-5.000002094581326162e-01,3.000001472795442714e-01,-4.422814919258157490e-09,2.221441698759650141e+00,2.221440329442017081e+00,0.000000000000000000e+00,0.000000000000000000e+00,0.000000000000000000e+00,0.000000000000000000e+00,0.000000000000000000e+00,0.000000000000000000e+00,-1.461602036152974904e+00,-2.043482128773824513e+00,-2.118884865437642873e+00,1.020774960517883301e+00,-1.679991070424215138e+00,-3.141593043004171193e+00,0.000000000000000000e+00,0.000000000000000000e+00,0.000000000000000000e+00,0.000000000000000000e+00,0.000000000000000000e+00,0.000000000000000000e+00
5.275950431823730469e-01,-1.000000822680490037e-01,-5.000002094581326162e-01,3.000001472795442714e-01,-4.422814919258157490e-09,2.221441698759650141e+00,2.221440329442017081e+00,0.000000000000000000e+00,0.000000000000000000e+00,0.000000000000000000e+00,0.000000000000000000e+00,0.000000000000000000e+00,0.000000000000000000e+00,-1.461602036152974904e+00,-2.043482128773824513e+00,-2.118884865437642873e+00,1.020774960517883301e+00,-1.679991070424215138e+00,-3.141593043004171193e+00,0.000000000000000000e+00,0.000000000000000000e+00,0.000000000000000000e+00,0.000000000000000000e+00,0.000000000000000000e+00,0.000000000000000000e+00
5.357148647308349609e-01,-1.000000822680490037e-01,-5.000002094581326162e-01,3.000001472795442714e-01,-4.422814919258157490e-09,2.221441698759650141e+00,2.221440329442017081e+00,0.000000000000000000e+00,0.000000000000000000e+00,0.000000000000000000e+00,0.000000000000000000e+00,0.000000000000000000e+00,0.000000000000000000e+00,-1.461602036152974904e+00,-2.043482128773824513e+00,-2.118884865437642873e+00,1.020774960517883301e+00,-1.679991070424215138e+00,-3.141593043004171193e+00,0.000000000000000000e+00,0.000000000000000000e+00,0.000000000000000000e+00,0.000000000000000000e+00,0.000000000000000000e+00,0.000000000000000000e+00
5.444142818450927734e-01,-1.000000822680490037e-01,-5.000002094581326162e-01,3.000001472795442714e-01,-4.422814919258157490e-09,2.221441698759650141e+00,2.221440329442017081e+00,0.000000000000000000e+00,0.000000000000000000e+00,0.000000000000000000e+00,0.000000000000000000e+00,0.000000000000000000e+00,0.000000000000000000e+00,-1.461602036152974904e+00,-2.043482128773824513e+00,-2.118884865437642873e+00,1.020774960517883301e+00,-1.679991070424215138e+00,-3.141593043004171193e+00,0.000000000000000000e+00,0.000000000000000000e+00,0.000000000000000000e+00,0.000000000000000000e+00,0.000000000000000000e+00,0.000000000000000000e+00
5.523872375488281250e-01,-1.000000822680490037e-01,-5.000002094581326162e-01,3.000001472795442714e-01,-4.422814919258157490e-09,2.221441698759650141e+00,2.221440329442017081e+00,0.000000000000000000e+00,0.000000000000000000e+00,0.000000000000000000e+00,0.000000000000000000e+00,0.000000000000000000e+00,0.000000000000000000e+00,-1.461602036152974904e+00,-2.043482128773824513e+00,-2.118884865437642873e+00,1.020774960517883301e+00,-1.679991070424215138e+00,-3.141593043004171193e+00,0.000000000000000000e+00,0.000000000000000000e+00,0.000000000000000000e+00,0.000000000000000000e+00,0.000000000000000000e+00,0.000000000000000000e+00
5.732681751251220703e-01,-1.000000822680490037e-01,-5.000002094581326162e-01,3.000001472795442714e-01,-4.422814919258157490e-09,2.221441698759650141e+00,2.221440329442017081e+00,0.000000000000000000e+00,0.000000000000000000e+00,0.000000000000000000e+00,0.000000000000000000e+00,0.000000000000000000e+00,0.000000000000000000e+00,-1.461602036152974904e+00,-2.043482128773824513e+00,-2.118884865437642873e+00,1.020774960517883301e+00,-1.679991070424215138e+00,-3.141593043004171193e+00,0.000000000000000000e+00,0.000000000000000000e+00,0.000000000000000000e+00,0.000000000000000000e+00,0.000000000000000000e+00,0.000000000000000000e+00
5.818037986755371094e-01,-1.000000822680490037e-01,-5.000002094581326162e-01,3.000001472795442714e-01,-4.422814919258157490e-09,2.221441698759650141e+00,2.221440329442017081e+00,0.000000000000000000e+00,0.000000000000000000e+00,0.000000000000000000e+00,0.000000000000000000e+00,0.000000000000000000e+00,0.000000000000000000e+00,-1.461602036152974904e+00,-2.043482128773824513e+00,-2.118884865437642873e+00,1.020774960517883301e+00,-1.679991070424215138e+00,-3.141593043004171193e+00,0.000000000000000000e+00,0.000000000000000000e+00,0.000000000000000000e+00,0.000000000000000000e+00,0.000000000000000000e+00,0.000000000000000000e+00
5.899226665496826172e-01,-1.000000822680490037e-01,-5.000002094581326162e-01,3.000001472795442714e-01,-4.422814919258157490e-09,2.221441698759650141e+00,2.221440329442017081e+00,0.000000000000000000e+00,0.000000000000000000e+00,0.000000000000000000e+00,0.000000000000000000e+00,0.000000000000000000e+00,0.000000000000000000e+00,-1.461602036152974904e+00,-2.043482128773824513e+00,-2.118884865437642873e+00,1.020774960517883301e+00,-1.679991070424215138e+00,-3.141593043004171193e+00,0.000000000000000000e+00,0.000000000000000000e+00,0.000000000000000000e+00,0.000000000000000000e+00,0.000000000000000000e+00,0.000000000000000000e+00
5.983831882476806641e-01,-1.000000822680490037e-01,-5.000002094581326162e-01,3.000001472795442714e-01,-4.422814919258157490e-09,2.221441698759650141e+00,2.221440329442017081e+00,0.000000000000000000e+00,0.000000000000000000e+00,0.000000000000000000e+00,0.000000000000000000e+00,0.000000000000000000e+00,0.000000000000000000e+00,-1.461602036152974904e+00,-2.043482128773824513e+00,-2.118884865437642873e+00,1.020774960517883301e+00,-1.679991070424215138e+00,-3.141593043004171193e+00,0.000000000000000000e+00,0.000000000000000000e+00,0.000000000000000000e+00,0.000000000000000000e+00,0.000000000000000000e+00,0.000000000000000000e+00
6.064405441284179688e-01,-1.000000822680490037e-01,-5.000002094581326162e-01,3.000001472795442714e-01,-4.422814919258157490e-09,2.221441698759650141e+00,2.221440329442017081e+00,0.000000000000000000e+00,0.000000000000000000e+00,0.000000000000000000e+00,0.000000000000000000e+00,0.000000000000000000e+00,0.000000000000000000e+00,-1.461602036152974904e+00,-2.043482128773824513e+00,-2.118884865437642873e+00,1.020774960517883301e+00,-1.679991070424215138e+00,-3.141593043004171193e+00,0.000000000000000000e+00,0.000000000000000000e+00,0.000000000000000000e+00,0.000000000000000000e+00,0.000000000000000000e+00,0.000000000000000000e+00
6.151001453399658203e-01,-1.000000822680490037e-01,-5.000002094581326162e-01,3.000001472795442714e-01,-4.422814919258157490e-09,2.221441698759650141e+00,2.221440329442017081e+00,0.000000000000000000e+00,0.000000000000000000e+00,0.000000000000000000e+00,0.000000000000000000e+00,0.000000000000000000e+00,0.000000000000000000e+00,-1.461602036152974904e+00,-2.043482128773824513e+00,-2.118884865437642873e+00,1.020774960517883301e+00,-1.679991070424215138e+00,-3.141593043004171193e+00,0.000000000000000000e+00,0.000000000000000000e+00,0.000000000000000000e+00,0.000000000000000000e+00,0.000000000000000000e+00,0.000000000000000000e+00
6.228666305541992188e-01,-1.000000822680490037e-01,-5.000002094581326162e-01,3.000001472795442714e-01,-4.422814919258157490e-09,2.221441698759650141e+00,2.221440329442017081e+00,0.000000000000000000e+00,0.000000000000000000e+00,0.000000000000000000e+00,0.000000000000000000e+00,0.000000000000000000e+00,0.000000000000000000e+00,-1.461602036152974904e+00,-2.043482128773824513e+00,-2.118884865437642873e+00,1.020774960517883301e+00,-1.679991070424215138e+00,-3.141593043004171193e+00,0.000000000000000000e+00,0.000000000000000000e+00,0.000000000000000000e+00,0.000000000000000000e+00,0.000000000000000000e+00,0.000000000000000000e+00
6.314775943756103516e-01,-1.000000822680490037e-01,-5.000002094581326162e-01,3.000001472795442714e-01,-4.422814919258157490e-09,2.221441698759650141e+00,2.221440329442017081e+00,0.000000000000000000e+00,0.000000000000000000e+00,0.000000000000000000e+00,0.000000000000000000e+00,0.000000000000000000e+00,0.000000000000000000e+00,-1.461602036152974904e+00,-2.043482128773824513e+00,-2.118884865437642873e+00,1.020774960517883301e+00,-1.679991070424215138e+00,-3.141593043004171193e+00,0.000000000000000000e+00,0.000000000000000000e+00,0.000000000000000000e+00,0.000000000000000000e+00,0.000000000000000000e+00,0.000000000000000000e+00
6.393308639526367188e-01,-1.000000822680490037e-01,-5.000002094581326162e-01,3.000001472795442714e-01,-4.422814919258157490e-09,2.221441698759650141e+00,2.221440329442017081e+00,0.000000000000000000e+00,0.000000000000000000e+00,0.000000000000000000e+00,0.000000000000000000e+00,0.000000000000000000e+00,0.000000000000000000e+00,-1.461602036152974904e+00,-2.043482128773824513e+00,-2.118884865437642873e+00,1.020774960517883301e+00,-1.679991070424215138e+00,-3.141593043004171193e+00,0.000000000000000000e+00,0.000000000000000000e+00,0.000000000000000000e+00,0.000000000000000000e+00,0.000000000000000000e+00,0.000000000000000000e+00
6.477959156036376953e-01,-1.000000822680490037e-01,-5.000002094581326162e-01,3.000001472795442714e-01,-4.422814919258157490e-09,2.221441698759650141e+00,2.221440329442017081e+00,0.000000000000000000e+00,0.000000000000000000e+00,0.000000000000000000e+00,0.000000000000000000e+00,0.000000000000000000e+00,0.000000000000000000e+00,-1.461602036152974904e+00,-2.043482128773824513e+00,-2.118884865437642873e+00,1.020774960517883301e+00,-1.679991070424215138e+00,-3.141593043004171193e+00,0.000000000000000000e+00,0.000000000000000000e+00,0.000000000000000000e+00,0.000000000000000000e+00,0.000000000000000000e+00,0.000000000000000000e+00
6.562306880950927734e-01,-1.000000822680490037e-01,-5.000002094581326162e-01,3.000001472795442714e-01,-4.422814919258157490e-09,2.221441698759650141e+00,2.221440329442017081e+00,0.000000000000000000e+00,0.000000000000000000e+00,0.000000000000000000e+00,0.000000000000000000e+00,0.000000000000000000e+00,0.000000000000000000e+00,-1.461602036152974904e+00,-2.043482128773824513e+00,-2.118884865437642873e+00,1.020774960517883301e+00,-1.679991070424215138e+00,-3.141593043004171193e+00,0.000000000000000000e+00,0.000000000000000000e+00,0.000000000000000000e+00,0.000000000000000000e+00,0.000000000000000000e+00,0.000000000000000000e+00
6.644892692565917969e-01,-1.000000822680490037e-01,-5.000002094581326162e-01,3.000001472795442714e-01,-4.422814919258157490e-09,2.221441698759650141e+00,2.221440329442017081e+00,0.000000000000000000e+00,0.000000000000000000e+00,0.000000000000000000e+00,0.000000000000000000e+00,0.000000000000000000e+00,0.000000000000000000e+00,-1.461602036152974904e+00,-2.043482128773824513e+00,-2.118884865437642873e+00,1.020774960517883301e+00,-1.679991070424215138e+00,-3.141593043004171193e+00,0.000000000000000000e+00,0.000000000000000000e+00,0.000000000000000000e+00,0.000000000000000000e+00,0.000000000000000000e+00,0.000000000000000000e+00
6.728148460388183594e-01,-1.000000822680490037e-01,-5.000002094581326162e-01,3.000001472795442714e-01,-4.422814919258157490e-09,2.221441698759650141e+00,2.221440329442017081e+00,0.000000000000000000e+00,0.000000000000000000e+00,0.000000000000000000e+00,0.000000000000000000e+00,0.000000000000000000e+00,0.000000000000000000e+00,-1.461602036152974904e+00,-2.043482128773824513e+00,-2.118884865437642873e+00,1.020774960517883301e+00,-1.679991070424215138e+00,-3.141593043004171193e+00,0.000000000000000000e+00,0.000000000000000000e+00,0.000000000000000000e+00,0.000000000000000000e+00,0.000000000000000000e+00,0.000000000000000000e+00
6.811013221740722656e-01,-1.000000822680490037e-01,-5.000002094581326162e-01,3.000001472795442714e-01,-4.422814919258157490e-09,2.221441698759650141e+00,2.221440329442017081e+00,0.000000000000000000e+00,0.000000000000000000e+00,0.000000000000000000e+00,0.000000000000000000e+00,0.000000000000000000e+00,0.000000000000000000e+00,-1.461602036152974904e+00,-2.043482128773824513e+00,-2.118884865437642873e+00,1.020774960517883301e+00,-1.679991070424215138e+00,-3.141593043004171193e+00,0.000000000000000000e+00,0.000000000000000000e+00,0.000000000000000000e+00,0.000000000000000000e+00,0.000000000000000000e+00,0.000000000000000000e+00
6.891806125640869141e-01,-1.000000822680490037e-01,-5.000002094581326162e-01,3.000001472795442714e-01,-4.422814919258157490e-09,2.221441698759650141e+00,2.221440329442017081e+00,0.000000000000000000e+00,0.000000000000000000e+00,0.000000000000000000e+00,0.000000000000000000e+00,0.000000000000000000e+00,0.000000000000000000e+00,-1.461602036152974904e+00,-2.043482128773824513e+00,-2.118884865437642873e+00,1.020774960517883301e+00,-1.679991070424215138e+00,-3.141593043004171193e+00,0.000000000000000000e+00,0.000000000000000000e+00,0.000000000000000000e+00,0.000000000000000000e+00,0.000000000000000000e+00,0.000000000000000000e+00
6.975598335266113281e-01,-1.000000822680490037e-01,-5.000002094581326162e-01,3.000001472795442714e-01,-4.422814919258157490e-09,2.221441698759650141e+00,2.221440329442017081e+00,0.000000000000000000e+00,0.000000000000000000e+00,0.000000000000000000e+00,0.000000000000000000e+00,0.000000000000000000e+00,0.000000000000000000e+00,-1.461602036152974904e+00,-2.043482128773824513e+00,-2.118884865437642873e+00,1.020774960517883301e+00,-1.679991070424215138e+00,-3.141593043004171193e+00,0.000000000000000000e+00,0.000000000000000000e+00,0.000000000000000000e+00,0.000000000000000000e+00,0.000000000000000000e+00,0.000000000000000000e+00
7.059180736541748047e-01,-1.000000822680490037e-01,-5.000002094581326162e-01,3.000001472795442714e-01,-4.422814919258157490e-09,2.221441698759650141e+00,2.221440329442017081e+00,0.000000000000000000e+00,0.000000000000000000e+00,0.000000000000000000e+00,0.000000000000000000e+00,0.000000000000000000e+00,0.000000000000000000e+00,-1.461602036152974904e+00,-2.043482128773824513e+00,-2.118884865437642873e+00,1.020774960517883301e+00,-1.679991070424215138e+00,-3.141593043004171193e+00,0.000000000000000000e+00,0.000000000000000000e+00,0.000000000000000000e+00,0.000000000000000000e+00,0.000000000000000000e+00,0.000000000000000000e+00
7.146344184875488281e-01,-1.000000822680490037e-01,-5.000002094581326162e-01,3.000001472795442714e-01,-4.422814919258157490e-09,2.221441698759650141e+00,2.221440329442017081e+00,0.000000000000000000e+00,0.000000000000000000e+00,0.000000000000000000e+00,0.000000000000000000e+00,0.000000000000000000e+00,0.000000000000000000e+00,-1.461602036152974904e+00,-2.043482128773824513e+00,-2.118884865437642873e+00,1.020774960517883301e+00,-1.679991070424215138e+00,-3.141593043004171193e+00,0.000000000000000000e+00,0.000000000000000000e+00,0.000000000000000000e+00,0.000000000000000000e+00,0.000000000000000000e+00,0.000000000000000000e+00
7.229559421539306641e-01,-1.000000822680490037e-01,-5.000002094581326162e-01,3.000001472795442714e-01,-4.422814919258157490e-09,2.221441698759650141e+00,2.221440329442017081e+00,0.000000000000000000e+00,0.000000000000000000e+00,0.000000000000000000e+00,0.000000000000000000e+00,0.000000000000000000e+00,0.000000000000000000e+00,-1.461602036152974904e+00,-2.043482128773824513e+00,-2.118884865437642873e+00,1.020774960517883301e+00,-1.679991070424215138e+00,-3.141593043004171193e+00,0.000000000000000000e+00,0.000000000000000000e+00,0.000000000000000000e+00,0.000000000000000000e+00,0.000000000000000000e+00,0.000000000000000000e+00
7.308895587921142578e-01,-1.000000822680490037e-01,-5.000002094581326162e-01,3.000001472795442714e-01,-4.422814919258157490e-09,2.221441698759650141e+00,2.221440329442017081e+00,0.000000000000000000e+00,0.000000000000000000e+00,0.000000000000000000e+00,0.000000000000000000e+00,0.000000000000000000e+00,0.000000000000000000e+00,-1.461602036152974904e+00,-2.043482128773824513e+00,-2.118884865437642873e+00,1.020774960517883301e+00,-1.679991070424215138e+00,-3.141593043004171193e+00,0.000000000000000000e+00,0.000000000000000000e+00,0.000000000000000000e+00,0.000000000000000000e+00,0.000000000000000000e+00,0.000000000000000000e+00
7.398881912231445312e-01,-1.000000822680490037e-01,-5.000002094581326162e-01,3.000001472795442714e-01,-4.422814919258157490e-09,2.221441698759650141e+00,2.221440329442017081e+00,0.000000000000000000e+00,0.000000000000000000e+00,0.000000000000000000e+00,0.000000000000000000e+00,0.000000000000000000e+00,0.000000000000000000e+00,-1.461602036152974904e+00,-2.043482128773824513e+00,-2.118884865437642873e+00,1.020774960517883301e+00,-1.679991070424215138e+00,-3.141593043004171193e+00,0.000000000000000000e+00,0.000000000000000000e+00,0.000000000000000000e+00,0.000000000000000000e+00,0.000000000000000000e+00,0.000000000000000000e+00
7.480185031890869141e-01,-1.000000822680490037e-01,-5.000002094581326162e-01,3.000001472795442714e-01,-4.422814919258157490e-09,2.221441698759650141e+00,2.221440329442017081e+00,0.000000000000000000e+00,0.000000000000000000e+00,0.000000000000000000e+00,0.000000000000000000e+00,0.000000000000000000e+00,0.000000000000000000e+00,-1.461602036152974904e+00,-2.043482128773824513e+00,-2.118884865437642873e+00,1.020774960517883301e+00,-1.679991070424215138e+00,-3.141593043004171193e+00,0.000000000000000000e+00,0.000000000000000000e+00,0.000000000000000000e+00,0.000000000000000000e+00,0.000000000000000000e+00,0.000000000000000000e+00
7.561008930206298828e-01,-1.000000822680490037e-01,-5.000002094581326162e-01,3.000001472795442714e-01,-4.422814919258157490e-09,2.221441698759650141e+00,2.221440329442017081e+00,0.000000000000000000e+00,0.000000000000000000e+00,0.000000000000000000e+00,0.000000000000000000e+00,0.000000000000000000e+00,0.000000000000000000e+00,-1.461602036152974904e+00,-2.043482128773824513e+00,-2.118884865437642873e+00,1.020774960517883301e+00,-1.679991070424215138e+00,-3.141593043004171193e+00,0.000000000000000000e+00,0.000000000000000000e+00,0.000000000000000000e+00,0.000000000000000000e+00,0.000000000000000000e+00,0.000000000000000000e+00
7.645702362060546875e-01,-1.000000822680490037e-01,-5.000002094581326162e-01,3.000001472795442714e-01,-4.422814919258157490e-09,2.221441698759650141e+00,2.221440329442017081e+00,0.000000000000000000e+00,0.000000000000000000e+00,0.000000000000000000e+00,0.000000000000000000e+00,0.000000000000000000e+00,0.000000000000000000e+00,-1.461602036152974904e+00,-2.043482128773824513e+00,-2.118884865437642873e+00,1.020774960517883301e+00,-1.679991070424215138e+00,-3.141593043004171193e+00,0.000000000000000000e+00,0.000000000000000000e+00,0.000000000000000000e+00,0.000000000000000000e+00,0.000000000000000000e+00,0.000000000000000000e+00
7.729339599609375000e-01,-1.000000822680490037e-01,-5.000002094581326162e-01,3.000001472795442714e-01,-4.422814919258157490e-09,2.221441698759650141e+00,2.221440329442017081e+00,0.000000000000000000e+00,0.000000000000000000e+00,0.000000000000000000e+00,0.000000000000000000e+00,0.000000000000000000e+00,0.000000000000000000e+00,-1.461602036152974904e+00,-2.043482128773824513e+00,-2.118884865437642873e+00,1.020774960517883301e+00,-1.679991070424215138e+00,-3.141593043004171193e+00,0.000000000000000000e+00,0.000000000000000000e+00,0.000000000000000000e+00,0.000000000000000000e+00,0.000000000000000000e+00,0.000000000000000000e+00
7.819764614105224609e-01,-1.000000822680490037e-01,-5.000002094581326162e-01,3.000001472795442714e-01,-4.422814919258157490e-09,2.221441698759650141e+00,2.221440329442017081e+00,0.000000000000000000e+00,0.000000000000000000e+00,0.000000000000000000e+00,0.000000000000000000e+00,0.000000000000000000e+00,0.000000000000000000e+00,-1.461602036152974904e+00,-2.043482128773824513e+00,-2.118884865437642873e+00,1.020774960517883301e+00,-1.679991070424215138e+00,-3.141593043004171193e+00,0.000000000000000000e+00,0.000000000000000000e+00,0.000000000000000000e+00,0.000000000000000000e+00,0.000000000000000000e+00,0.000000000000000000e+00
7.895488739013671875e-01,-1.000000822680490037e-01,-5.000002094581326162e-01,3.000001472795442714e-01,-4.422814919258157490e-09,2.221441698759650141e+00,2.221440329442017081e+00,0.000000000000000000e+00,0.000000000000000000e+00,0.000000000000000000e+00,0.000000000000000000e+00,0.000000000000000000e+00,0.000000000000000000e+00,-1.461602036152974904e+00,-2.043482128773824513e+00,-2.118884865437642873e+00,1.020774960517883301e+00,-1.679991070424215138e+00,-3.141593043004171193e+00,0.000000000000000000e+00,0.000000000000000000e+00,0.000000000000000000e+00,0.000000000000000000e+00,0.000000000000000000e+00,0.000000000000000000e+00
7.984318733215332031e-01,-1.000000822680490037e-01,-5.000002094581326162e-01,3.000001472795442714e-01,-4.422814919258157490e-09,2.221441698759650141e+00,2.221440329442017081e+00,0.000000000000000000e+00,0.000000000000000000e+00,0.000000000000000000e+00,0.000000000000000000e+00,0.000000000000000000e+00,0.000000000000000000e+00,-1.461602036152974904e+00,-2.043482128773824513e+00,-2.118884865437642873e+00,1.020774960517883301e+00,-1.679991070424215138e+00,-3.141593043004171193e+00,0.000000000000000000e+00,0.000000000000000000e+00,0.000000000000000000e+00,0.000000000000000000e+00,0.000000000000000000e+00,0.000000000000000000e+00
8.066635131835937500e-01,-1.000000822680490037e-01,-5.000002094581326162e-01,3.000001472795442714e-01,-4.422814919258157490e-09,2.221441698759650141e+00,2.221440329442017081e+00,0.000000000000000000e+00,0.000000000000000000e+00,0.000000000000000000e+00,0.000000000000000000e+00,0.000000000000000000e+00,0.000000000000000000e+00,-1.461602036152974904e+00,-2.043482128773824513e+00,-2.118884865437642873e+00,1.020774960517883301e+00,-1.679991070424215138e+00,-3.141593043004171193e+00,0.000000000000000000e+00,0.000000000000000000e+00,0.000000000000000000e+00,0.000000000000000000e+00,0.000000000000000000e+00,0.000000000000000000e+00
8.144826889038085938e-01,-1.000000822680490037e-01,-5.000002094581326162e-01,3.000001472795442714e-01,-4.422814919258157490e-09,2.221441698759650141e+00,2.221440329442017081e+00,0.000000000000000000e+00,0.000000000000000000e+00,0.000000000000000000e+00,0.000000000000000000e+00,0.000000000000000000e+00,0.000000000000000000e+00,-1.461602036152974904e+00,-2.043482128773824513e+00,-2.118884865437642873e+00,1.020774960517883301e+00,-1.679991070424215138e+00,-3.141593043004171193e+00,0.000000000000000000e+00,0.000000000000000000e+00,0.000000000000000000e+00,0.000000000000000000e+00,0.000000000000000000e+00,0.000000000000000000e+00
8.227641582489013672e-01,-1.000000822680490037e-01,-5.000002094581326162e-01,3.000001472795442714e-01,-4.422814919258157490e-09,2.221441698759650141e+00,2.221440329442017081e+00,0.000000000000000000e+00,0.000000000000000000e+00,0.000000000000000000e+00,0.000000000000000000e+00,0.000000000000000000e+00,0.000000000000000000e+00,-1.461602036152974904e+00,-2.043482128773824513e+00,-2.118884865437642873e+00,1.020774960517883301e+00,-1.679991070424215138e+00,-3.141593043004171193e+00,0.000000000000000000e+00,0.000000000000000000e+00,0.000000000000000000e+00,0.000000000000000000e+00,0.000000000000000000e+00,0.000000000000000000e+00
8.313279151916503906e-01,-1.000000822680490037e-01,-5.000002094581326162e-01,3.000001472795442714e-01,-4.422814919258157490e-09,2.221441698759650141e+00,2.221440329442017081e+00,0.000000000000000000e+00,0.000000000000000000e+00,0.000000000000000000e+00,0.000000000000000000e+00,0.000000000000000000e+00,0.000000000000000000e+00,-1.461602036152974904e+00,-2.043482128773824513e+00,-2.118884865437642873e+00,1.020774960517883301e+00,-1.679991070424215138e+00,-3.141593043004171193e+00,0.000000000000000000e+00,0.000000000000000000e+00,0.000000000000000000e+00,0.000000000000000000e+00,0.000000000000000000e+00,0.000000000000000000e+00
8.394596576690673828e-01,-1.000000822680490037e-01,-5.000002094581326162e-01,3.000001472795442714e-01,-4.422814919258157490e-09,2.221441698759650141e+00,2.221440329442017081e+00,0.000000000000000000e+00,0.000000000000000000e+00,0.000000000000000000e+00,0.000000000000000000e+00,0.000000000000000000e+00,0.000000000000000000e+00,-1.461602036152974904e+00,-2.043482128773824513e+00,-2.118884865437642873e+00,1.020774960517883301e+00,-1.679991070424215138e+00,-3.141593043004171193e+00,0.000000000000000000e+00,0.000000000000000000e+00,0.000000000000000000e+00,0.000000000000000000e+00,0.000000000000000000e+00,0.000000000000000000e+00
8.475828170776367188e-01,-1.000000822680490037e-01,-5.000002094581326162e-01,3.000001472795442714e-01,-4.422814919258157490e-09,2.221441698759650141e+00,2.221440329442017081e+00,0.000000000000000000e+00,0.000000000000000000e+00,0.000000000000000000e+00,0.000000000000000000e+00,0.000000000000000000e+00,0.000000000000000000e+00,-1.461602036152974904e+00,-2.043482128773824513e+00,-2.118884865437642873e+00,1.020774960517883301e+00,-1.679991070424215138e+00,-3.141593043004171193e+00,0.000000000000000000e+00,0.000000000000000000e+00,0.000000000000000000e+00,0.000000000000000000e+00,0.000000000000000000e+00,0.000000000000000000e+00
8.561036586761474609e-01,-1.000000822680490037e-01,-5.000002094581326162e-01,3.000001472795442714e-01,-4.422814919258157490e-09,2.221441698759650141e+00,2.221440329442017081e+00,0.000000000000000000e+00,0.000000000000000000e+00,0.000000000000000000e+00,0.000000000000000000e+00,0.000000000000000000e+00,0.000000000000000000e+00,-1.461602036152974904e+00,-2.043482128773824513e+00,-2.118884865437642873e+00,1.020774960517883301e+00,-1.679991070424215138e+00,-3.141593043004171193e+00,0.000000000000000000e+00,0.000000000000000000e+00,0.000000000000000000e+00,0.000000000000000000e+00,0.000000000000000000e+00,0.000000000000000000e+00
8.641188144683837891e-01,-1.000000822680490037e-01,-5.000002094581326162e-01,3.000001472795442714e-01,-4.422814919258157490e-09,2.221441698759650141e+00,2.221440329442017081e+00,0.000000000000000000e+00,0.000000000000000000e+00,0.000000000000000000e+00,0.000000000000000000e+00,0.000000000000000000e+00,0.000000000000000000e+00,-1.461602036152974904e+00,-2.043482128773824513e+00,-2.118884865437642873e+00,1.020774960517883301e+00,-1.679991070424215138e+00,-3.141593043004171193e+00,0.000000000000000000e+00,0.000000000000000000e+00,0.000000000000000000e+00,0.000000000000000000e+00,0.000000000000000000e+00,0.000000000000000000e+00
8.724288940429687500e-01,-1.000000822680490037e-01,-5.000002094581326162e-01,3.000001472795442714e-01,-4.422814919258157490e-09,2.221441698759650141e+00,2.221440329442017081e+00,0.000000000000000000e+00,0.000000000000000000e+00,0.000000000000000000e+00,0.000000000000000000e+00,0.000000000000000000e+00,0.000000000000000000e+00,-1.461602036152974904e+00,-2.043482128773824513e+00,-2.118884865437642873e+00,1.020774960517883301e+00,-1.679991070424215138e+00,-3.141593043004171193e+00,0.000000000000000000e+00,0.000000000000000000e+00,0.000000000000000000e+00,0.000000000000000000e+00,0.000000000000000000e+00,0.000000000000000000e+00
8.805525302886962891e-01,-1.000000822680490037e-01,-5.000002094581326162e-01,3.000001472795442714e-01,-4.422814919258157490e-09,2.221441698759650141e+00,2.221440329442017081e+00,0.000000000000000000e+00,0.000000000000000000e+00,0.000000000000000000e+00,0.000000000000000000e+00,0.000000000000000000e+00,0.000000000000000000e+00,-1.461602036152974904e+00,-2.043482128773824513e+00,-2.118884865437642873e+00,1.020774960517883301e+00,-1.679991070424215138e+00,-3.141593043004171193e+00,0.000000000000000000e+00,0.000000000000000000e+00,0.000000000000000000e+00,0.000000000000000000e+00,0.000000000000000000e+00,0.000000000000000000e+00
8.891487121582031250e-01,-1.000000822680490037e-01,-5.000002094581326162e-01,3.000001472795442714e-01,-4.422814919258157490e-09,2.221441698759650141e+00,2.221440329442017081e+00,0.000000000000000000e+00,0.000000000000000000e+00,0.000000000000000000e+00,0.000000000000000000e+00,0.000000000000000000e+00,0.000000000000000000e+00,-1.461602036152974904e+00,-2.043482128773824513e+00,-2.118884865437642873e+00,1.020774960517883301e+00,-1.679991070424215138e+00,-3.141593043004171193e+00,0.000000000000000000e+00,0.000000000000000000e+00,0.000000000000000000e+00,0.000000000000000000e+00,0.000000000000000000e+00,0.000000000000000000e+00
8.973035812377929688e-01,-1.000000822680490037e-01,-5.000002094581326162e-01,3.000001472795442714e-01,-4.422814919258157490e-09,2.221441698759650141e+00,2.221440329442017081e+00,0.000000000000000000e+00,0.000000000000000000e+00,0.000000000000000000e+00,0.000000000000000000e+00,0.000000000000000000e+00,0.000000000000000000e+00,-1.461602036152974904e+00,-2.043482128773824513e+00,-2.118884865437642873e+00,1.020774960517883301e+00,-1.679991070424215138e+00,-3.141593043004171193e+00,0.000000000000000000e+00,0.000000000000000000e+00,0.000000000000000000e+00,0.000000000000000000e+00,0.000000000000000000e+00,0.000000000000000000e+00
9.051995277404785156e-01,-1.000000822680490037e-01,-5.000002094581326162e-01,3.000001472795442714e-01,-4.422814919258157490e-09,2.221441698759650141e+00,2.221440329442017081e+00,0.000000000000000000e+00,0.000000000000000000e+00,0.000000000000000000e+00,0.000000000000000000e+00,0.000000000000000000e+00,0.000000000000000000e+00,-1.461602036152974904e+00,-2.043482128773824513e+00,-2.118884865437642873e+00,1.020774960517883301e+00,-1.679991070424215138e+00,-3.141593043004171193e+00,0.000000000000000000e+00,0.000000000000000000e+00,0.000000000000000000e+00,0.000000000000000000e+00,0.000000000000000000e+00,0.000000000000000000e+00
9.137234687805175781e-01,-1.000000822680490037e-01,-5.000002094581326162e-01,3.000001472795442714e-01,-4.422814919258157490e-09,2.221441698759650141e+00,2.221440329442017081e+00,0.000000000000000000e+00,0.000000000000000000e+00,0.000000000000000000e+00,0.000000000000000000e+00,0.000000000000000000e+00,0.000000000000000000e+00,-1.461602036152974904e+00,-2.043482128773824513e+00,-2.118884865437642873e+00,1.020774960517883301e+00,-1.679991070424215138e+00,-3.141593043004171193e+00,0.000000000000000000e+00,0.000000000000000000e+00,0.000000000000000000e+00,0.000000000000000000e+00,0.000000000000000000e+00,0.000000000000000000e+00
9.217939376831054688e-01,-1.000000822680490037e-01,-5.000002094581326162e-01,3.000001472795442714e-01,-4.422814919258157490e-09,2.221441698759650141e+00,2.221440329442017081e+00,0.000000000000000000e+00,0.000000000000000000e+00,0.000000000000000000e+00,0.000000000000000000e+00,0.000000000000000000e+00,0.000000000000000000e+00,-1.461602036152974904e+00,-2.043482128773824513e+00,-2.118884865437642873e+00,1.020774960517883301e+00,-1.679991070424215138e+00,-3.141593043004171193e+00,0.000000000000000000e+00,0.000000000000000000e+00,0.000000000000000000e+00,0.000000000000000000e+00,0.000000000000000000e+00,0.000000000000000000e+00
9.301280975341796875e-01,-1.000000822680490037e-01,-5.000002094581326162e-01,3.000001472795442714e-01,-4.422814919258157490e-09,2.221441698759650141e+00,2.221440329442017081e+00,0.000000000000000000e+00,0.000000000000000000e+00,0.000000000000000000e+00,0.000000000000000000e+00,0.000000000000000000e+00,0.000000000000000000e+00,-1.461602036152974904e+00,-2.043482128773824513e+00,-2.118884865437642873e+00,1.020774960517883301e+00,-1.679991070424215138e+00,-3.141593043004171193e+00,0.000000000000000000e+00,0.000000000000000000e+00,0.000000000000000000e+00,0.000000000000000000e+00,0.000000000000000000e+00,0.000000000000000000e+00
9.385735988616943359e-01,-1.000000822680490037e-01,-5.000002094581326162e-01,3.000001472795442714e-01,-4.422814919258157490e-09,2.221441698759650141e+00,2.221440329442017081e+00,0.000000000000000000e+00,0.000000000000000000e+00,0.000000000000000000e+00,0.000000000000000000e+00,0.000000000000000000e+00,0.000000000000000000e+00,-1.461602036152974904e+00,-2.043482128773824513e+00,-2.118884865437642873e+00,1.020774960517883301e+00,-1.679991070424215138e+00,-3.141593043004171193e+00,0.000000000000000000e+00,0.000000000000000000e+00,0.000000000000000000e+00,0.000000000000000000e+00,0.000000000000000000e+00,0.000000000000000000e+00
9.469692707061767578e-01,-1.000000822680490037e-01,-5.000002094581326162e-01,3.000001472795442714e-01,-4.422814919258157490e-09,2.221441698759650141e+00,2.221440329442017081e+00,0.000000000000000000e+00,0.000000000000000000e+00,0.000000000000000000e+00,0.000000000000000000e+00,0.000000000000000000e+00,0.000000000000000000e+00,-1.461602036152974904e+00,-2.043482128773824513e+00,-2.118884865437642873e+00,1.020774960517883301e+00,-1.679991070424215138e+00,-3.141593043004171193e+00,0.000000000000000000e+00,0.000000000000000000e+00,0.000000000000000000e+00,0.000000000000000000e+00,0.000000000000000000e+00,0.000000000000000000e+00
9.551465511322021484e-01,-1.000000822680490037e-01,-5.000002094581326162e-01,3.000001472795442714e-01,-4.422814919258157490e-09,2.221441698759650141e+00,2.221440329442017081e+00,0.000000000000000000e+00,0.000000000000000000e+00,0.000000000000000000e+00,0.000000000000000000e+00,0.000000000000000000e+00,0.000000000000000000e+00,-1.461602036152974904e+00,-2.043482128773824513e+00,-2.118884865437642873e+00,1.020774960517883301e+00,-1.679991070424215138e+00,-3.141593043004171193e+00,0.000000000000000000e+00,0.000000000000000000e+00,0.000000000000000000e+00,0.000000000000000000e+00,0.000000000000000000e+00,0.000000000000000000e+00
9.634270668029785156e-01,-1.000000822680490037e-01,-5.000002094581326162e-01,3.000001472795442714e-01,-4.422814919258157490e-09,2.221441698759650141e+00,2.221440329442017081e+00,0.000000000000000000e+00,0.000000000000000000e+00,0.000000000000000000e+00,0.000000000000000000e+00,0.000000000000000000e+00,0.000000000000000000e+00,-1.461602036152974904e+00,-2.043482128773824513e+00,-2.118884865437642873e+00,1.020774960517883301e+00,-1.679991070424215138e+00,-3.141593043004171193e+00,0.000000000000000000e+00,0.000000000000000000e+00,0.000000000000000000e+00,0.000000000000000000e+00,0.000000000000000000e+00,0.000000000000000000e+00
9.718637466430664062e-01,-1.000000822680490037e-01,-5.000002094581326162e-01,3.000001472795442714e-01,-4.422814919258157490e-09,2.221441698759650141e+00,2.221440329442017081e+00,0.000000000000000000e+00,0.000000000000000000e+00,0.000000000000000000e+00,0.000000000000000000e+00,0.000000000000000000e+00,0.000000000000000000e+00,-1.461602036152974904e+00,-2.043482128773824513e+00,-2.118884865437642873e+00,1.020774960517883301e+00,-1.679991070424215138e+00,-3.141593043004171193e+00,0.000000000000000000e+00,0.000000000000000000e+00,0.000000000000000000e+00,0.000000000000000000e+00,0.000000000000000000e+00,0.000000000000000000e+00
9.799027442932128906e-01,-1.000000822680490037e-01,-5.000002094581326162e-01,3.000001472795442714e-01,-4.422814919258157490e-09,2.221441698759650141e+00,2.221440329442017081e+00,0.000000000000000000e+00,0.000000000000000000e+00,0.000000000000000000e+00,0.000000000000000000e+00,0.000000000000000000e+00,0.000000000000000000e+00,-1.461602036152974904e+00,-2.043482128773824513e+00,-2.118884865437642873e+00,1.020774960517883301e+00,-1.679991070424215138e+00,-3.141593043004171193e+00,0.000000000000000000e+00,0.000000000000000000e+00,0.000000000000000000e+00,0.000000000000000000e+00,0.000000000000000000e+00,0.000000000000000000e+00
9.883086681365966797e-01,-1.000000822680490037e-01,-5.000002094581326162e-01,3.000001472795442714e-01,-4.422814919258157490e-09,2.221441698759650141e+00,2.221440329442017081e+00,0.000000000000000000e+00,0.000000000000000000e+00,0.000000000000000000e+00,0.000000000000000000e+00,0.000000000000000000e+00,0.000000000000000000e+00,-1.461602036152974904e+00,-2.043482128773824513e+00,-2.118884865437642873e+00,1.020774960517883301e+00,-1.679991070424215138e+00,-3.141593043004171193e+00,0.000000000000000000e+00,0.000000000000000000e+00,0.000000000000000000e+00,0.000000000000000000e+00,0.000000000000000000e+00,0.000000000000000000e+00
9.968724250793457031e-01,-1.000000822680490037e-01,-5.000002094581326162e-01,3.000001472795442714e-01,-4.422814919258157490e-09,2.221441698759650141e+00,2.221440329442017081e+00,0.000000000000000000e+00,0.000000000000000000e+00,0.000000000000000000e+00,0.000000000000000000e+00,0.000000000000000000e+00,0.000000000000000000e+00,-1.461602036152974904e+00,-2.043482128773824513e+00,-2.118884865437642873e+00,1.020774960517883301e+00,-1.679991070424215138e+00,-3.141593043004171193e+00,0.000000000000000000e+00,0.000000000000000000e+00,0.000000000000000000e+00,0.000000000000000000e+00,0.000000000000000000e+00,0.000000000000000000e+00
1.005575895309448242e+00,-1.000000822680490037e-01,-5.000002094581326162e-01,3.000001472795442714e-01,-4.422814919258157490e-09,2.221441698759650141e+00,2.221440329442017081e+00,0.000000000000000000e+00,0.000000000000000000e+00,0.000000000000000000e+00,0.000000000000000000e+00,0.000000000000000000e+00,0.000000000000000000e+00,-1.461602036152974904e+00,-2.043482128773824513e+00,-2.118884865437642873e+00,1.020774960517883301e+00,-1.679991070424215138e+00,-3.141593043004171193e+00,0.000000000000000000e+00,0.000000000000000000e+00,0.000000000000000000e+00,0.000000000000000000e+00,0.000000000000000000e+00,0.000000000000000000e+00
1.013576745986938477e+00,-1.000000822680490037e-01,-5.000002094581326162e-01,3.000001472795442714e-01,-4.422814919258157490e-09,2.221441698759650141e+00,2.221440329442017081e+00,0.000000000000000000e+00,0.000000000000000000e+00,0.000000000000000000e+00,0.000000000000000000e+00,0.000000000000000000e+00,0.000000000000000000e+00,-1.461602036152974904e+00,-2.043482128773824513e+00,-2.118884865437642873e+00,1.020774960517883301e+00,-1.679991070424215138e+00,-3.141593043004171193e+00,0.000000000000000000e+00,0.000000000000000000e+00,0.000000000000000000e+00,0.000000000000000000e+00,0.000000000000000000e+00,0.000000000000000000e+00
1.026563405990600586e+00,-1.000000822680490037e-01,-5.000002094581326162e-01,3.000001472795442714e-01,-4.422814919258157490e-09,2.221441698759650141e+00,2.221440329442017081e+00,-9.681449810939747711e-06,2.097478770284802226e-06,-1.018815599648367948e-10,-4.541886070809318641e-14,4.142909040982718068e-13,-1.852767343280005804e-05,-1.461602036152974904e+00,-2.043482128773824513e+00,-2.118884865437642873e+00,1.020774960517883301e+00,-1.679991070424215138e+00,-3.141593043004171193e+00,-1.920000067912042141e-05,1.784939627214043867e-07,-3.450883241384872235e-07,1.665943614170828369e-07,6.723272463204921223e-07,0.000000000000000000e+00
1.034623622894287109e+00,-1.000000822680490037e-01,-5.000002094581326162e-01,3.000001472795442714e-01,-4.422814919258157490e-09,2.221441698759650141e+00,2.221440329442017081e+00,-2.962252437469061332e-05,6.424870351749505376e-06,-8.627799015622113007e-10,-7.996123011171117365e-14,1.250978513435062793e-12,-5.673191753885514543e-05,-1.461602036152974904e+00,-2.043482128773824513e+00,-2.118884865437642873e+00,1.020774960517883301e+00,-1.679991070424215138e+00,-3.141593043004171193e+00,-5.875200076843611896e-05,5.519215733329474460e-07,-1.068879441845638212e-06,5.169578116692719050e-07,2.020083229581359774e-06,0.000000000000000000e+00
1.043340206146240234e+00,-1.000003206867166317e-01,-5.000001617743204951e-01,3.000001472795442714e-01,5.252101020741351578e-07,2.221441460341464946e+00,2.221440091023129337e+00,-6.044353347435807639e-05,1.311848245892111821e-05,-1.048249624936604473e-10,5.204732188821301657e-09,5.730948321053554414e-10,-1.158901532107844761e-04,-1.461602512990133107e+00,-2.043482128773824513e+00,-2.118884865437642873e+00,1.020774960517883301e+00,-1.679991070424215138e+00,-3.141593043004171193e+00,-1.199001635541208088e-04,1.135601792157103773e-06,-2.195284650952089578e-06,1.054446670423203614e-06,4.010010343336034566e-06,0.000000000000000000e+00
1.051635742187500000e+00,-1.000007975239836366e-01,-5.000000664063558586e-01,3.000001472795442714e-01,1.584435535124798521e-06,2.221440983461627550e+00,2.221439614122423745e+00,-1.028231862516285555e-04,2.232671268130390080e-05,5.367520746762135620e-10,5.932673565497579751e-09,6.545647210345883933e-10,-1.972996565200447181e-04,-1.461603466664449513e+00,-2.043482128773824513e+00,-2.118884865437642873e+00,1.020774960517883301e+00,-1.679991070424215138e+00,-3.141593043004171193e+00,-2.039900136878713965e-04,1.941071332112187520e-06,-3.749068582692416385e-06,1.802028577913006302e-06,6.690357167826732621e-06,0.000000000000000000e+00
1.059921741485595703e+00,-1.000012758641989352e-01,-4.999999573275704101e-01,3.000001363538995491e-01,2.629290293184769026e-06,2.221440631806929300e+00,2.221438999231642342e+00,-1.574804831255469367e-04,3.422145691064864241e-05,1.061887905534201940e-09,1.014770426782829005e-08,1.119852081400027357e-09,-3.025530932063708457e-04,-1.461604420338765919e+00,-2.043482128773824513e+00,-2.118884865437642873e+00,1.020775079727172852e+00,-1.679991070424215138e+00,-3.141593043004171193e+00,-3.124788054265081882e-04,2.994382839460740797e-06,-5.783004780823830515e-06,2.778412635962013155e-06,9.925712220137938857e-06,0.000000000000000000e+00
1.068561077117919922e+00,-1.000019911197728845e-01,-4.999998142740860740e-01,3.000001363538995491e-01,4.218157048826845352e-06,2.221439916548075377e+00,2.221438283973999006e+00,-2.252059537650845389e-04,4.898094717683567739e-05,3.071087815120930783e-09,1.006626120131126440e-08,1.113712108044871317e-09,-4.332514308771367615e-04,-1.461605850850240529e+00,-2.043482128773824513e+00,-2.118884865437642873e+00,1.020775079727172852e+00,-1.679991070424215138e+00,-3.141593043004171193e+00,-4.469470295589417219e-04,4.318585069995606318e-06,-8.333860932907555252e-06,4.005148184660356492e-06,1.369559868180658668e-05,0.000000000000000000e+00
1.077863454818725586e+00,-1.000032465160684697e-01,-4.999993994303346678e-01,3.000000374132487102e-01,6.394450509574845979e-06,2.221438462377558931e+00,2.221437882786517104e+00,-3.068927556678886846e-04,6.677101345365319145e-05,2.830140842640365818e-09,1.697626191814819545e-08,1.865858191979939109e-09,-5.907253453187848039e-04,-1.461608235036031544e+00,-2.043482128773824513e+00,-2.118885342274801076e+00,1.020775079727172852e+00,-1.679990593587056935e+00,-3.141593043004171193e+00,-6.091115064918994904e-04,5.900960786675568670e-06,-1.139304094976978377e-05,5.475001671584323049e-06,1.838616117311175913e-05,0.000000000000000000e+00
1.086306571960449219e+00,-1.000049154435604659e-01,-4.999990656307023995e-01,3.000000374132487102e-01,1.010184505630168218e-05,2.221436793426522893e+00,2.221436213825514816e+00,-4.034387326541993488e-04,8.782747072633159614e-05,2.860762127476546296e-09,2.422638140350290855e-08,2.661925686054787049e-09,-7.772931767249204775e-04,-1.461611572896138966e+00,-2.043482128773824513e+00,-2.118885342274801076e+00,1.020775079727172852e+00,-1.679990593587056935e+00,-3.141593043004171193e+00,-8.008400909602642059e-04,7.794932571414392442e-06,-1.505323962192051113e-05,7.233934866235358641e-06,2.354691423533950001e-05,0.000000000000000000e+00
1.094558715820312500e+00,-1.000070701789843586e-01,-4.999985545920435093e-01,3.000002692153937445e-01,1.481083961243957690e-05,2.221435148144425664e+00,2.221433515585140572e+00,-5.158694346356670467e-04,1.123757062521337955e-04,6.304890049948822072e-09,2.665623211321915034e-08,2.943701235660515196e-09,-9.949265404429778401e-04,-1.461615864430562794e+00,-2.043481651936666310e+00,-2.118885342274801076e+00,1.020775079727172852e+00,-1.679990593587056935e+00,-3.141593043004171193e+00,-1.024167984724044800e-03,1.002734279609285295e-05,-1.935419459186960012e-05,9.300033525505568832e-06,2.924144428106956184e-05,0.000000000000000000e+00
1.102971315383911133e+00,-1.000099326948294259e-01,-4.999979686284221625e-01,3.000002582897466907e-01,2.115193240841004835e-05,2.221432412221427288e+00,2.221430516422528978e+00,-6.452523586386297747e-04,1.406968692021009972e-04,7.806410056809022977e-09,3.711102106043176811e-08,4.097921335140990145e-09,-1.246386382263158779e-03,-1.461621586476461232e+00,-2.043481651936666310e+00,-2.118885342274801076e+00,1.020775198936462402e+00,-1.679990593587056935e+00,-3.141593043004171193e+00,-1.281316974200308323e-03,1.264751699636690319e-05,-2.441306605760473758e-05,1.172821248474065214e-05,3.493059193715453148e-05,0.000000000000000000e+00
1.111034154891967773e+00,-1.000133145035334431e-01,-4.999973009778098110e-01,3.000002582897425274e-01,2.803710354230573397e-05,2.221429312738236739e+00,2.221427416942555855e+00,-7.928093489309333058e-04,1.730609425504757925e-04,9.079733955644951456e-09,4.431693835758802729e-08,4.892417216135264495e-09,-1.534052025817806168e-03,-1.461628262196676076e+00,-2.043481651936666310e+00,-2.118885342274801076e+00,1.020775198936462402e+00,-1.679990116749898732e+00,-3.141593043004171193e+00,-1.574716065078973770e-03,1.568532934470567852e-05,-3.027833554369863123e-05,1.454842004022793844e-05,4.066403926117345691e-05,0.000000000000000000e+00
1.119423627853393555e+00,-1.000176268483966985e-01,-4.999962524085309057e-01,3.000001484234616211e-01,3.761365546101583409e-05,2.221424645765310846e+00,2.221423539678472725e+00,-9.598594214228599059e-04,2.097733435493463999e-04,1.070091578640233091e-08,5.646459194278301575e-08,6.211555554829748190e-09,-1.860744945588515805e-03,-1.461636845265523732e+00,-2.043481651936666310e+00,-2.118885819111959279e+00,1.020775318145751953e+00,-1.679990116749898732e+00,-3.141593043004171193e+00,-1.907026162371039391e-03,1.917934241646435112e-05,-3.702509638969786465e-05,1.778894875315017998e-05,4.628121678251773119e-05,0.000000000000000000e+00
1.127797603607177734e+00,-1.000229174791565506e-01,-4.999951894419671361e-01,3.000001374978143454e-01,4.872132640023924422e-05,2.221419763996338226e+00,2.221418394668704277e+00,-1.148024534698039627e-03,2.510486386478917044e-04,1.330404382467213278e-08,6.542663326712282451e-08,7.203189545214669251e-09,-2.227537988801483754e-03,-1.461647335683004201e+00,-2.043481651936666310e+00,-2.118885819111959279e+00,1.020775437355041504e+00,-1.679989639912740529e+00,-3.141593043004171193e+00,-2.281167311593890190e-03,2.305130328750237823e-05,-4.449755942914634943e-05,2.138043419108726084e-05,5.362932279240339994e-05,0.000000000000000000e+00
1.136995553970336914e+00,-1.000293755434219084e-01,-4.999937115149035716e-01,3.000000276316360237e-01,6.306437137167863951e-05,2.221412951142658354e+00,2.221412371525025353e+00,-1.358627637287373319e-03,2.974524769848402132e-04,1.383381674046653696e-08,7.995366002163622574e-08,8.776305824044881611e-09,-2.640978775161769831e-03,-1.461660210286275685e+00,-2.043481651936666310e+00,-2.118886295949117482e+00,1.020775556564331055e+00,-1.679989639912740529e+00,-3.141593043004171193e+00,-2.700350247323513031e-03,2.753972512437030673e-05,-5.316933675203472376e-05,2.554917773522902280e-05,5.937147216172888875e-05,0.000000000000000000e+00
1.146750688552856445e+00,-1.000368208502486478e-01,-4.999921372571917710e-01,3.000002485078892556e-01,7.888078013877751623e-05,2.221406423959156662e+00,2.221404528155654479e+00,-1.593482299719433748e-03,3.493535725004574149e-04,1.706278044156851723e-08,9.716328714591102385e-08,1.070011384569241453e-08,-3.104134455497845752e-03,-1.461674992238179982e+00,-2.043481175099508107e+00,-2.118886295949117482e+00,1.020775675773620605e+00,-1.679989163075582326e+00,-3.141593043004171193e+00,-3.168112132698297501e-03,3.266573185101151466e-05,-6.306429713731631637e-05,3.030081461474765092e-05,6.397767720045521855e-05,0.000000000000000000e+00
1.154847621917724609e+00,-1.000459453883446731e-01,-4.999901343918563557e-01,3.000001386417203153e-01,9.851977523364459561e-05,2.221397226711328887e+00,2.221396120610954927e+00,-1.854524312602827060e-03,4.072054527865901787e-04,1.995481643597880975e-08,1.110326818644399573e-07,1.219617479836600392e-08,-3.621141302573945963e-03,-1.461693112050191701e+00,-2.043481175099508107e+00,-2.118886772786275685e+00,1.020775794982910156e+00,-1.679988686238424123e+00,-3.141593043004171193e+00,-3.688358003273606300e-03,3.848268534056842327e-05,-7.429393735947087407e-05,3.569955151760950685e-05,6.721670069964602590e-05,0.000000000000000000e+00
1.163402557373046875e+00,-1.000564668660684220e-01,-4.999877495319858811e-01,3.000002496516765427e-01,1.217937301658789491e-04,2.221386985968830885e+00,2.221385353395685769e+00,-2.143878519218797834e-03,4.715242663912449670e-04,2.434407509424061462e-08,1.251674170453229883e-07,1.375897160509966297e-08,-4.196793961455107247e-03,-1.461714092885152638e+00,-2.043480698262349904e+00,-2.118887249623433888e+00,1.020776033401489258e+00,-1.679988686238424123e+00,-3.141593043004171193e+00,-4.265408962965011597e-03,4.507500489125959575e-05,-8.701615297468379140e-05,4.181522672297433019e-05,6.861500150989741087e-05,0.000000000000000000e+00
1.171995162963867188e+00,-1.000689305811489072e-01,-4.999850645764906121e-01,3.000001288599707938e-01,1.488323761566101740e-04,2.221374575555580932e+00,2.221373469444556381e+00,-2.464131508235220883e-03,5.427154294509680971e-04,2.785109019324286879e-08,1.494280273983116303e-07,1.639658895936474830e-08,-4.833701888855990690e-03,-1.461738888417379201e+00,-2.043480698262349904e+00,-2.118887726460592091e+00,1.020776271820068359e+00,-1.679988209401265919e+00,-3.141593043004171193e+00,-4.904055502265691757e-03,5.235698699834756553e-05,-1.010765408864244819e-04,4.856922896578907967e-05,7.035361340967938304e-05,0.000000000000000000e+00
1.181639432907104492e+00,-1.000833119668216586e-01,-4.999819019549353594e-01,3.000002289441480174e-01,1.800353812174433480e-04,2.221360883087748039e+00,2.221358987274071772e+00,-2.817828860565149175e-03,6.214655443413110401e-04,3.238354866757313768e-08,1.670229890976513176e-07,1.834414080509471514e-08,-5.538606223126399039e-03,-1.461767498646871388e+00,-2.043480221425191701e+00,-2.118888203297750294e+00,1.020776629447937012e+00,-1.679987732564107716e+00,-3.141593043004171193e+00,-5.609622225165367126e-03,6.048118666512891650e-05,-1.167580412584356964e-04,5.610882726614363492e-05,7.101600203895941377e-05,0.000000000000000000e+00
1.192675590515136719e+00,-1.001000966424960836e-01,-4.999780851883529054e-01,3.000002300879111017e-01,2.165915406213699370e-04,2.221344305456383061e+00,2.221342672869665247e+00,-3.207536703462947596e-03,7.087401606616618383e-04,3.758918919976553141e-08,1.936958165461350645e-07,2.124494031627172640e-08,-6.322171757346928787e-03,-1.461800877247945607e+00,-2.043479744588033498e+00,-2.118889156972066701e+00,1.020776987075805664e+00,-1.679987255726949513e+00,-3.141593043004171193e+00,-6.388041190803050995e-03,6.981059414101764560e-05,-1.347678917227312922e-04,6.476244016084820032e-05,6.586943345610052347e-05,0.000000000000000000e+00
1.200928688049316406e+00,-1.001343070673814117e-01,-4.999705787298940329e-01,3.000001104402914565e-01,2.918349160426348516e-04,2.221310070353047728e+00,2.221309227438102774e+00,-5.586649159674583406e-03,1.235325412084993957e-03,6.578708935120542708e-08,3.388321208516423796e-07,3.709642030095756753e-08,-1.101878067856881284e-02,-1.461869064961568654e+00,-2.043479267750875294e+00,-2.118890587483541310e+00,1.020777583122253418e+00,-1.679986778889791310e+00,-3.141593043004171193e+00,-1.112743373960256577e-02,1.219842524733394384e-04,-2.354878815822303295e-04,1.131627723225392401e-04,1.086530610336922109e-04,0.000000000000000000e+00
1.209604263305664062e+00,-1.001632617712852336e-01,-4.999642152754157909e-01,3.000003215334219320e-01,3.553104894500198592e-04,2.221282081147434528e+00,2.221279922090705572e+00,-5.007413928495805036e-03,1.108671646837410332e-03,5.839773761294488055e-08,3.062385315252230411e-07,3.355454529786283067e-08,-9.892687943647593060e-03,-1.461926762257711232e+00,-2.043478314076558888e+00,-2.118891541157857716e+00,1.020778179168701172e+00,-1.679986302052633107e+00,-3.141593043004171193e+00,-9.976219385862350464e-03,1.102288515539839864e-04,-2.127976767951622605e-04,1.022607539198361337e-04,8.353144221473485231e-05,0.000000000000000000e+00
1.217567920684814453e+00,-1.002135411999508230e-01,-4.999530135412809662e-01,3.000001921039346375e-01,4.654990474582044362e-04,2.221232104549367925e+00,2.221230735147746049e+00,-7.884124326976186745e-03,1.747056540990294966e-03,9.169482358064163593e-08,4.835729026876256614e-07,5.288353691980376122e-08,-1.558540297264691260e-02,-1.462026898060933888e+00,-2.043477360402242482e+00,-2.118893925343648732e+00,1.020779252052307129e+00,-1.679985348378316701e+00,-3.141593043004171193e+00,-1.570916734635829926e-02,1.740571606205776334e-04,-3.360205446369946003e-04,1.614769280422478914e-04,1.237643737113103271e-04,0.000000000000000000e+00
1.226484775543212891e+00,-1.002549134539245101e-01,-4.999439559268207822e-01,3.000002824051432593e-01,5.565338628842199202e-04,2.221191461487243668e+00,2.221189302418566047e+00,-6.831760425569585737e-03,1.515399258707328086e-03,8.034074866672353860e-08,4.166555027442279386e-07,4.555816541124560629e-08,-1.351899609289826387e-02,-1.462109390889303029e+00,-2.043476406727926076e+00,-2.118895355855123341e+00,1.020780086517333984e+00,-1.679984871541158498e+00,-3.141593043004171193e+00,-1.361458376049995422e-02,1.515773328719660640e-04,-2.926196611952036619e-04,1.406231895089149475e-04,9.558766760164871812e-05,0.000000000000000000e+00
1.239759206771850586e+00,-1.002941586443919786e-01,-4.999351488781526021e-01,3.000002737665846131e-01,6.428574594056638350e-04,2.221152462498561686e+00,2.221150566638141921e+00,-6.681150362073188555e-03,1.484863224949976293e-03,8.068630743002612094e-08,4.057701321647106542e-07,4.430026027107551385e-08,-1.325475136400194529e-02,-1.462187592183248341e+00,-2.043475453053609669e+00,-2.118897263203756154e+00,1.020780920982360840e+00,-1.679984394704000294e+00,-3.141593043004171193e+00,-1.331958360970020294e-02,1.500845392001792789e-04,-2.897318918257951736e-04,1.392391714034602046e-04,6.483224569819867611e-05,0.000000000000000000e+00
1.248182773590087891e+00,-1.003350717541970777e-01,-4.999260038466712963e-01,3.000002651279737864e-01,7.328843580834022839e-04,2.221111792292199905e+00,2.221110159632590175e+00,-6.985267773638276570e-03,1.555726197884990192e-03,8.492280310578742600e-08,4.271437118035391425e-07,4.656544811958541275e-08,-1.389696795013143152e-02,-1.462269131337301076e+00,-2.043474499379293263e+00,-2.118899170552388966e+00,1.020781755447387695e+00,-1.679983917866842091e+00,-3.141593043004171193e+00,-1.393177546560764313e-02,1.590430183568969369e-04,-3.070268721785396338e-04,1.475541794206947088e-04,3.480751547613181174e-05,0.000000000000000000e+00
1.256218194961547852e+00,-1.003792788706842076e-01,-4.999161716948239409e-01,3.000002455636600618e-01,8.308354135373388497e-04,2.221067667637834475e+00,2.221066034964640501e+00,-7.547279455746655312e-03,1.684633639299852039e-03,9.313146980257569102e-08,4.576169155521984835e-07,4.981904391389624061e-08,-1.505925260374842492e-02,-1.462357346211568654e+00,-2.043473545704976857e+00,-2.118901077901021779e+00,1.020782709121704102e+00,-1.679983917866842091e+00,-3.141593043004171193e+00,-1.505939383059740067e-02,1.742573367664590478e-04,-3.363940340932458639e-04,1.616763765923678875e-04,1.412268488820700441e-07,0.000000000000000000e+00
1.264495611190795898e+00,-1.004282292245692598e-01,-4.999051877869728489e-01,3.000001161350295265e-01,9.399437782970391717e-04,2.221018156296768353e+00,2.221017313212938937e+00,-8.278184505820738656e-03,1.854076158028771133e-03,1.059763456431616621e-07,5.015740736062164664e-07,5.452905799263979661e-08,-1.659665581973957318e-02,-1.462455097829000294e+00,-2.043472592030660451e+00,-2.118903462086812794e+00,1.020783782005310059e+00,-1.679984394704000294e+00,-3.141593043004171193e+00,-1.652964949607849121e-02,1.954685430973768234e-04,-3.773325006477534771e-04,1.813594280974939466e-04,-6.700632366118952632e-05,0.000000000000000000e+00
1.272871971130371094e+00,-1.004826712366715252e-01,-4.998930015166107577e-01,3.000002075783083089e-01,1.061151797062493459e-03,2.220963781429167838e+00,2.220962411920730961e+00,-9.145042275142680269e-03,2.053422277631385389e-03,1.227318401116567487e-07,5.521035687162529657e-07,5.991190730355763695e-08,-1.839500373171162884e-02,-1.462563816701070607e+00,-2.043471161519185841e+00,-2.118905846272603810e+00,1.020784974098205566e+00,-1.679984871541158498e+00,-3.141593043004171193e+00,-1.826978847384452820e-02,2.192447864217683673e-04,-4.232137580402195454e-04,2.034136268775910139e-04,-1.252152578672394156e-04,0.000000000000000000e+00
1.282658815383911133e+00,-1.005440024288744988e-01,-4.998792151960442798e-01,3.000001782315522281e-01,1.198263925711810351e-03,2.220901996176139814e+00,2.220900626643226516e+00,-1.013199250235679791e-02,2.282589580789839631e-03,1.392763899613052795e-07,6.063969969807261253e-07,6.567956941880547631e-08,-2.047112575382908917e-02,-1.462686363850728810e+00,-2.043469731007711232e+00,-2.118908707295553029e+00,1.020786404609680176e+00,-1.679985825215474904e+00,-3.141593043004171193e+00,-2.025526948273181915e-02,2.478819515090435743e-04,-4.784854827448725700e-04,2.299935877090319991e-04,-2.158562710974365473e-04,0.000000000000000000e+00
1.293078899383544922e+00,-1.006126534100197506e-01,-4.998637441030017170e-01,3.000000390213981571e-01,1.352879840945287989e-03,2.220831958183951738e+00,2.220831378177797522e+00,-1.124229519571650834e-02,2.539523329201126122e-03,1.550297961410678122e-07,6.813256573357872023e-07,7.377172210061511750e-08,-2.278989227488622052e-02,-1.462823692952291310e+00,-2.043468300496236623e+00,-2.118912045155660451e+00,1.020787954330444336e+00,-1.679987732564107716e+00,-3.141593043004171193e+00,-2.248657308518886566e-02,2.791623119264841080e-04,-5.388715071603655815e-04,2.590238873381167650e-04,-3.033191896975040436e-04,0.000000000000000000e+00
1.301919460296630859e+00,-1.006898783131006808e-01,-4.998461676429901135e-01,3.000002426127560962e-01,1.526984342132392623e-03,2.220753837466014069e+00,2.220752467874949510e+00,-1.248273615983102637e-02,2.826556578326137447e-03,1.745935913588466267e-07,7.609546211717938743e-07,8.211723065579055707e-08,-2.537468890659487497e-02,-1.462978188191549123e+00,-2.043465916310445607e+00,-2.118915859852926076e+00,1.020789742469787598e+00,-1.679990116749898732e+00,-3.141593043004171193e+00,-2.497873827815055847e-02,3.137877210974693298e-04,-6.057061837054789066e-04,2.911530900746583939e-04,-3.959506284445524216e-04,0.000000000000000000e+00
1.310344457626342773e+00,-1.007765398297682663e-01,-4.998267117643383495e-01,3.000001925570788264e-01,1.723334406807314808e-03,2.220665437505231932e+00,2.220663804709947620e+00,-1.386111743425334081e-02,3.150026696283797761e-03,1.988765803572998845e-07,8.473002747603004378e-07,9.115340340142327533e-08,-2.830528817139533332e-02,-1.463151756917135060e+00,-2.043464008961812794e+00,-2.118919674550191701e+00,1.020791769027709961e+00,-1.679993454610006154e+00,-3.141593043004171193e+00,-2.775674127042293549e-02,3.554630384314805269e-04,-6.861438741907477379e-04,3.298286464996635914e-04,-5.485469009727239609e-04,0.000000000000000000e+00
1.318883657455444336e+00,-1.008741518996868064e-01,-4.998042942556877866e-01,3.000002765004192717e-01,1.945085639811649884e-03,2.220565448588244006e+00,2.220563815763012538e+00,-1.539071394408389817e-02,3.516210725588012932e-03,2.236900196927537336e-07,9.467041203402372431e-07,1.015216602619455328e-07,-3.165289561729836554e-02,-1.463347260151998341e+00,-2.043461147938863576e+00,-2.118924919758931935e+00,1.020794153213500977e+00,-1.679997746144429982e+00,-3.141593043004171193e+00,-3.085371851921081543e-02,4.069433780387043953e-04,-7.855209405533969402e-04,3.776254307013005018e-04,-7.991770980879664421e-04,0.000000000000000000e+00
1.327220201492309570e+00,-1.009837606348570477e-01,-4.997791847814171962e-01,3.000002287294895598e-01,2.195935280949415629e-03,2.220452196148244184e+00,2.220450826439475556e+00,-1.710048633082090000e-02,3.923830520228837118e-03,2.570306229151120019e-07,1.057965347016277061e-06,1.132276938651796335e-07,-3.535953687969552867e-02,-1.463567082081929982e+00,-2.043458286915914357e+00,-2.118930641804830373e+00,1.020796895027160645e+00,-1.680003945027486623e+00,-3.141593043004171193e+00,-3.431067615747451782e-02,4.625431902240961790e-04,-8.928297320380806923e-04,4.292225348763167858e-04,-1.048860722221434116e-03,0.000000000000000000e+00
1.335283517837524414e+00,-1.011067586835193571e-01,-4.997510044013324104e-01,3.000002810357909611e-01,2.479520963195022687e-03,2.220324504842111413e+00,2.220322608807082432e+00,-1.901001388253696286e-02,4.382461108186025064e-03,2.909046820287784551e-07,1.186270078324172703e-06,1.262242495409499511e-07,-3.953474026638940236e-02,-1.463814083729879201e+00,-2.043454949055806935e+00,-2.118936840687887013e+00,1.020799994468688965e+00,-1.680012528096334279e+00,-3.141593043004171193e+00,-3.817710280418395996e-02,5.265662330202758312e-04,-1.016410184092819691e-03,4.886509850621223450e-04,-1.357637462206184864e-03,0.000000000000000000e+00
1.344515562057495117e+00,-1.012455671084539210e-01,-4.997188800926577468e-01,3.000002136970140176e-01,2.801207442595384824e-03,2.220179230000174808e+00,2.220177597060952301e+00,-2.113802654345772747e-02,4.906976565513946828e-03,3.354017275532065520e-07,1.345603335648691719e-06,1.427512263820197255e-07,-4.436397762037735254e-02,-1.464093033467428029e+00,-2.043451134358541310e+00,-2.118944470082418263e+00,1.020803689956665039e+00,-1.680023495350972951e+00,-3.141593043004171193e+00,-4.251219704747200012e-02,6.075889104977250099e-04,-1.172798103652894497e-03,5.638560396619141102e-04,-1.851780572906136513e-03,0.000000000000000000e+00
1.354649305343627930e+00,-1.014014432785878966e-01,-4.996824409015276358e-01,3.000002694265138659e-01,3.166226429032575809e-03,2.220014350833010131e+00,2.220012980955853976e+00,-2.352794836480978993e-02,5.499945083193815559e-03,3.878827810055820856e-07,1.488391612665496290e-06,1.574305433546375661e-07,-4.982311255298477876e-02,-1.464406792317525685e+00,-2.043446365986959279e+00,-2.118953529988424123e+00,1.020807862281799316e+00,-1.680038754140035451e+00,-3.141593043004171193e+00,-4.738671332597732544e-02,7.005031220614910126e-04,-1.352120772935450077e-03,6.501209572888910770e-04,-2.436399227008223534e-03,0.000000000000000000e+00
1.363040685653686523e+00,-1.015771493769936362e-01,-4.996411306690273779e-01,3.000001836601037253e-01,3.581976969378692071e-03,2.219826387678457635e+00,2.219825543914893284e+00,-2.620308542455376463e-02,6.185245621020473566e-03,4.459256782574853788e-07,1.713925371819702833e-06,1.811420869543600049e-07,-5.621825787238717009e-02,-1.464761082326070607e+00,-2.043441120778219044e+00,-2.118964020405904591e+00,1.020812869071960449e+00,-1.680059258137838185e+00,-3.141593043004171193e+00,-5.288537219166755676e-02,8.200989686883985996e-04,-1.582983531989157200e-03,7.611610926687717438e-04,-3.332885680720210075e-03,0.000000000000000000e+00
1.371239185333251953e+00,-1.017748082147813676e-01,-4.995943485561357700e-01,3.000001772556453172e-01,4.056822471460620402e-03,2.219612129650089027e+00,2.219610759621120977e+00,-2.921473886109551485e-02,6.974757709297965680e-03,5.179279870676377346e-07,1.942682825847459329e-06,2.031564036990950983e-07,-6.364489812403789637e-02,-1.465160671864644826e+00,-2.043434921895162404e+00,-2.118975941334859669e+00,1.020818829536437988e+00,-1.680087868367330373e+00,-3.141593043004171193e+00,-5.911000445485115051e-02,9.671721491031348705e-04,-1.866869162768125534e-03,8.977437391877174377e-04,-4.534893669188022614e-03,0.000000000000000000e+00
1.379623174667358398e+00,-1.019982017122590817e-01,-4.995406656390190547e-01,3.000001742706636110e-01,4.600343839040677875e-03,2.219366380311665221e+00,2.219365273240490488e+00,-3.264183038353724725e-02,7.870743956768620417e-03,6.014297219556979570e-07,2.212824228908851128e-06,2.306757752407063006e-07,-7.201947504654407362e-02,-1.465613190327779591e+00,-2.043427292500631154e+00,-2.118990723286763966e+00,1.020825862884521484e+00,-1.680125538502828419e+00,-3.141593043004171193e+00,-6.618360430002212524e-02,1.130246208049356937e-03,-2.181631978601217270e-03,1.049160957336425781e-03,-5.835870746523141861e-03,0.000000000000000000e+00
1.387731790542602539e+00,-1.022507443718897319e-01,-4.994794658219745553e-01,3.000002517787724865e-01,5.221923665644503769e-03,2.219085562697117542e+00,2.219083929450252679e+00,-3.655294754990378453e-02,8.895702674104782534e-03,6.994985329584312319e-07,2.498594107523536246e-06,2.570607718009145886e-07,-8.155893301591025935e-02,-1.466125790272847951e+00,-2.043418232594625294e+00,-2.119007889424459279e+00,1.020834207534790039e+00,-1.680173699055806935e+00,-3.141593043004171193e+00,-7.425549626350402832e-02,1.315290341153740883e-03,-2.538781380280852318e-03,1.220979262143373489e-03,-7.303436752408742905e-03,0.000000000000000000e+00
1.396083831787109375e+00,-1.025368527396375989e-01,-4.994094237102820188e-01,3.000002119189372207e-01,5.933239782433428686e-03,2.218763381997173045e+00,2.218762537639230814e+00,-4.103272230321754199e-02,1.007656186127138011e-02,8.205212321662939157e-07,2.808149174763843437e-06,2.899017479592027738e-07,-9.251679014414425362e-02,-1.466707531605855763e+00,-2.043407742177144826e+00,-2.119028393422262013e+00,1.020843863487243652e+00,-1.680233780537740529e+00,-3.141593043004171193e+00,-8.350803703069686890e-02,1.528845401480793953e-03,-2.950926078483462334e-03,1.419257605448365211e-03,-9.008753113448619843e-03,0.000000000000000000e+00
1.404448986053466797e+00,-1.027946580523489001e-01,-4.993459892787966981e-01,3.000001588424585641e-01,6.579337614048710522e-03,2.218470885232219469e+00,2.218470040711973734e+00,-4.600391403661876349e-02,1.135966443825706107e-02,9.390057709391766824e-07,3.150641957710693259e-06,3.234149012312978570e-07,-1.042745979502782833e-01,-1.467232529317037404e+00,-2.043398205433980763e+00,-2.119046990071431935e+00,1.020852923393249512e+00,-1.680291954671041310e+00,-3.141593043004171193e+00,-9.371717274188995361e-02,1.743686618283390999e-03,-3.365572309121489525e-03,1.618718495592474937e-03,-1.055742520838975906e-02,0.000000000000000000e+00
1.413110971450805664e+00,-1.027946580523489001e-01,-4.993459892787966981e-01,3.000001588424585641e-01,6.579337614048710522e-03,2.218470885232219469e+00,2.218470040711973734e+00,0.000000000000000000e+00,0.000000000000000000e+00,0.000000000000000000e+00,0.000000000000000000e+00,0.000000000000000000e+00,0.000000000000000000e+00,-1.467232529317037404e+00,-2.043398205433980763e+00,-2.119046990071431935e+00,1.020852923393249512e+00,-1.680291954671041310e+00,-3.141593043004171193e+00,0.000000000000000000e+00,0.000000000000000000e+00,0.000000000000000000e+00,0.000000000000000000e+00,0.000000000000000000e+00,0.000000000000000000e+00
1.422000646591186523e+00,-1.027946580523489001e-01,-4.993459892787966981e-01,3.000001588424585641e-01,6.579337614048710522e-03,2.218470885232219469e+00,2.218470040711973734e+00,0.000000000000000000e+00,0.000000000000000000e+00,0.000000000000000000e+00,0.000000000000000000e+00,0.000000000000000000e+00,0.000000000000000000e+00,-1.467232529317037404e+00,-2.043398205433980763e+00,-2.119046990071431935e+00,1.020852923393249512e+00,-1.680291954671041310e+00,-3.141593043004171193e+00,0.000000000000000000e+00,0.000000000000000000e+00,0.000000000000000000e+00,0.000000000000000000e+00,0.000000000000000000e+00,0.000000000000000000e+00
1.429837226867675781e+00,-1.028239476550590892e-01,-4.993377429988032912e-01,3.000001415516291847e-01,6.667048702037704083e-03,2.218430926544580739e+00,2.218430607923521425e+00,-7.487411839921089517e-03,2.081416503873901366e-03,2.529948490802297479e-07,5.969481671607455483e-07,6.134802447760046255e-08,-2.032622043043358015e-02,-1.467294041310445607e+00,-2.043396298085347951e+00,-2.119050804768697560e+00,1.020854592323303223e+00,-1.680309597645894826e+00,-3.141593043004171193e+00,-1.574400067329406738e-02,4.682907601818442345e-04,-9.037904674187302589e-04,4.348996153566986322e-04,-4.582219757139682770e-03,0.000000000000000000e+00
1.438565969467163086e+00,-1.029035707953783463e-01,-4.993155259082092123e-01,3.000002754580182174e-01,6.909424735173650203e-03,2.218321622191654185e+00,2.218320251694227530e+00,-1.410282733370247718e-02,3.970162140956643229e-03,4.950063736522956874e-07,1.177407041816242419e-06,1.163585856851584196e-07,-3.897122852504052160e-02,-1.467461887990133107e+00,-2.043391052876607716e+00,-2.119060341511861623e+00,1.020859360694885254e+00,-1.680360619221822560e+00,-3.141593043004171193e+00,-2.975616045296192169e-02,9.196946630254387856e-04,-1.774994656443595886e-03,8.541168645024299622e-04,-9.215068072080612183e-03,0.000000000000000000e+00
1.446501731872558594e+00,-1.030295621435918380e-01,-4.992789399762319613e-01,3.000002539989072847e-01,7.311341352842089594e-03,2.218139291276120417e+00,2.218138446580780521e+00,-2.008539277953421201e-02,5.917423426782229129e-03,7.986707999763609328e-07,1.815998048864295448e-06,1.815811775093170963e-07,-5.923212319612347621e-02,-1.467729870473043263e+00,-2.043381992970601857e+00,-2.119077984486715138e+00,1.020867705345153809e+00,-1.680455509816304982e+00,-3.141593043004171193e+00,-4.292789846658706665e-02,1.514723291620612144e-03,-2.923401771113276482e-03,1.406853436492383480e-03,-1.630422472953796387e-02,0.000000000000000000e+00
1.455264568328857422e+00,-1.031978970190777084e-01,-4.992262789258118394e-01,3.000003468427526188e-01,7.909535318955005292e-03,2.217868387104755534e+00,2.217867016468619834e+00,-2.540004089496052456e-02,8.269922482082473630e-03,1.367183905470719471e-06,2.572259884388376553e-06,2.462736864179684853e-07,-8.615693636237940767e-02,-1.468096081410543263e+00,-2.043366734181539357e+00,-2.119107071553365529e+00,1.020881772041320801e+00,-1.680629555379049123e+00,-3.141593043004171193e+00,-5.593974888324737549e-02,2.534006722271442413e-03,-4.890344571322202682e-03,2.353753894567489624e-03,-3.021718747913837433e-02,0.000000000000000000e+00
1.463574647903442383e+00,-1.033906254358792215e-01,-4.991587982249050537e-01,3.000003158252483315e-01,8.708183639157703743e-03,2.217506038632030219e+00,2.217504930755822112e+00,-2.640686500616566679e-02,9.806044477168590970e-03,1.889508570617774412e-06,3.244728795028027885e-06,3.097316027957992025e-07,-1.069076322019035519e-01,-1.468530480061666310e+00,-2.043343845997945607e+00,-2.119151417409078419e+00,1.020903110504150391e+00,-1.680916611348287404e+00,-3.141593043004171193e+00,-6.070416420698165894e-02,3.587187267839908600e-03,-6.922861561179161072e-03,3.332414897158741951e-03,-4.620346799492835999e-02,0.000000000000000000e+00
1.472187757492065430e+00,-1.035712779718755416e-01,-4.990840383293432270e-01,3.000002707316540840e-01,9.640049050490834964e-03,2.217082938601024900e+00,2.217082093380231989e+00,-2.188647832851897679e-02,1.008501579538292198e-02,2.337575220528996821e-06,3.516624992654177471e-06,3.354359494156792620e-07,-1.168355457484669402e-01,-1.468962017689840138e+00,-2.043313328419820607e+00,-2.119210545216695607e+00,1.020931601524353027e+00,-1.681327168141500294e+00,-3.141593043004171193e+00,-5.445635318756103516e-02,4.524795804172754288e-03,-8.732259273529052734e-03,4.203930962830781937e-03,-6.237919256091117859e-02,0.000000000000000000e+00
1.481160879135131836e+00,-1.037104607816858731e-01,-4.990082361171316871e-01,3.000003431555887112e-01,1.064801294327158941e-02,2.216625014628023305e+00,2.216624169194345129e+00,-1.498018179621490170e-02,9.874866464994891055e-03,2.756507083493787767e-06,3.873195137360589624e-06,3.638987258152852557e-07,-1.229728497564727130e-01,-1.469332996998922169e+00,-2.043275181447164357e+00,-2.119283978139058888e+00,1.020966887474060059e+00,-1.681867424641744435e+00,-3.141593043004171193e+00,-4.358120635151863098e-02,5.461059976369142532e-03,-1.053914055228233337e-02,5.074190441519021988e-03,-7.939164340496063232e-02,0.000000000000000000e+00
1.493332147598266602e+00,-1.037754435154643190e-01,-4.989402736568211427e-01,3.000001978550800308e-01,1.164242667919179568e-02,2.216172481986199649e+00,2.216172424441166466e+00,-2.243353281605419552e-03,7.905856002063622878e-03,3.003605143404864011e-06,3.557730681366242710e-06,3.591600478690154703e-07,-1.115596424788229124e-01,-1.469575707112447560e+00,-2.043231789265767873e+00,-2.119368378316060841e+00,1.021007537841796875e+00,-1.682524029408590138e+00,-3.141593043004171193e+00,-2.018035762012004852e-02,5.938765127211809158e-03,-1.146072801202535629e-02,5.518387071788311005e-03,-9.137928485870361328e-02,0.000000000000000000e+00
1.501229286193847656e+00,-1.037692240503712698e-01,-4.989054800763496056e-01,3.000004122952476537e-01,1.220791712533207674e-02,2.215915637358338852e+00,2.215914528958875529e+00,4.829960894734185509e-03,6.747824859939645890e-03,3.107514273753486099e-06,3.359998317698525784e-06,2.920943917326814980e-07,-1.043253615498413861e-01,-1.469640080128804982e+00,-2.043202702199117482e+00,-2.119423691426412404e+00,1.021034240722656250e+00,-1.682971302662984669e+00,-3.141593043004171193e+00,-7.050521671772003174e-03,6.154944654554128647e-03,-1.187775097787380219e-02,5.719434004276990891e-03,-9.727483987808227539e-02,0.000000000000000000e+00
1.509613037109375000e+00,-1.037692240503712698e-01,-4.989054800763496056e-01,3.000004122952476537e-01,1.220791712533207674e-02,2.215915637358338852e+00,2.215914528958875529e+00,0.000000000000000000e+00,0.000000000000000000e+00,0.000000000000000000e+00,0.000000000000000000e+00,0.000000000000000000e+00,0.000000000000000000e+00,-1.469640080128804982e+00,-2.043202702199117482e+00,-2.119423691426412404e+00,1.021034240722656250e+00,-1.682971302662984669e+00,-3.141593043004171193e+00,0.000000000000000000e+00,0.000000000000000000e+00,0.000000000000000000e+00,0.000000000000000000e+00,0.000000000000000000e+00,0.000000000000000000e+00
1.517873764038085938e+00,-1.037692240503712698e-01,-4.989054800763496056e-01,3.000004122952476537e-01,1.220791712533207674e-02,2.215915637358338852e+00,2.215914528958875529e+00,0.000000000000000000e+00,0.000000000000000000e+00,0.000000000000000000e+00,0.000000000000000000e+00,0.000000000000000000e+00,0.000000000000000000e+00,-1.469640080128804982e+00,-2.043202702199117482e+00,-2.119423691426412404e+00,1.021034240722656250e+00,-1.682971302662984669e+00,-3.141593043004171193e+00,0.000000000000000000e+00,0.000000000000000000e+00,0.000000000000000000e+00,0.000000000000000000e+00,0.000000000000000000e+00,0.000000000000000000e+00
1.526127338409423828e+00,-1.037287868376529365e-01,-4.989117794623975088e-01,3.000003938354539601e-01,1.216735110240030511e-02,2.215933982144025816e+00,2.215933136418823057e+00,1.033149543558129282e-02,-1.603463713216325042e-03,1.800911153840945690e-07,-2.850081313915134303e-07,-3.263780343595920653e-08,9.391671977937863375e-03,-1.469565693532125294e+00,-2.043201271687642873e+00,-2.119426552449361623e+00,1.021035552024841309e+00,-1.683008972798482716e+00,-3.141593043004171193e+00,1.900799944996833801e-02,3.804172156378626823e-04,-7.340135052800178528e-04,3.538831369951367378e-04,-9.616327472031116486e-03,0.000000000000000000e+00
1.534533977508544922e+00,-1.036517710747635601e-01,-4.989237870184076717e-01,3.000004448877652274e-01,1.209036278042262443e-02,2.215969376844762806e+00,2.215967743159971359e+00,1.702377521399817822e-02,-2.639565034062676691e-03,2.964993884550074032e-07,-4.690925019806906106e-07,-5.948814851838240736e-08,1.547491364181464990e-02,-1.469424072896138966e+00,-2.043198410664693654e+00,-2.119431797658101857e+00,1.021038293838500977e+00,-1.683080975209371388e+00,-3.141593043004171193e+00,3.131999820470809937e-02,6.268238066695630550e-04,-1.209454028867185116e-03,5.831029266119003296e-04,-1.584508456289768219e-02,0.000000000000000000e+00
1.544114828109741211e+00,-1.036517710747635601e-01,-4.989237870184076717e-01,3.000004448877652274e-01,1.209036278042262443e-02,2.215969376844762806e+00,2.215967743159971359e+00,0.000000000000000000e+00,0.000000000000000000e+00,0.000000000000000000e+00,0.000000000000000000e+00,0.000000000000000000e+00,0.000000000000000000e+00,-1.469424072896138966e+00,-2.043198410664693654e+00,-2.119431797658101857e+00,1.021038293838500977e+00,-1.683080975209371388e+00,-3.141593043004171193e+00,0.000000000000000000e+00,0.000000000000000000e+00,0.000000000000000000e+00,0.000000000000000000e+00,0.000000000000000000e+00,0.000000000000000000e+00
1.554221391677856445e+00,-1.036517710747635601e-01,-4.989237870184076717e-01,3.000004448877652274e-01,1.209036278042262443e-02,2.215969376844762806e+00,2.215967743159971359e+00,0.000000000000000000e+00,0.000000000000000000e+00,0.000000000000000000e+00,0.000000000000000000e+00,0.000000000000000000e+00,0.000000000000000000e+00,-1.469424072896138966e+00,-2.043198410664693654e+00,-2.119431797658101857e+00,1.021038293838500977e+00,-1.683080975209371388e+00,-3.141593043004171193e+00,0.000000000000000000e+00,0.000000000000000000e+00,0.000000000000000000e+00,0.000000000000000000e+00,0.000000000000000000e+00,0.000000000000000000e+00
1.562803983688354492e+00,-1.036175052939846408e-01,-4.989298626378107504e-01,3.000003361993095474e-01,1.204245857250995158e-02,2.215990703443403653e+00,2.215990120422394405e+00,8.742060617484375545e-03,-1.565602988450683856e-03,7.686873404846392931e-08,-3.523274528343638762e-07,-3.731964144874509920e-08,1.100255781784665460e-02,-1.469359223042623341e+00,-2.043197933827535451e+00,-2.119433228169576466e+00,1.021038770675659180e+00,-1.683102432881490529e+00,-3.141593043004171193e+00,1.653119921684265137e-02,1.538745127618312836e-04,-2.968136395793408155e-04,1.432934222975745797e-04,-5.528641398996114731e-03,0.000000000000000000e+00
1.571183204650878906e+00,-1.035230759718674398e-01,-4.989469566694106351e-01,3.000002958953245091e-01,1.190909827058464314e-02,2.216051508626736499e+00,2.216050662982236297e+00,1.665289233835778177e-02,-3.009659233341013644e-03,1.414458050136564629e-07,-6.805112246877744908e-07,-7.328332749038876215e-08,2.140056993812381944e-02,-1.469180409108297169e+00,-2.043196503316060841e+00,-2.119436089192525685e+00,1.021040320396423340e+00,-1.683160607014791310e+00,-3.141593043004171193e+00,3.155443072319030762e-02,2.688074891921132803e-04,-5.184675683267414570e-04,2.503445139154791832e-04,-1.015386078506708145e-02,0.000000000000000000e+00
1.579572200775146484e+00,-1.033712211329813058e-01,-4.989744173199037736e-01,3.000002687681850300e-01,1.169143523471708433e-02,2.216150305015492261e+00,2.216149984782493476e+00,2.420956828658090906e-02,-4.396273759177954030e-03,1.917102753770632337e-07,-9.984608819141528188e-07,-1.041729667312296847e-07,3.152119182050222568e-02,-1.468892399464742482e+00,-2.043194119130269826e+00,-2.119440857564107716e+00,1.021042466163635254e+00,-1.683251682912008107e+00,-3.141593043004171193e+00,4.593110084533691406e-02,3.681632806546986103e-04,-7.100879447534680367e-04,3.429285425227135420e-04,-1.440990902483463287e-02,0.000000000000000000e+00
1.588058948516845703e+00,-1.031618272330250136e-01,-4.990126618834686001e-01,3.000002100029186547e-01,1.138674035034714475e-02,2.216288904102114099e+00,2.216288583977078730e+00,3.174791787403734300e-02,-5.806750600345654545e-03,2.268651974577734376e-07,-1.326559909897226931e-06,-1.388040247001139289e-07,4.213184118270865697e-02,-1.468494717274801076e+00,-2.043191258107320607e+00,-2.119446579610006154e+00,1.021045327186584473e+00,-1.683373753224508107e+00,-3.141593043004171193e+00,6.034598872065544128e-02,4.388654488138854504e-04,-8.464165730401873589e-04,4.088849236723035574e-04,-1.821414753794670105e-02,0.000000000000000000e+00
1.596581220626831055e+00,-1.029674904747624048e-01,-4.990481444713587011e-01,3.000002938168172539e-01,1.110046134689396391e-02,2.216419091471930614e+00,2.216418771448210645e+00,3.747390711177462502e-02,-6.864996400604876474e-03,2.561299716341877606e-07,-1.573789751405277164e-06,-1.651989234898550694e-07,5.010072700679290419e-02,-1.468125168477193654e+00,-2.043188397084371388e+00,-2.119451824818746388e+00,1.021047711372375488e+00,-1.683484379445211232e+00,-3.141593043004171193e+00,7.128005474805831909e-02,4.974632174707949162e-04,-9.594120201654732227e-04,4.635312361642718315e-04,-2.117932774126529694e-02,0.000000000000000000e+00
1.606065988540649414e+00,-1.029674904747624048e-01,-4.990481444713587011e-01,3.000002938168172539e-01,1.110046134689396391e-02,2.216419091471930614e+00,2.216418771448210645e+00,0.000000000000000000e+00,0.000000000000000000e+00,0.000000000000000000e+00,0.000000000000000000e+00,0.000000000000000000e+00,0.000000000000000000e+00,-1.468125168477193654e+00,-2.043188397084371388e+00,-2.119451824818746388e+00,1.021047711372375488e+00,-1.683484379445211232e+00,-3.141593043004171193e+00,0.000000000000000000e+00,0.000000000000000000e+00,0.000000000000000000e+00,0.000000000000000000e+00,0.000000000000000000e+00,0.000000000000000000e+00
1.614006757736206055e+00,-1.029674904747624048e-01,-4.990481444713587011e-01,3.000002938168172539e-01,1.110046134689396391e-02,2.216419091471930614e+00,2.216418771448210645e+00,0.000000000000000000e+00,0.000000000000000000e+00,0.000000000000000000e+00,0.000000000000000000e+00,0.000000000000000000e+00,0.000000000000000000e+00,-1.468125168477193654e+00,-2.043188397084371388e+00,-2.119451824818746388e+00,1.021047711372375488e+00,-1.683484379445211232e+00,-3.141593043004171193e+00,0.000000000000000000e+00,0.000000000000000000e+00,0.000000000000000000e+00,0.000000000000000000e+00,0.000000000000000000e+00,0.000000000000000000e+00
1.622386693954467773e+00,-1.029339353082721897e-01,-4.990545821976821728e-01,3.000001730799231048e-01,1.104670992272230312e-02,2.216443294553390952e+00,2.216443499933426597e+00,8.615224076669120157e-03,-1.645514295265817486e-03,2.663120486917298317e-08,-3.851119682566969122e-07,-3.931826626693739134e-08,1.250258646905415966e-02,-1.468060795460836232e+00,-2.043188397084371388e+00,-2.119452301655904591e+00,1.021047949790954590e+00,-1.683500115071431935e+00,-3.141593043004171193e+00,1.653119921684265137e-02,6.021757144480943680e-05,-1.160908723250031471e-04,5.626041456707753241e-05,-4.028612747788429260e-03,0.000000000000000000e+00
1.630943298339843750e+00,-1.028407556611805052e-01,-4.990724339156181744e-01,3.000003840435311875e-01,1.089689238865111827e-02,2.216512000879341748e+00,2.216510892835216850e+00,1.643853300168772458e-02,-3.142578083177223827e-03,4.637413354626502238e-08,-7.221240873879051566e-07,-7.841242704317610300e-08,2.394141908735116994e-02,-1.467881981526510060e+00,-2.043187443410054982e+00,-2.119453255330220998e+00,1.021048545837402344e+00,-1.683543507252828419e+00,-3.141593043004171193e+00,3.155443072319030762e-02,1.101502057281322777e-04,-2.123560552718117833e-04,1.029322083923034370e-04,-7.613011635839939117e-03,0.000000000000000000e+00
1.639436244964599609e+00,-1.026907832061876302e-01,-4.991011268509571996e-01,3.000003753758832548e-01,1.065434034490646623e-02,2.216622137994666453e+00,2.216621292717110059e+00,2.391376617063887405e-02,-4.578453951668548343e-03,6.171021488640572210e-08,-1.050969669794137603e-06,-1.130291397452904471e-07,3.503232449293194883e-02,-1.467593971882955373e+00,-2.043186489735738576e+00,-2.119455162678853810e+00,1.021049380302429199e+00,-1.683612171803609669e+00,-3.141593043004171193e+00,4.593110084533691406e-02,1.489194546593353152e-04,-2.870786411222070456e-04,1.392162084812298417e-04,-1.089877635240554810e-02,0.000000000000000000e+00
1.648477315902709961e+00,-1.024838418586568461e-01,-4.991408212661405663e-01,3.000002350500989290e-01,1.031737292374032035e-02,2.216775034530293009e+00,2.216774714781015287e+00,3.139435970932009240e-02,-6.021543976616187087e-03,7.559416834919860595e-08,-1.404194554719774272e-06,-1.480119644437876568e-07,4.633881989866479867e-02,-1.467196289693013966e+00,-2.043185536061422169e+00,-2.119457546864644826e+00,1.021050572395324707e+00,-1.683705155049459279e+00,-3.141593043004171193e+00,6.034598872065544128e-02,1.761812163749709725e-04,-3.395742096472531557e-04,1.648049656068906188e-04,-1.400716882199048996e-02,0.000000000000000000e+00
1.658590555191040039e+00,-1.022172622013319543e-01,-4.991919291256614599e-01,3.000002165875427229e-01,9.880647571248433320e-03,2.216973314863627920e+00,2.216973257997591151e+00,3.919105386390907275e-02,-7.526054217848503897e-03,8.802330659342492189e-08,-1.779615748720386306e-06,-1.863630449652591723e-07,5.828429758548701184e-02,-1.466683689747945607e+00,-2.043184105549947560e+00,-2.119460407887594044e+00,1.021051883697509766e+00,-1.683822933827535451e+00,-3.141593043004171193e+00,7.539030909538269043e-02,1.955682237166911364e-04,-3.768590977415442467e-04,1.830802211770787835e-04,-1.710601150989532471e-02,0.000000000000000000e+00
1.666422128677368164e+00,-1.018867673520216233e-01,-4.992554065384162132e-01,3.000004188827058993e-01,9.334028441525869108e-03,2.217222000303792573e+00,2.217220892653719133e+00,4.759247529133799753e-02,-9.145399627712276491e-03,9.571784334812583975e-08,-2.181222560956773757e-06,-2.395377234531530298e-07,7.132583297789304999e-02,-1.466047588978902638e+00,-2.043182198201314748e+00,-2.119463268910543263e+00,1.021053314208984375e+00,-1.683965031300679982e+00,-3.141593043004171193e+00,9.162209182977676392e-02,2.069156471407040954e-04,-3.986245428677648306e-04,1.939032081281766295e-04,-2.029625885188579559e-02,0.000000000000000000e+00
1.675195217132568359e+00,-1.014848660066017261e-01,-4.993327457225733013e-01,3.000003785783695864e-01,8.665418268803324470e-03,2.217525558173413902e+00,2.217524187920709711e+00,5.690595445085513959e-02,-1.092533791173161233e-02,1.002189008280054508e-07,-2.619775678761386021e-06,-2.923142759624751714e-07,8.581176772714063650e-02,-1.465273682271138966e+00,-2.043180767689840138e+00,-2.119466129933492482e+00,1.021054863929748535e+00,-1.684134785329000294e+00,-3.141593043004171193e+00,1.096148118376731873e-01,2.176440757466480136e-04,-4.191940824966877699e-04,2.041859988821670413e-04,-2.380304411053657532e-02,0.000000000000000000e+00
1.683254241943359375e+00,-1.010020097511580978e-01,-4.994253295342330756e-01,3.000004710573928590e-01,7.857252212501044872e-03,2.217892206890243134e+00,2.217890574016217808e+00,6.746395299424089165e-02,-1.291958654317230427e-02,1.014837426149097234e-07,-3.120460060500983126e-06,-3.541002030054691027e-07,1.022105850279400735e-01,-1.464343372975484669e+00,-2.043178860341207326e+00,-2.119469467793599904e+00,1.021056413650512695e+00,-1.684335056935445607e+00,-3.141593043004171193e+00,1.300017088651657104e-01,2.307096874574199319e-04,-4.442688659764826298e-04,2.166995982406660914e-04,-2.779112383723258972e-02,0.000000000000000000e+00
1.691946506500244141e+00,-1.004255539043815149e-01,-4.995355066757279361e-01,3.000002111194331467e-01,6.887826141280636166e-03,2.218330929995306899e+00,2.218330611445520795e+00,7.964755181155915020e-02,-1.519366367068285262e-02,1.035164531763523663e-07,-3.695580732988820562e-06,-4.037088882460656084e-07,1.211547702550883621e-01,-1.463232342396871388e+00,-2.043177429829732716e+00,-2.119473282490865529e+00,1.021058201789855957e+00,-1.684570614491597951e+00,-3.141593043004171193e+00,1.535217165946960449e-01,2.442145487293601036e-04,-4.701669095084071159e-04,2.296699240105226636e-04,-3.236694633960723877e-02,0.000000000000000000e+00
1.702124118804931641e+00,-9.973862883794729073e-02,-4.996661380405068575e-01,3.000004036201595614e-01,5.728196642274927322e-03,2.218856406292902594e+00,2.218855036678745396e+00,9.208003734956336783e-02,-1.747333524467594920e-02,1.078316920285029930e-07,-4.298925891957157016e-06,-4.929961272588425884e-07,1.405821144580903237e-01,-1.461908165608541310e+00,-2.043175045643941701e+00,-2.119477097188131154e+00,1.021060109138488770e+00,-1.684848133717672169e+00,-3.141593043004171193e+00,1.775217056274414062e-01,2.519769768696278334e-04,-4.849574761465191841e-04,2.373075403738766909e-04,-3.693959116935729980e-02,0.000000000000000000e+00
1.710070848464965820e+00,-9.895218231759146665e-02,-4.998149530908550520e-01,3.000003644414381831e-01,4.394674662942263908e-03,2.219459456692845833e+00,2.219458087368796573e+00,1.045141609334597488e-01,-1.970445377373481258e-02,1.104855447980479874e-07,-4.906946906180928867e-06,-5.697916776882675441e-07,1.601060107350418815e-01,-1.460391823445455373e+00,-2.043173138295308888e+00,-2.119480911885396779e+00,1.021062016487121582e+00,-1.685161415730611623e+00,-3.141593043004171193e+00,2.015217095613479614e-01,2.537149412091821432e-04,-4.881173954345285892e-04,2.393423055764287710e-04,-4.141569882631301880e-02,0.000000000000000000e+00
1.718879938125610352e+00,-9.806637769572722207e-02,-4.999813575657657272e-01,3.000003252627490569e-01,2.887448589820707390e-03,2.220140185301072488e+00,2.220138816305498253e+00,1.169551378990599383e-01,-2.187681431097515672e-02,1.075383625588302742e-07,-5.501174211843778324e-06,-6.479447815670772250e-07,1.796792261302547489e-01,-1.458683792744771779e+00,-2.043171230946676076e+00,-2.119484726582662404e+00,1.021063923835754395e+00,-1.685510460530416310e+00,-3.141593043004171193e+00,2.255217134952545166e-01,2.523653965909034014e-04,-4.853373102378100157e-04,2.385110419709235430e-04,-4.584248736500740051e-02,0.000000000000000000e+00
1.727147102355957031e+00,-9.708092747026676739e-02,-5.001648743874247405e-01,3.000002860840907948e-01,1.205141756495435590e-03,2.220898892602273467e+00,2.220897523974220356e+00,1.294072913645773482e-01,-2.398071224945603694e-02,1.060642135485383723e-07,-6.105981139032111809e-06,-7.305495767394784879e-07,1.992645859718406853e-01,-1.456783596669332326e+00,-2.043169323598043263e+00,-2.119488541279928029e+00,1.021065831184387207e+00,-1.685894791279928029e+00,-3.141593043004171193e+00,2.495217174291610718e-01,2.502615097910165787e-04,-4.810920800082385540e-04,2.369800204178318381e-04,-5.025713145732879639e-02,0.000000000000000000e+00
1.735240221023559570e+00,-9.599573915437988048e-02,-5.003648381988483607e-01,3.000004785889776593e-01,6.524917653536717668e-04,-2.221149383983620940e+00,-2.221146964092450826e+00,1.418716122847537564e-01,-2.600880550756988485e-02,1.001725382930932898e-07,-6.686488475108732000e-06,-8.401953140501917459e-07,2.188627868891077077e-01,-1.454691235219137013e+00,-2.043166939412252248e+00,-2.119492355977193654e+00,1.021067738533020020e+00,-1.686314407979146779e+00,-3.141593043004171193e+00,2.735217213630676270e-01,2.473474887665361166e-04,-4.753039975184947252e-04,2.346953115193173289e-04,-5.465893447399139404e-02,0.000000000000000000e+00
