ThomasAsmussen/golf_robot/log/run1_20251013_151605.csv
t,x,y,z,rx,ry,rz,vx,vy,vz,wx,wy,wz,q1,q2,q3,q4,q5,q6,dq1,dq2,dq3,dq4,dq5,dq6
3.753290176391601562e-01,-1.000000822680490037e-01,-5.000002094581326162e-01,3.000001472795442714e-01,-4.422814919258157490e-09,2.221441698759650141e+00,2.221440329442017081e+00,0.000000000000000000e+00,0.000000000000000000e+00,0.000000000000000000e+00,0.000000000000000000e+00,0.000000000000000000e+00,0.000000000000000000e+00,-1.461602036152974904e+00,-2.043482128773824513e+00,-2.118884865437642873e+00,1.020774960517883301e+00,-1.679991070424215138e+00,-3.141593043004171193e+00,0.000000000000000000e+00,0.000000000000000000e+00,0.000000000000000000e+00,0.000000000000000000e+00,0.000000000000000000e+00,0.000000000000000000e+00
3.839426040649414062e-01,-1.000000822680490037e-01,-5.000002094581326162e-01,3.000001472795442714e-01,-4.422814919258157490e-09,2.221441698759650141e+00,2.221440329442017081e+00,0.000000000000000000e+00,0.000000000000000000e+00,0.000000000000000000e+00,0.000000000000000000e+00,0.000000000000000000e+00,0.000000000000000000e+00,-1.461602036152974904e+00,-2.043482128773824513e+00,-2.118884865437642873e+00,1.020774960517883301e+00,-1.679991070424215138e+00,-3.141593043004171193e+00,0.000000000000000000e+00,0.000000000000000000e+00,0.000000000000000000e+00,0.000000000000000000e+00,0.000000000000000000e+00,0.000000000000000000e+00
3.994395732879638672e-01,-1.000000822680490037e-01,-5.000002094581326162e-01,3.000001472795442714e-01,-4.422814919258157490e-09,2.221441698759650141e+00,2.221440329442017081e+00,0.000000000000000000e+00,0.000000000000000000e+00,0.000000000000000000e+00,0.000000000000000000e+00,0.000000000000000000e+00,0.000000000000000000e+00,-1.461602036152974904e+00,-2.043482128773824513e+00,-2.118884865437642873e+00,1.020774960517883301e+00,-1.679991070424215138e+00,-3.141593043004171193e+00,0.000000000000000000e+00,0.000000000000000000e+00,0.000000000000000000e+00,0.000000000000000000e+00,0.000000000000000000e+00,0.000000000000000000e+00
4.079825878143310547e-01,-1.000000822680490037e-01,-5.000002094581326162e-01,3.000001472795442714e-01,-4.422814919258157490e-09,2.221441698759650141e+00,2.221440329442017081e+00,0.000000000000000000e+00,0.000000000000000000e+00,0.000000000000000000e+00,0.000000000000000000e+00,0.000000000000000000e+00,0.000000000000000000e+00,-1.461602036152974904e+00,-2.043482128773824513e+00,-2.118884865437642873e+00,1.020774960517883301e+00,-1.679991070424215138e+00,-3.141593043004171193e+00,0.000000000000000000e+00,0.000000000000000000e+00,0.000000000000000000e+00,0.000000000000000000e+00,0.000000000000000000e+00,0.000000000000000000e+00
4.167299270629882812e-01,-1.000000822680490037e-01,-5.000002094581326162e-01,3.000001472795442714e-01,-4.422814919258157490e-09,2.221441698759650141e+00,2.221440329442017081e+00,0.000000000000000000e+00,0.000000000000000000e+00,0.000000000000000000e+00,0.000000000000000000e+00,0.000000000000000000e+00,0.000000000000000000e+00,-1.461602036152974904e+00,-2.043482128773824513e+00,-2.118884865437642873e+00,1.020774960517883301e+00,-1.679991070424215138e+00,-3.141593043004171193e+00,0.000000000000000000e+00,0.000000000000000000e+00,0.000000000000000000e+00,0.000000000000000000e+00,0.000000000000000000e+00,0.000000000000000000e+00
4.250600337982177734e-01,-1.000000822680490037e-01,-5.000002094581326162e-01,3.000001472795442714e-01,-4.422814919258157490e-09,2.221441698759650141e+00,2.221440329442017081e+00,0.000000000000000000e+00,0.000000000000000000e+00,0.000000000000000000e+00,0.000000000000000000e+00,0.000000000000000000e+00,0.000000000000000000e+00,-1.461602036152974904e+00,-2.043482128773824513e+00,-2.118884865437642873e+00,1.020774960517883301e+00,-1.679991070424215138e+00,-3.141593043004171193e+00,0.000000000000000000e+00,0.000000000000000000e+00,0.000000000000000000e+00,0.000000000000000000e+00,0.000000000000000000e+00,0.000000000000000000e+00
4.331092834472656250e-01,-1.000000822680490037e-01,-5.000002094581326162e-01,3.000001472795442714e-01,-4.422814919258157490e-09,2.221441698759650141e+00,2.221440329442017081e+00,0.000000000000000000e+00,0.000000000000000000e+00,0.000000000000000000e+00,0.000000000000000000e+00,0.000000000000000000e+00,0.000000000000000000e+00,-1.461602036152974904e+00,-2.043482128773824513e+00,-2.118884865437642873e+00,1.020774960517883301e+00,-1.679991070424215138e+00,-3.141593043004171193e+00,0.000000000000000000e+00,0.000000000000000000e+00,0.000000000000000000e+00,0.000000000000000000e+00,0.000000000000000000e+00,0.000000000000000000e+00
4.419469833374023438e-01,-1.000000822680490037e-01,-5.000002094581326162e-01,3.000001472795442714e-01,-4.422814919258157490e-09,2.221441698759650141e+00,2.221440329442017081e+00,0.000000000000000000e+00,0.000000000000000000e+00,0.000000000000000000e+00,0.000000000000000000e+00,0.000000000000000000e+00,0.000000000000000000e+00,-1.461602036152974904e+00,-2.043482128773824513e+00,-2.118884865437642873e+00,1.020774960517883301e+00,-1.679991070424215138e+00,-3.141593043004171193e+00,0.000000000000000000e+00,0.000000000000000000e+00,0.000000000000000000e+00,0.000000000000000000e+00,0.000000000000000000e+00,0.000000000000000000e+00
4.501824378967285156e-01,-1.000000822680490037e-01,-5.000002094581326162e-01,3.000001472795442714e-01,-4.422814919258157490e-09,2.221441698759650141e+00,2.221440329442017081e+00,0.000000000000000000e+00,0.000000000000000000e+00,0.000000000000000000e+00,0.000000000000000000e+00,0.000000000000000000e+00,0.000000000000000000e+00,-1.461602036152974904e+00,-2.043482128773824513e+00,-2.118884865437642873e+00,1.020774960517883301e+00,-1.679991070424215138e+00,-3.141593043004171193e+00,0.000000000000000000e+00,0.000000000000000000e+00,0.000000000000000000e+00,0.000000000000000000e+00,0.000000000000000000e+00,0.000000000000000000e+00
4.588313102722167969e-01,-1.000000822680490037e-01,-5.000002094581326162e-01,3.000001472795442714e-01,-4.422814919258157490e-09,2.221441698759650141e+00,2.221440329442017081e+00,0.000000000000000000e+00,0.000000000000000000e+00,0.000000000000000000e+00,0.000000000000000000e+00,0.000000000000000000e+00,0.000000000000000000e+00,-1.461602036152974904e+00,-2.043482128773824513e+00,-2.118884865437642873e+00,1.020774960517883301e+00,-1.679991070424215138e+00,-3.141593043004171193e+00,0.000000000000000000e+00,0.000000000000000000e+00,0.000000000000000000e+00,0.000000000000000000e+00,0.000000000000000000e+00,0.000000000000000000e+00
4.668624401092529297e-01,-1.000000822680490037e-01,-5.000002094581326162e-01,3.000001472795442714e-01,-4.422814919258157490e-09,2.221441698759650141e+00,2.221440329442017081e+00,0.000000000000000000e+00,0.000000000000000000e+00,0.000000000000000000e+00,0.000000000000000000e+00,0.000000000000000000e+00,0.000000000000000000e+00,-1.461602036152974904e+00,-2.043482128773824513e+00,-2.118884865437642873e+00,1.020774960517883301e+00,-1.679991070424215138e+00,-3.141593043004171193e+00,0.000000000000000000e+00,0.000000000000000000e+00,0.000000000000000000e+00,0.000000000000000000e+00,0.000000000000000000e+00,0.000000000000000000e+00
4.758069515228271484e-01,-1.000000822680490037e-01,-5.000002094581326162e-01,3.000001472795442714e-01,-4.422814919258157490e-09,2.221441698759650141e+00,2.221440329442017081e+00,0.000000000000000000e+00,0.000000000000000000e+00,0.000000000000000000e+00,0.000000000000000000e+00,0.000000000000000000e+00,0.000000000000000000e+00,-1.461602036152974904e+00,-2.043482128773824513e+00,-2.118884865437642873e+00,1.020774960517883301e+00,-1.679991070424215138e+00,-3.141593043004171193e+00,0.000000000000000000e+00,0.000000000000000000e+00,0.000000000000000000e+00,0.000000000000000000e+00,0.000000000000000000e+00,0.000000000000000000e+00
4.844892024993896484e-01,-1.000000822680490037e-01,-5.000002094581326162e-01,3.000001472795442714e-01,-4.422814919258157490e-09,2.221441698759650141e+00,2.221440329442017081e+00,0.000000000000000000e+00,0.000000000000000000e+00,0.000000000000000000e+00,0.000000000000000000e+00,0.000000000000000000e+00,0.000000000000000000e+00,-1.461602036152974904e+00,-2.043482128773824513e+00,-2.118884865437642873e+00,1.020774960517883301e+00,-1.679991070424215138e+00,-3.141593043004171193e+00,0.000000000000000000e+00,0.000000000000000000e+00,0.000000000000000000e+00,0.000000000000000000e+00,0.000000000000000000e+00,0.000000000000000000e+00
4.931550025939941406e-01,-1.000000822680490037e-01,-5.000002094581326162e-01,3.000001472795442714e-01,-4.422814919258157490e-09,2.221441698759650141e+00,2.221440329442017081e+00,0.000000000000000000e+00,0.000000000000000000e+00,0.000000000000000000e+00,0.000000000000000000e+00,0.000000000000000000e+00,0.000000000000000000e+00,-1.461602036152974904e+00,-2.043482128773824513e+00,-2.118884865437642873e+00,1.020774960517883301e+00,-1.679991070424215138e+00,-3.141593043004171193e+00,0.000000000000000000e+00,0.000000000000000000e+00,0.000000000000000000e+00,0.000000000000000000e+00,0.000000000000000000e+00,0.000000000000000000e+00
5.013844966888427734e-01,-1.000000822680490037e-01,-5.000002094581326162e-01,3.000001472795442714e-01,-4.422814919258157490e-09,2.221441698759650141e+00,2.221440329442017081e+00,0.000000000000000000e+00,0.000000000000000000e+00,0.000000000000000000e+00,0.000000000000000000e+00,0.000000000000000000e+00,0.000000000000000000e+00,-1.461602036152974904e+00,-2.043482128773824513e+00,-2.118884865437642873e+00,1.020774960517883301e+00,-1.679991070424215138e+00,-3.141593043004171193e+00,0.000000000000000000e+00,0.000000000000000000e+00,0.000000000000000000e+00,0.000000000000000000e+00,0.000000000000000000e+00,0.000000000000000000e+00
5.095989704132080078e-01,-1.000000822680490037e-01,-5.000002094581326162e-01,3.000001472795442714e-01,-4.422814919258157490e-09,2.221441698759650141e+00,2.221440329442017081e+00,0.000000000000000000e+00,0.000000000000000000e+00,0.000000000000000000e+00,0.000000000000000000e+00,0.000000000000000000e+00,0.000000000000000000e+00,-1.461602036152974904e+00,-2.043482128773824513e+00,-2.118884865437642873e+00,1.020774960517883301e+00,-1.679991070424215138e+00,-3.141593043004171193e+00,0.000000000000000000e+00,0.000000000000000000e+00,0.000000000000000000e+00,0.000000000000000000e+00,0.000000000000000000e+00,0.000000000000000000e+00
5.179932117462158203e-01,-1.000000822680490037e-01,-5.000002094581326162e-01,3.000001472795442714e-01,-4.422814919258157490e-09,2.221441698759650141e+00,2.221440329442017081e+00,0.000000000000000000e+00,0.000000000000000000e+00,0.000000000000000000e+00,0.000000000000000000e+00,0.000000000000000000e+00,0.000000000000000000e+00,-1.461602036152974904e+00,-2.043482128773824513e+00,-2.118884865437642873e+00,1.020774960517883301e+00,-1.679991070424215138e+00,-3.141593043004171193e+00,0.000000000000000000e+00,0.000000000000000000e+00,0.000000000000000000e+00,0.000000000000000000e+00,0.000000000000000000e+00,0.000000000000000000e+00
5.268976688385009766e-01,-1.000000822680490037e-01,-5.000002094581326162e-01,3.000001472795442714e-01,-4.422814919258157490e-09,2.221441698759650141e+00,2.221440329442017081e+00,0.000000000000000000e+00,0.000000000000000000e+00,0.000000000000000000e+00,0.000000000000000000e+00,0.000000000000000000e+00,0.000000000000000000e+00,-1.461602036152974904e+00,-2.043482128773824513e+00,-2.118884865437642873e+00,1.020774960517883301e+00,-1.679991070424215138e+00,-3.141593043004171193e+00,0.000000000000000000e+00,0.000000000000000000e+00,0.000000000000000000e+00,0.000000000000000000e+00,0.000000000000000000e+00,0.000000000000000000e+00
5.354402065277099609e-01,-1.000000822680490037e-01,-5.000002094581326162e-01,3.000001472795442714e-01,-4.422814919258157490e-09,2.221441698759650141e+00,2.221440329442017081e+00,0.000000000000000000e+00,0.000000000000000000e+00,0.000000000000000000e+00,0.000000000000000000e+00,0.000000000000000000e+00,0.000000000000000000e+00,-1.461602036152974904e+00,-2.043482128773824513e+00,-2.118884865437642873e+00,1.020774960517883301e+00,-1.679991070424215138e+00,-3.141593043004171193e+00,0.000000000000000000e+00,0.000000000000000000e+00,0.000000000000000000e+00,0.000000000000000000e+00,0.000000000000000000e+00,0.000000000000000000e+00
5.440063476562500000e-01,-1.000000822680490037e-01,-5.000002094581326162e-01,3.000001472795442714e-01,-4.422814919258157490e-09,2.221441698759650141e+00,2.221440329442017081e+00,0.000000000000000000e+00,0.000000000000000000e+00,0.000000000000000000e+00,0.000000000000000000e+00,0.000000000000000000e+00,0.000000000000000000e+00,-1.461602036152974904e+00,-2.043482128773824513e+00,-2.118884865437642873e+00,1.020774960517883301e+00,-1.679991070424215138e+00,-3.141593043004171193e+00,0.000000000000000000e+00,0.000000000000000000e+00,0.000000000000000000e+00,0.000000000000000000e+00,0.000000000000000000e+00,0.000000000000000000e+00
5.525202751159667969e-01,-1.000000822680490037e-01,-5.000002094581326162e-01,3.000001472795442714e-01,-4.422814919258157490e-09,2.221441698759650141e+00,2.221440329442017081e+00,0.000000000000000000e+00,0.000000000000000000e+00,0.000000000000000000e+00,0.000000000000000000e+00,0.000000000000000000e+00,0.000000000000000000e+00,-1.461602036152974904e+00,-2.043482128773824513e+00,-2.118884865437642873e+00,1.020774960517883301e+00,-1.679991070424215138e+00,-3.141593043004171193e+00,0.000000000000000000e+00,0.000000000000000000e+00,0.000000000000000000e+00,0.000000000000000000e+00,0.000000000000000000e+00,0.000000000000000000e+00
5.611870288848876953e-01,-1.000000822680490037e-01,-5.000002094581326162e-01,3.000001472795442714e-01,-4.422814919258157490e-09,2.221441698759650141e+00,2.221440329442017081e+00,0.000000000000000000e+00,0.000000000000000000e+00,0.000000000000000000e+00,0.000000000000000000e+00,0.000000000000000000e+00,0.000000000000000000e+00,-1.461602036152974904e+00,-2.043482128773824513e+00,-2.118884865437642873e+00,1.020774960517883301e+00,-1.679991070424215138e+00,-3.141593043004171193e+00,0.000000000000000000e+00,0.000000000000000000e+00,0.000000000000000000e+00,0.000000000000000000e+00,0.000000000000000000e+00,0.000000000000000000e+00
5.701982975006103516e-01,-1.000000822680490037e-01,-5.000002094581326162e-01,3.000001472795442714e-01,-4.422814919258157490e-09,2.221441698759650141e+00,2.221440329442017081e+00,0.000000000000000000e+00,0.000000000000000000e+00,0.000000000000000000e+00,0.000000000000000000e+00,0.000000000000000000e+00,0.000000000000000000e+00,-1.461602036152974904e+00,-2.043482128773824513e+00,-2.118884865437642873e+00,1.020774960517883301e+00,-1.679991070424215138e+00,-3.141593043004171193e+00,0.000000000000000000e+00,0.000000000000000000e+00,0.000000000000000000e+00,0.000000000000000000e+00,0.000000000000000000e+00,0.000000000000000000e+00
5.788874626159667969e-01,-1.000005591053615001e-01,-5.000001140903951313e-01,3.000001472795442714e-01,1.054602842150914556e-06,2.221441221980504643e+00,2.221439852638395607e+00,-7.055482791047390371e-05,1.534723771162432119e-05,-2.707817066295750799e-08,-3.269618831992471530e-13,2.982428987611547473e-12,-1.350799971078240410e-04,-1.461602989827291310e+00,-2.043482128773824513e+00,-2.118884865437642873e+00,1.020774960517883301e+00,-1.679991070424215138e+00,-3.141593043004171193e+00,-1.399199973093345761e-04,1.320000023952161428e-06,-2.640000047904322855e-06,1.320000023952161428e-06,4.840000201511429623e-06,0.000000000000000000e+00
5.872714519500732422e-01,-1.000034849343498650e-01,-4.999993517450140312e-01,3.000000374132487102e-01,6.924097231369501319e-06,2.221438223934450562e+00,2.221437644338352779e+00,-3.929680715232476609e-04,8.525968097183616223e-05,-1.337313465024634674e-08,-3.367572988582620757e-13,7.245053897355643674e-12,-7.516399855376230997e-04,-1.461608711873189748e+00,-2.043482128773824513e+00,-2.118885342274801076e+00,1.020775079727172852e+00,-1.679990593587056935e+00,-3.141593043004171193e+00,-7.792399846948683262e-04,7.359999926848104224e-06,-1.426000017090700567e-05,6.899999789311550558e-06,2.759999915724620223e-05,0.000000000000000000e+00
5.953822135925292969e-01,-1.000089790242056353e-01,-4.999981593813208613e-01,3.000002582897466907e-01,1.903344664850180643e-05,2.221433365902684809e+00,2.221431470102301020e+00,-7.810475032510403324e-04,1.692279891822140697e-04,-8.223482235278884304e-09,-4.168547333543583540e-12,4.637691196576970245e-11,-1.494719988841117968e-03,-1.461619679127828419e+00,-2.043481651936666310e+00,-2.118885342274801076e+00,1.020775198936462402e+00,-1.679990593587056935e+00,-3.141593043004171193e+00,-1.548959990032017231e-03,1.439999959984561428e-05,-2.784000025712884963e-05,1.343999974778853357e-05,5.424000119091942906e-05,0.000000000000000000e+00
6.041018962860107422e-01,-1.000152233438024035e-01,-4.999969057432495645e-01,3.000002473640933087e-01,3.225970360384789788e-05,2.221427530485752033e+00,2.221425371449960995e+00,-8.135889197349868100e-04,1.762893088352748914e-04,-8.566312613867860777e-09,-5.113105136102891370e-12,5.500044117508359464e-11,-1.556999945023589647e-03,-1.461632076893941701e+00,-2.043481651936666310e+00,-2.118885342274801076e+00,1.020775318145751953e+00,-1.679990116749898732e+00,-3.141593043004171193e+00,-1.613499945960938931e-03,1.499999962106812745e-05,-2.900000072258990258e-05,1.400000019202707335e-05,5.650000093737617135e-05,0.000000000000000000e+00
6.124796867370605469e-01,-1.000159385950110114e-01,-4.999967626698134104e-01,3.000002473640933087e-01,3.384856779341550710e-05,2.221426815219462281e+00,2.221424656183804913e+00,-7.647733789110179635e-04,1.657130500767267590e-04,-8.051796393929413652e-09,-6.560162199945077556e-12,5.150819528093070190e-11,-1.463580010749890910e-03,-1.461633507405416310e+00,-2.043481651936666310e+00,-2.118885342274801076e+00,1.020775318145751953e+00,-1.679990116749898732e+00,-3.141593043004171193e+00,-1.516690012067556381e-03,1.410000004398170859e-05,-2.725999911490362138e-05,1.315999998041661456e-05,5.311000131769105792e-05,0.000000000000000000e+00
6.211807727813720703e-01,-1.000159385950110114e-01,-4.999967626698134104e-01,3.000002473640933087e-01,3.384856779341550710e-05,2.221426815219462281e+00,2.221424656183804913e+00,0.000000000000000000e+00,0.000000000000000000e+00,0.000000000000000000e+00,0.000000000000000000e+00,0.000000000000000000e+00,0.000000000000000000e+00,-1.461633507405416310e+00,-2.043481651936666310e+00,-2.118885342274801076e+00,1.020775318145751953e+00,-1.679990116749898732e+00,-3.141593043004171193e+00,0.000000000000000000e+00,0.000000000000000000e+00,0.000000000000000000e+00,0.000000000000000000e+00,0.000000000000000000e+00,0.000000000000000000e+00
6.302912235260009766e-01,-1.000159385950110114e-01,-4.999967626698134104e-01,3.000002473640933087e-01,3.384856779341550710e-05,2.221426815219462281e+00,2.221424656183804913e+00,0.000000000000000000e+00,0.000000000000000000e+00,0.000000000000000000e+00,0.000000000000000000e+00,0.000000000000000000e+00,0.000000000000000000e+00,-1.461633507405416310e+00,-2.043481651936666310e+00,-2.118885342274801076e+00,1.020775318145751953e+00,-1.679990116749898732e+00,-3.141593043004171193e+00,0.000000000000000000e+00,0.000000000000000000e+00,0.000000000000000000e+00,0.000000000000000000e+00,0.000000000000000000e+00,0.000000000000000000e+00
6.393368244171142578e-01,-1.000241535246844671e-01,-4.999949509652845125e-01,3.000001374978113478e-01,5.083980936377709516e-05,2.221418810296798885e+00,2.221417440968937118e+00,-1.865259056035735051e-03,4.046609583930189089e-04,-5.494142605841603640e-08,-1.220284947751465163e-11,7.796065939179120903e-11,-3.572359899408208278e-03,-1.461649719868795216e+00,-2.043481651936666310e+00,-2.118885819111959279e+00,1.020775437355041504e+00,-1.679989163075582326e+00,-3.141593043004171193e+00,-3.699519904330372810e-03,3.475999983493238688e-05,-6.731999746989458799e-05,3.256000127294100821e-05,1.271600049221888185e-04,0.000000000000000000e+00
6.479249000549316406e-01,-1.000402465844091870e-01,-4.999914694213914990e-01,3.000002485078810399e-01,8.523616669398476888e-05,2.221403562820527533e+00,2.221401667016801085e+00,-3.306662781491817582e-03,7.179104607220700759e-04,-1.279300870255372685e-08,2.629744080890725890e-07,2.899860521525350863e-08,-6.339541505440165169e-03,-1.461681667958394826e+00,-2.043481175099508107e+00,-2.118886295949117482e+00,1.020775675773620605e+00,-1.679988209401265919e+00,-3.141593043004171193e+00,-6.559379398822784424e-03,6.208797276485711336e-05,-1.200420374516397715e-04,5.768949631601572037e-05,2.198378933826461434e-04,0.000000000000000000e+00
6.565191745758056641e-01,-1.000626030349421047e-01,-4.999865567091314467e-01,3.000002496516623318e-01,1.329154553168559929e-04,2.221381978865476725e+00,2.221380346289437036e+00,-4.258121815667266497e-03,9.250609893238696899e-04,1.468307533827878443e-08,2.615056081654991934e-07,2.884299472453453321e-08,-8.169498411007248065e-03,-1.461726013814107716e+00,-2.043480698262349904e+00,-2.118887249623433888e+00,1.020776033401489258e+00,-1.679986778889791310e+00,-3.141593043004171193e+00,-8.447702042758464813e-03,8.030453318497166038e-05,-1.551336317788809538e-04,7.456600724253803492e-05,2.782036317512392998e-04,0.000000000000000000e+00
6.658322811126708984e-01,-1.000900128134693257e-01,-4.999806133346578196e-01,3.000002289441233705e-01,1.911568412513800779e-04,2.221355875837147220e+00,2.221353980021421926e+00,-5.031845590538672718e-03,1.093961124216394397e-03,3.016652058357071337e-10,3.619625180569241298e-07,3.989537805557933965e-08,-9.661161311669320267e-03,-1.461780373250142873e+00,-2.043480221425191701e+00,-2.118888203297750294e+00,1.020776629447937012e+00,-1.679984871541158498e+00,-3.141593043004171193e+00,-9.983850643038749695e-03,9.528967348160222173e-05,-1.841553166741505265e-04,8.850148878991603851e-05,3.226893313694745302e-04,0.000000000000000000e+00
6.754171848297119141e-01,-1.001222081653610485e-01,-4.999735509281533208e-01,3.000001202220627938e-01,2.600604940194159789e-04,2.221324377435945685e+00,2.221323534528872212e+00,-5.761012479989615145e-03,1.253248877512047393e-03,2.595627214698738589e-08,3.883075037441857923e-07,4.261505580263583023e-08,-1.106690571759822057e-02,-1.461844269429342091e+00,-2.043479744588033498e+00,-2.118889633809224904e+00,1.020777106285095215e+00,-1.679982964192525685e+00,-3.141593043004171193e+00,-1.143160276114940643e-02,1.094343606382608414e-04,-2.113971277140080929e-04,1.015721281873993576e-04,3.646970435511320829e-04,0.000000000000000000e+00
6.841983795166015625e-01,-1.001594460981071466e-01,-4.999655506471122335e-01,3.000003203897368964e-01,3.394093336097609532e-04,2.221289360074573338e+00,2.221286937791708382e+00,-6.506431230577319411e-03,1.416566560364506495e-03,6.483285372466829631e-08,3.640040725414600193e-07,4.023540045299632816e-08,-1.250804745359362924e-02,-1.461918179188863576e+00,-2.043478790913717091e+00,-2.118890587483541310e+00,1.020777821540832520e+00,-1.679980580006734669e+00,-3.141593043004171193e+00,-1.291226502507925034e-02,1.241807040059939027e-04,-2.397409116383641958e-04,1.151939868577755988e-04,4.042175714857876301e-04,0.000000000000000000e+00
6.926727294921875000e-01,-1.002014809565762027e-01,-4.999563210298596516e-01,3.000000908766478069e-01,4.295193466955826212e-04,2.221248070376154793e+00,2.221247227424555604e+00,-7.299966839109875080e-03,1.590516882150631341e-03,9.141462770220563783e-08,3.518784780206267705e-07,3.860580129371420780e-08,-1.404148634173903350e-02,-1.462001625691549123e+00,-2.043478314076558888e+00,-2.118892494832174123e+00,1.020778536796569824e+00,-1.679978195820943654e+00,-3.141593043004171193e+00,-1.448846887797117233e-02,1.397906598867848516e-04,-2.697979216463863850e-04,1.296532718697562814e-04,4.469825362320989370e-04,0.000000000000000000e+00
7.020692825317382812e-01,-1.002492715467950546e-01,-4.999460214827106119e-01,3.000001811782085914e-01,5.316754011290190061e-04,2.221202419947064577e+00,2.221200787314017600e+00,-8.160208697154282612e-03,1.779867033914944068e-03,7.664459817657707406e-08,4.489287301035226026e-07,4.935289968342569744e-08,-1.571253102156337789e-02,-1.462096516286031544e+00,-2.043477360402242482e+00,-2.118893925343648732e+00,1.020779371261596680e+00,-1.679975334797994435e+00,-3.141593043004171193e+00,-1.619851216673851013e-02,1.570972963236272335e-04,-3.033035027328878641e-04,1.457545731682330370e-04,4.859811451751738787e-04,0.000000000000000000e+00
7.104017734527587891e-01,-1.003035814788485053e-01,-4.999340594428693940e-01,3.000000626749096955e-01,6.476948651136016149e-04,2.221149690388014797e+00,2.221149110592626652e+00,-9.102042246580517582e-03,1.987533948915265903e-03,1.030816247115766646e-07,4.781218469898250951e-07,5.226437892869593508e-08,-1.754386920947573203e-02,-1.462204281483785451e+00,-2.043476406727926076e+00,-2.118896309529439748e+00,1.020780324935913086e+00,-1.679971996937887013e+00,-3.141593043004171193e+00,-1.807110756635665894e-02,1.762147585395723581e-04,-3.401481080800294876e-04,1.634523796383291483e-04,5.272383568808436394e-04,0.000000000000000000e+00
7.295720577239990234e-01,-1.003645573561639248e-01,-4.999208186815999322e-01,3.000002530586496352e-01,7.783900973395341174e-04,2.221091530832631999e+00,2.221089371747187791e+00,-1.013877614973134229e-02,2.216208276443671667e-03,1.234162515420522582e-07,5.574304365877457092e-07,6.126875246723519703e-08,-1.955699356040001974e-02,-1.462325398121969044e+00,-2.043474976216451466e+00,-2.118898216878072560e+00,1.020781517028808594e+00,-1.679968659077779591e+00,-3.141593043004171193e+00,-2.013208717107772827e-02,1.970937009900808334e-04,-3.804302832577377558e-04,1.827757951105013490e-04,5.750936106778681278e-04,0.000000000000000000e+00
7.383794784545898438e-01,-1.004334801865330307e-01,-4.999056372544668503e-01,3.000002455635183973e-01,9.261354243668712015e-04,2.221024733477893420e+00,2.221023100788134030e+00,-1.128345689622533253e-02,2.468985064651544898e-03,1.196891635444790150e-07,6.662237864102516881e-07,7.292567310303465504e-08,-2.177925972500819110e-02,-1.462462250386373341e+00,-2.043473545704976857e+00,-2.118901077901021779e+00,1.020782709121704102e+00,-1.679964844380513966e+00,-3.141593043004171193e+00,-2.240773476660251617e-02,2.200576855102553964e-04,-4.248293116688728333e-04,2.041014231508597732e-04,6.284750415943562984e-04,0.000000000000000000e+00
7.472562789916992188e-01,-1.005110288575996741e-01,-4.998886935470875370e-01,3.000002162169188580e-01,1.092372161272994833e-03,2.220949832314684347e+00,2.220948199600999207e+00,-1.254993812772229288e-02,2.749577484523937475e-03,1.416555541960604976e-07,7.672672344255588679e-07,8.383511052391776175e-08,-2.424504555528986596e-02,-1.462616268788472951e+00,-2.043472115193502248e+00,-2.118903938923970998e+00,1.020784139633178711e+00,-1.679960552846090138e+00,-3.141593043004171193e+00,-2.492670528590679169e-02,2.459113020449876785e-04,-4.747211351059377193e-04,2.280379994772374630e-04,6.816597306169569492e-04,0.000000000000000000e+00
7.552223205566406250e-01,-1.005984119094738283e-01,-4.998695809705326343e-01,3.000000770064770172e-01,1.279815159768808329e-03,2.220865006726268742e+00,2.220864163551429904e+00,-1.395449012315711640e-02,3.061669145336982836e-03,1.575032055947358526e-07,8.194742645690546022e-07,8.913664336300716765e-08,-2.698557992698613281e-02,-1.462789837514058888e+00,-2.043470684682027638e+00,-2.118907276784078419e+00,1.020785689353942871e+00,-1.679955784474508107e+00,-3.141593043004171193e+00,-2.772136032581329346e-02,2.748776169028133154e-04,-5.306304665282368660e-04,2.549285418353974819e-04,7.357803988270461559e-04,0.000000000000000000e+00
7.638933658599853516e-01,-1.006966007105276062e-01,-4.998479248482394777e-01,3.000002805990948374e-01,1.490447706878470033e-03,2.220770425902345302e+00,2.220768793131693730e+00,-1.551576611443418290e-02,3.409600313226303879e-03,1.752735805292805512e-07,8.945737843255261547e-07,9.740896597197114179e-08,-3.003768977941947971e-02,-1.462984863911763966e+00,-2.043468300496236623e+00,-2.118911091481344044e+00,1.020787477493286133e+00,-1.679950539265767873e+00,-3.141593043004171193e+00,-3.082895092666149139e-02,3.073740226682275534e-04,-5.933577776886522770e-04,2.850838936865329742e-04,7.912611472420394421e-04,0.000000000000000000e+00
7.732903957366943359e-01,-1.008071914953459075e-01,-4.998236280231320161e-01,3.000001316064621615e-01,1.728670034043205180e-03,2.220662675853362966e+00,2.220661832560866689e+00,-1.725609693137582570e-02,3.798025759780482031e-03,1.931690209935114605e-07,1.008455338217629599e-06,1.092503193454628984e-07,-3.343712392961591812e-02,-1.463204685841695607e+00,-2.043466393147603810e+00,-2.118915383015767873e+00,1.020789504051208496e+00,-1.679945294057027638e+00,-3.141593043004171193e+00,-3.429284691810607910e-02,3.434293903410434723e-04,-6.629711133427917957e-04,3.185273671988397837e-04,8.557229884900152683e-04,0.000000000000000000e+00
7.817318439483642578e-01,-1.009314810305972226e-01,-4.997962639998153600e-01,3.000000826944553833e-01,1.995932757939661295e-03,2.220542162460396263e+00,2.220541319097872890e+00,-1.920011727014182476e-02,4.233523925083053016e-03,2.119007913401428045e-07,1.130301530830296259e-06,1.221530481259901530e-07,-3.724375180900080240e-02,-1.463451687489644826e+00,-2.043464008961812794e+00,-2.118920151387349904e+00,1.020791888236999512e+00,-1.679939095173970998e+00,-3.141593043004171193e+00,-3.816390410065650940e-02,3.842025471385568380e-04,-7.416958105750381947e-04,3.563563805073499680e-04,9.201522916555404663e-04,0.000000000000000000e+00
7.902579307556152344e-01,-1.010718044851264541e-01,-4.997653544195138076e-01,3.000001447868677618e-01,2.298061389175242060e-03,2.220406129739134204e+00,2.220404760001434052e+00,-2.137864181911312833e-02,4.722658170043973931e-03,2.257593464447802709e-07,1.285381557909822358e-06,1.387684217889753047e-07,-4.150790988933287379e-02,-1.463730637227193654e+00,-2.043461147938863576e+00,-2.118925396596090138e+00,1.020794510841369629e+00,-1.679932419453756154e+00,-3.141593043004171193e+00,-4.250216856598854065e-02,4.297645064070820808e-04,-8.296957821585237980e-04,3.986384253948926926e-04,9.942586766555905342e-04,0.000000000000000000e+00
7.983574867248535156e-01,-1.011334466708852381e-01,-4.997517126430439660e-01,3.000002471516686753e-01,2.430857574769372097e-03,2.220346341144690872e+00,2.220344708240109988e+00,-2.282474283232502690e-02,5.045641422044746388e-03,2.385654070338280208e-07,1.378560093099376232e-06,1.487760682633823440e-07,-4.432510014157742262e-02,-1.463853184376851857e+00,-2.043459717427388966e+00,-2.118927780781881154e+00,1.020795583724975586e+00,-1.679929558430806935e+00,-3.141593043004171193e+00,-4.537964984774589539e-02,4.592952318489551544e-04,-8.867172873578965664e-04,4.260354908183217049e-04,1.054549706168472767e-03,0.000000000000000000e+00
8.066852092742919922e-01,-1.011334466708852381e-01,-4.997517126430439660e-01,3.000002471516686753e-01,2.430857574769372097e-03,2.220346341144690872e+00,2.220344708240109988e+00,0.000000000000000000e+00,0.000000000000000000e+00,0.000000000000000000e+00,0.000000000000000000e+00,0.000000000000000000e+00,0.000000000000000000e+00,-1.463853184376851857e+00,-2.043459717427388966e+00,-2.118927780781881154e+00,1.020795583724975586e+00,-1.679929558430806935e+00,-3.141593043004171193e+00,0.000000000000000000e+00,0.000000000000000000e+00,0.000000000000000000e+00,0.000000000000000000e+00,0.000000000000000000e+00,0.000000000000000000e+00
8.152821063995361328e-01,-1.011334466708852381e-01,-4.997517126430439660e-01,3.000002471516686753e-01,2.430857574769372097e-03,2.220346341144690872e+00,2.220344708240109988e+00,0.000000000000000000e+00,0.000000000000000000e+00,0.000000000000000000e+00,0.000000000000000000e+00,0.000000000000000000e+00,0.000000000000000000e+00,-1.463853184376851857e+00,-2.043459717427388966e+00,-2.118927780781881154e+00,1.020795583724975586e+00,-1.679929558430806935e+00,-3.141593043004171193e+00,0.000000000000000000e+00,0.000000000000000000e+00,0.000000000000000000e+00,0.000000000000000000e+00,0.000000000000000000e+00,0.000000000000000000e+00
8.239355087280273438e-01,-1.011557489623198941e-01,-4.997467374401597384e-01,3.000002373688875901e-01,2.479006216440619512e-03,2.220324618447738541e+00,2.220322985536283156e+00,-5.743570786671193390e-03,1.272141893416900860e-03,5.670407525044314818e-08,3.564213203478578846e-07,3.842388683117524364e-08,-1.118578253954182616e-02,-1.463897530232564748e+00,-2.043459240590230763e+00,-2.118928734456197560e+00,1.020796060562133789e+00,-1.679928604756490529e+00,-3.141593043004171193e+00,-1.142400037497282028e-02,1.173164564534090459e-04,-2.265070943394675851e-04,1.088321514544077218e-04,2.382178354309871793e-04,0.000000000000000000e+00
8.326106071472167969e-01,-1.012116169177225133e-01,-4.997343256022050983e-01,3.000001079423296746e-01,2.599681042708922290e-03,2.220269814596676827e+00,2.220268971076097220e+00,-1.021583034855461786e-02,2.264556215705074062e-03,1.137944448214531634e-07,5.866295907391754785e-07,6.304350821559543562e-08,-1.990562785067586521e-02,-1.464008633290426076e+00,-2.043458286915914357e+00,-2.118931118641988576e+00,1.020797133445739746e+00,-1.679926220570699513e+00,-3.141593043004171193e+00,-2.032127976417541504e-02,2.092110953526571393e-04,-4.038740007672458887e-04,1.940728980116546154e-04,4.156519134994596243e-04,0.000000000000000000e+00
8.467273712158203125e-01,-1.012954678020321492e-01,-4.997156853596971260e-01,3.000002005233825542e-01,2.781661789320109650e-03,2.220187813522052078e+00,2.220186706825223677e+00,-1.398484064578052119e-02,3.105004835222870650e-03,1.570422185557082017e-07,8.314629910216573677e-07,8.925977680993520831e-08,-2.728663862217206929e-02,-1.464175526295797169e+00,-2.043456379567281544e+00,-2.118934456502095998e+00,1.020798683166503906e+00,-1.679923359547750294e+00,-3.141593043004171193e+00,-2.782494761049747467e-02,2.883934357669204473e-04,-5.567385233007371426e-04,2.675088471733033657e-04,5.383089883252978325e-04,0.000000000000000000e+00
8.547697067260742188e-01,-1.014047578701184754e-01,-4.996914024516163622e-01,3.000002723946758598e-01,3.018100929408193325e-03,2.220081336353275869e+00,2.220079703365631651e+00,-1.740820559759782490e-02,3.872166977936447770e-03,1.896879758453596994e-07,1.050415624498188212e-06,1.126613715815759992e-07,-3.401238820515568861e-02,-1.464392964039937794e+00,-2.043453995381490529e+00,-2.118938748036519826e+00,1.020800828933715820e+00,-1.679919068013326466e+00,-3.141593043004171193e+00,-3.464455902576446533e-02,3.614393353927880526e-04,-6.977782468311488628e-04,3.352824714966118336e-04,6.321708206087350845e-04,0.000000000000000000e+00
8.632335662841796875e-01,-1.015384305023343536e-01,-4.996617634347163550e-01,3.000001136198399698e-01,3.308010330503029141e-03,2.219950101058830505e+00,2.219949257353219796e+00,-2.072189622004868073e-02,4.618905147525190387e-03,2.308845241920689159e-07,1.230907801548325686e-06,1.314086064591629908e-07,-4.054462193744236276e-02,-1.464659039174215138e+00,-2.043451611195699513e+00,-2.118943993245260060e+00,1.020803332328796387e+00,-1.679914299641744435e+00,-3.141593043004171193e+00,-4.124995693564414978e-02,4.333110118750482798e-04,-8.365100366063416004e-04,4.019611224066466093e-04,7.053349982015788555e-04,0.000000000000000000e+00
8.711781501770019531e-01,-1.015921086118941885e-01,-4.996496630546436446e-01,3.000002159814159630e-01,3.424356352058068390e-03,2.219897685938233778e+00,2.219896579099271516e+00,-2.209366148952410236e-02,4.927934833589588982e-03,2.470283105370986881e-07,1.308500124818168047e-06,1.396371062092153999e-07,-4.324076586635765274e-02,-1.464765850697652638e+00,-2.043450180684224904e+00,-2.118946377431051076e+00,1.020804405212402344e+00,-1.679912392293111623e+00,-3.141593043004171193e+00,-4.398341849446296692e-02,4.626133304554969072e-04,-8.930743206292390823e-04,4.291450604796409607e-04,7.426526281051337719e-04,0.000000000000000000e+00
8.806707859039306641e-01,-1.015921086118941885e-01,-4.996496630546436446e-01,3.000002159814159630e-01,3.424356352058068390e-03,2.219897685938233778e+00,2.219896579099271516e+00,0.000000000000000000e+00,0.000000000000000000e+00,0.000000000000000000e+00,0.000000000000000000e+00,0.000000000000000000e+00,0.000000000000000000e+00,-1.464765850697652638e+00,-2.043450180684224904e+00,-2.118946377431051076e+00,1.020804405212402344e+00,-1.679912392293111623e+00,-3.141593043004171193e+00,0.000000000000000000e+00,0.000000000000000000e+00,0.000000000000000000e+00,0.000000000000000000e+00,0.000000000000000000e+00,0.000000000000000000e+00
8.902385234832763672e-01,-1.015921086118941885e-01,-4.996496630546436446e-01,3.000002159814159630e-01,3.424356352058068390e-03,2.219897685938233778e+00,2.219896579099271516e+00,0.000000000000000000e+00,0.000000000000000000e+00,0.000000000000000000e+00,0.000000000000000000e+00,0.000000000000000000e+00,0.000000000000000000e+00,-1.464765850697652638e+00,-2.043450180684224904e+00,-2.118946377431051076e+00,1.020804405212402344e+00,-1.679912392293111623e+00,-3.141593043004171193e+00,0.000000000000000000e+00,0.000000000000000000e+00,0.000000000000000000e+00,0.000000000000000000e+00,0.000000000000000000e+00,0.000000000000000000e+00
8.989431858062744141e-01,-1.016157474966411373e-01,-4.996443769352947872e-01,3.000002061982718904e-01,3.476716667968760086e-03,2.219874041816745081e+00,2.219872934966291123e+00,-6.066747305758904245e-03,1.362175479097525082e-03,7.214669474919894034e-08,3.629525404966660337e-07,3.866017558893003358e-08,-1.199947225541102801e-02,-1.464813057576314748e+00,-2.043449703847066701e+00,-2.118947331105367482e+00,1.020804882049560547e+00,-1.679912392293111623e+00,-3.141593043004171193e+00,-1.209599990397691727e-02,1.339477166766300797e-04,-2.585788606666028500e-04,1.242661383002996445e-04,9.652764856582507491e-05,0.000000000000000000e+00
9.073402881622314453e-01,-1.016755328586557844e-01,-4.996309805916691049e-01,3.000002867075444168e-01,3.607834402075503835e-03,2.219815184883660031e+00,2.219813288717662481e+00,-1.090135028008152804e-02,2.450154310892900793e-03,1.269727508513041121e-07,6.646565762382337250e-07,7.076550333780001855e-08,-2.157810822245657262e-02,-1.464932266865865529e+00,-2.043448273335592091e+00,-2.118949715291158498e+00,1.020806193351745605e+00,-1.679911438618795216e+00,-3.141593043004171193e+00,-2.173824049532413483e-02,2.415533381281420588e-04,-4.663190338760614395e-04,2.240972826257348061e-04,1.601322728674858809e-04,0.000000000000000000e+00
9.157061576843261719e-01,-1.017664016204697791e-01,-4.996106033069678265e-01,3.000002584999701960e-01,3.807220135492047318e-03,2.219725009463513921e+00,2.219723376365318579e+00,-1.505011135606478326e-02,3.388398417542323564e-03,1.759518942383828635e-07,9.283984213047167855e-07,9.862055062931480361e-08,-2.983322336513069550e-02,-1.465113464985982716e+00,-2.043446365986959279e+00,-2.118953529988424123e+00,1.020807981491088867e+00,-1.679910008107320607e+00,-3.141593043004171193e+00,-3.001866303384304047e-02,3.357959212735295296e-04,-6.482574972324073315e-04,3.115279541816562414e-04,1.854396687122061849e-04,0.000000000000000000e+00
9.238171577453613281e-01,-1.018856881465838721e-01,-4.995837352672584109e-01,3.000000997252523782e-01,4.069541201689739866e-03,2.219606145721426671e+00,2.219605301817626941e+00,-1.886771981844503898e-02,4.255661495670013707e-03,2.195525660676074911e-07,1.162339164994781383e-06,1.230939762213098263e-07,-3.744639249634906797e-02,-1.465351406727926076e+00,-2.043443981801168263e+00,-2.118958775197164357e+00,1.020810484886169434e+00,-1.679908577595845998e+00,-3.141593043004171193e+00,-3.764175623655319214e-02,4.233843355905264616e-04,-8.173529640771448612e-04,3.927997895516455173e-04,1.953637402039021254e-04,0.000000000000000000e+00
9.328203201293945312e-01,-1.020326359800146632e-01,-4.995504340673759258e-01,3.000000530932660503e-01,4.393677511801776653e-03,2.219459435897152222e+00,2.219459118036766210e+00,-2.259390143875219734e-02,5.108107134597142211e-03,2.646389874160922272e-07,1.399076951756253895e-06,1.476847191034961517e-07,-4.491681701620080236e-02,-1.465644661580220998e+00,-2.043440643941060841e+00,-2.118965450917379201e+00,1.020813584327697754e+00,-1.679907623921529591e+00,-3.141593043004171193e+00,-4.508940503001213074e-02,5.109909689053893089e-04,-9.864789899438619614e-04,4.740811709780246019e-04,1.725880138110369444e-04,0.000000000000000000e+00
9.425055980682373047e-01,-1.022082170502434106e-01,-4.995106566628438327e-01,3.000002175315253372e-01,4.781133949801629618e-03,2.219284650207272946e+00,2.219283543070529774e+00,-2.640659624186035212e-02,5.986779744163907811e-03,3.117340504606780061e-07,1.649868249675881461e-06,1.736028071862148573e-07,-5.260047026240467077e-02,-1.465995136891500294e+00,-2.043436352406637013e+00,-2.118973080311910451e+00,1.020817279815673828e+00,-1.679906670247213185e+00,-3.141593043004171193e+00,-5.271731317043304443e-02,6.027403869666159153e-04,-1.163602806627750397e-03,5.592034431174397469e-04,1.168429080280475318e-04,0.000000000000000000e+00
9.507169723510742188e-01,-1.024135820931276475e-01,-4.994640205551026946e-01,3.000002514001234855e-01,5.235150747601474697e-03,2.219079461610774739e+00,2.219078091344960146e+00,-3.044745094062895063e-02,6.927100324855299182e-03,3.738857811126672040e-07,1.871204035540712693e-06,1.960493562189352050e-07,-6.081435139299135734e-02,-1.466405216847554982e+00,-2.043431584035054982e+00,-2.118982140217916310e+00,1.020821690559387207e+00,-1.679906193410054982e+00,-3.141593043004171193e+00,-6.081374362111091614e-02,7.037793402560055256e-04,-1.358608948066830635e-03,6.529481615871191025e-04,-6.077718808228382841e-07,0.000000000000000000e+00
9.593434333801269531e-01,-1.026520118396339054e-01,-4.994098039537488432e-01,3.000001547013512182e-01,5.763616837399036449e-03,2.218840263119080003e+00,2.218839155767455384e+00,-3.484740027335151563e-02,7.958600671722649428e-03,4.361014481987227761e-07,2.134084840039259226e-06,2.224842529564606670e-07,-6.979697340284428397e-02,-1.466881577168599904e+00,-2.043426338826314748e+00,-2.118992630635396779e+00,1.020826816558837891e+00,-1.679906670247213185e+00,-3.141593043004171193e+00,-6.963741779327392578e-02,8.158208802342414856e-04,-1.574878115206956863e-03,7.569115841761231422e-04,-1.595556095708161592e-04,0.000000000000000000e+00
9.686021804809570312e-01,-1.029273152617892900e-01,-4.993466438615589142e-01,3.000001822035953114e-01,6.375450468984442814e-03,2.218563087322823257e+00,2.218562505804259288e+00,-3.973311044089133937e-02,9.112865902651291761e-03,5.016592509747639136e-07,2.445868200324237865e-06,2.536224689075517803e-07,-7.981453926186024561e-02,-1.467431847249166310e+00,-2.043419663106099904e+00,-2.119005505238668263e+00,1.020832777023315430e+00,-1.679908577595845998e+00,-3.141593043004171193e+00,-7.944412529468536377e-02,9.424618328921496868e-04,-1.819347031414508820e-03,8.744262158870697021e-04,-3.704139671754091978e-04,0.000000000000000000e+00
9.785380363464355469e-01,-1.032441517164344735e-01,-4.992739025185750079e-01,3.000002781303173771e-01,7.081595603074074610e-03,2.218243626468423546e+00,2.218242255875062963e+00,-4.524317825877004207e-02,1.042212379555595633e-02,5.795706834578948778e-07,2.791898518600330184e-06,2.874478834424150955e-07,-9.111625904915786334e-02,-1.468065563832418263e+00,-2.043412033711568654e+00,-2.119019810353414357e+00,1.020839810371398926e+00,-1.679912392293111623e+00,-3.141593043004171193e+00,-9.050771594047546387e-02,1.085356576368212700e-03,-2.095175907015800476e-03,1.007012673653662205e-03,-6.085431086830794811e-04,0.000000000000000000e+00
9.866814613342285156e-01,-1.036085077534110860e-01,-4.991897223263732086e-01,3.000001347783178840e-01,7.895323397021364667e-03,2.217874474452440126e+00,2.217873892478852582e+00,-5.152762516934843162e-02,1.192870250373163389e-02,6.689178934301814223e-07,3.180521259690197189e-06,3.253035480595534975e-07,-1.040675743715830798e-01,-1.468794647847310841e+00,-2.043403450642720998e+00,-2.119036976491109669e+00,1.020848035812377930e+00,-1.679918114339010060e+00,-3.141593043004171193e+00,-1.031390950083732605e-01,1.251508481800556183e-03,-2.415898721665143967e-03,1.161193125881254673e-03,-9.284793632104992867e-04,0.000000000000000000e+00
9.955210685729980469e-01,-1.040283598237647933e-01,-4.990923123673576267e-01,3.000003036724587790e-01,8.835343849607862204e-03,2.217448578951810134e+00,2.217446945166764216e+00,-5.877163122040905685e-02,1.367779177626092871e-02,7.743079657141252519e-07,3.627005467431029436e-06,3.672008544142165615e-07,-1.190082005923602804e-01,-1.469635311757222951e+00,-2.043392960225240529e+00,-2.119056526814595998e+00,1.020857572555541992e+00,-1.679926697407857716e+00,-3.141593043004171193e+00,-1.177059486508369446e-01,1.443425426259636879e-03,-2.786343218758702278e-03,1.339272246696054935e-03,-1.302251941524446011e-03,0.000000000000000000e+00
1.003481864929199219e+00,-1.040685891553732728e-01,-4.990829620395901833e-01,3.000002950267781632e-01,8.925598796438224264e-03,2.217407503480563147e+00,2.217406132562228294e+00,-5.776569461658288829e-02,1.344998506854100037e-02,7.618858534813947577e-07,3.564938930814397967e-06,3.607698084689149106e-07,-1.169934242498119753e-01,-1.469715897236959279e+00,-2.043392006550924123e+00,-2.119058434163228810e+00,1.020858407020568848e+00,-1.679927651082174123e+00,-3.141593043004171193e+00,-1.156965792179107666e-01,1.419835723936557770e-03,-2.740804338827729225e-03,1.317385467700660229e-03,-1.296845031902194023e-03,0.000000000000000000e+00
1.012265205383300781e+00,-1.040685891553732728e-01,-4.990829620395901833e-01,3.000002950267781632e-01,8.925598796438224264e-03,2.217407503480563147e+00,2.217406132562228294e+00,0.000000000000000000e+00,0.000000000000000000e+00,0.000000000000000000e+00,0.000000000000000000e+00,0.000000000000000000e+00,0.000000000000000000e+00,-1.469715897236959279e+00,-2.043392006550924123e+00,-2.119058434163228810e+00,1.020858407020568848e+00,-1.679927651082174123e+00,-3.141593043004171193e+00,0.000000000000000000e+00,0.000000000000000000e+00,0.000000000000000000e+00,0.000000000000000000e+00,0.000000000000000000e+00,0.000000000000000000e+00
1.020521879196166992e+00,-1.040685891553732728e-01,-4.990829620395901833e-01,3.000002950267781632e-01,8.925598796438224264e-03,2.217407503480563147e+00,2.217406132562228294e+00,0.000000000000000000e+00,0.000000000000000000e+00,0.000000000000000000e+00,0.000000000000000000e+00,0.000000000000000000e+00,0.000000000000000000e+00,-1.469715897236959279e+00,-2.043392006550924123e+00,-2.119058434163228810e+00,1.020858407020568848e+00,-1.679927651082174123e+00,-3.141593043004171193e+00,0.000000000000000000e+00,0.000000000000000000e+00,0.000000000000000000e+00,0.000000000000000000e+00,0.000000000000000000e+00,0.000000000000000000e+00
1.029533624649047852e+00,-1.041040141511024864e-01,-4.990746016621912529e-01,3.000002863810439790e-01,9.005824165043479698e-03,2.217370976497571089e+00,2.217369868440800751e+00,-9.049512425427154449e-03,2.125676486481962307e-03,1.286491011842025860e-07,5.564300172974264302e-07,5.618309819331206849e-08,-1.858741478645226097e-02,-1.469786945973531544e+00,-2.043391052876607716e+00,-2.119060341511861623e+00,1.020859241485595703e+00,-1.679929081593648732e+00,-3.141593043004171193e+00,-1.816320046782493591e-02,2.366791886743158102e-04,-4.568605218082666397e-04,2.196220739278942347e-04,-4.242143186274915934e-04,0.000000000000000000e+00
1.037822723388671875e+00,-1.041163313800210766e-01,-4.990717212303211747e-01,3.000003864417284394e-01,9.034278061376325650e-03,2.217358419586089813e+00,2.217356522900102433e+00,-1.016389564824559701e-02,2.387704632558312629e-03,1.444311673161802220e-07,6.249600747449143999e-07,6.291570316283060978e-08,-2.087645707069865630e-02,-1.469811741505758107e+00,-2.043390576039449513e+00,-2.119060818349019826e+00,1.020859599113464355e+00,-1.679930035267965138e+00,-3.141593043004171193e+00,-2.040000073611736298e-02,2.658262674231082201e-04,-5.131229409016668797e-04,2.466685546096414328e-04,-4.764563345815986395e-04,0.000000000000000000e+00
1.046395778656005859e+00,-1.041163313800210766e-01,-4.990717212303211747e-01,3.000003864417284394e-01,9.034278061376325650e-03,2.217358419586089813e+00,2.217356522900102433e+00,0.000000000000000000e+00,0.000000000000000000e+00,0.000000000000000000e+00,0.000000000000000000e+00,0.000000000000000000e+00,0.000000000000000000e+00,-1.469811741505758107e+00,-2.043390576039449513e+00,-2.119060818349019826e+00,1.020859599113464355e+00,-1.679930035267965138e+00,-3.141593043004171193e+00,0.000000000000000000e+00,0.000000000000000000e+00,0.000000000000000000e+00,0.000000000000000000e+00,0.000000000000000000e+00,0.000000000000000000e+00
1.055200338363647461e+00,-1.041163313800210766e-01,-4.990717212303211747e-01,3.000003864417284394e-01,9.034278061376325650e-03,2.217358419586089813e+00,2.217356522900102433e+00,0.000000000000000000e+00,0.000000000000000000e+00,0.000000000000000000e+00,0.000000000000000000e+00,0.000000000000000000e+00,0.000000000000000000e+00,-1.469811741505758107e+00,-2.043390576039449513e+00,-2.119060818349019826e+00,1.020859599113464355e+00,-1.679930035267965138e+00,-3.141593043004171193e+00,0.000000000000000000e+00,0.000000000000000000e+00,0.000000000000000000e+00,0.000000000000000000e+00,0.000000000000000000e+00,0.000000000000000000e+00
1.063551425933837891e+00,-1.041468998180370004e-01,-4.990644333626776952e-01,3.000001460376090501e-01,9.105057233755490392e-03,2.217325700822595724e+00,2.217325118487435631e+00,-7.823375972722789937e-03,1.857938404678746193e-03,1.227864401139974327e-07,4.898313290460189721e-07,4.944357212289301770e-08,-1.635186193743708508e-02,-1.469873253499166310e+00,-2.043390099202291310e+00,-2.119062725697652638e+00,1.020860433578491211e+00,-1.679932419453756154e+00,-3.141593043004171193e+00,-1.574400067329406738e-02,2.201527677243575454e-04,-4.249407793395221233e-04,2.042956912191584706e-04,-6.078612641431391239e-04,0.000000000000000000e+00
1.072542667388916016e+00,-1.042302762397514099e-01,-4.990447048243484840e-01,3.000002178805744601e-01,9.298151706723536622e-03,2.217238289371150639e+00,2.217237181251821454e+00,-1.478115414277186498e-02,3.517089632174048939e-03,2.303632475971879588e-07,9.290631444270630589e-07,9.332227333006275066e-08,-3.095587494317407831e-02,-1.470041100178853810e+00,-2.043387715016500294e+00,-2.119067017232076466e+00,1.020862579345703125e+00,-1.679939095173970998e+00,-3.141593043004171193e+00,-2.975616045296192169e-02,4.192597116343677044e-04,-8.092685602605342865e-04,3.890751104336231947e-04,-1.199714490212500095e-03,0.000000000000000000e+00
1.081303119659423828e+00,-1.043633890754244870e-01,-4.990128711233363656e-01,3.000001614449231413e-01,9.606826846543643078e-03,2.217097906199740454e+00,2.217097323715364610e+00,-2.131564264124653080e-02,5.084589832085964836e-03,3.323459390428280710e-07,1.345853818687072976e-06,1.352206531196045748e-07,-4.473952704574878786e-02,-1.470309082661763966e+00,-2.043383900319234669e+00,-2.119074646626607716e+00,1.020866155624389648e+00,-1.679950062428609669e+00,-3.141593043004171193e+00,-4.292789846658706665e-02,6.098935846239328384e-04,-1.177242957055568695e-03,5.659967428073287010e-04,-1.811628579162061214e-03,0.000000000000000000e+00
1.090171337127685547e+00,-1.045451495589599517e-01,-4.989694733101632806e-01,3.000001964196776227e-01,1.002990088524909236e-02,2.216905757757644313e+00,2.216905175147539708e+00,-2.775816522155818977e-02,6.647091378981914364e-03,4.359489131448099805e-07,1.768131256579966365e-06,1.769505205413248731e-07,-5.848352145403577784e-02,-1.470675293599263966e+00,-2.043378655110494435e+00,-2.119084660206929982e+00,1.020870923995971680e+00,-1.679966274891988576e+00,-3.141593043004171193e+00,-5.593974888324737549e-02,8.061790140345692635e-04,-1.556127564981579781e-03,7.481715874746441841e-04,-2.543772570788860321e-03,0.000000000000000000e+00
1.098998546600341797e+00,-1.047774421673170892e-01,-4.989136645724409069e-01,3.000000921887098770e-01,1.057213002606453497e-02,2.216659028167106360e+00,2.216659233825934994e+00,-3.439242954336099722e-02,8.269590470110369310e-03,5.446770280529434203e-07,2.209167945894324529e-06,2.212032842475514637e-07,-7.271274831145954631e-02,-1.471143547688619435e+00,-2.043371979390279591e+00,-2.119098011647359669e+00,1.020877242088317871e+00,-1.679988209401265919e+00,-3.141593043004171193e+00,-6.935377418994903564e-02,1.012302585877478123e-03,-1.954001374542713165e-03,9.394785738550126553e-04,-3.358974121510982513e-03,0.000000000000000000e+00
1.108077287673950195e+00,-1.050633936932605650e-01,-4.988447557078484751e-01,3.000001684899137877e-01,1.124280097470119373e-02,2.216354485254037776e+00,2.216353902283896726e+00,-4.145168672993094355e-02,1.002784104733881083e-02,6.742900813450271855e-07,2.644844555318246813e-06,2.617182347675807173e-07,-8.816466294228959832e-02,-1.471720520650045216e+00,-2.043363396321431935e+00,-2.119114224110738576e+00,1.020885229110717773e+00,-1.680017773305074513e+00,-3.141593043004171193e+00,-8.367747068405151367e-02,1.248510088771581650e-03,-2.409903798252344131e-03,1.158735947683453560e-03,-4.487192258238792419e-03,0.000000000000000000e+00
1.116581439971923828e+00,-1.054084766060409822e-01,-4.987609074358163030e-01,3.000001176429396565e-01,1.205777117090816621e-02,2.215983497771359279e+00,2.215983440054330345e+00,-4.918706722123010466e-02,1.198278789967252220e-02,8.095408684661474900e-07,3.184449343221166135e-06,3.141548910278134366e-07,-1.053210711106651459e-01,-1.472417656575338185e+00,-2.043352905903951466e+00,-2.119134728108541310e+00,1.020895004272460938e+00,-1.680057827626363576e+00,-3.141593043004171193e+00,-9.941202402114868164e-02,1.519346958957612514e-03,-2.932699862867593765e-03,1.410152995958924294e-03,-5.909047089517116547e-03,0.000000000000000000e+00
1.124707698822021484e+00,-1.058201891858056160e-01,-4.986602603366181996e-01,3.000001386078306465e-01,1.303471258379963055e-02,2.215538704059310415e+00,2.215538645970225762e+00,-5.786927317827033485e-02,1.419919132552698894e-02,9.740035078416528350e-07,3.764023160603641451e-06,3.681533547192944644e-07,-1.246662377379826880e-01,-1.473250214253560841e+00,-2.043340031300679982e+00,-2.119159523640767873e+00,1.020906925201416016e+00,-1.680109326039449513e+00,-3.141593043004171193e+00,-1.170931458473205566e-01,1.827863510698080063e-03,-3.528179135173559189e-03,1.696533639915287495e-03,-7.573091890662908554e-03,0.000000000000000000e+00
1.134223222732543945e+00,-1.063078831621108167e-01,-4.985400860261673950e-01,3.000002215795208871e-01,1.419976069381924388e-02,2.215007992024272898e+00,2.215007408178900850e+00,-6.777831857972474450e-02,1.677183040719367260e-02,1.162795301812640138e-06,4.421498024601680926e-06,4.256988769925515724e-07,-1.470707589760410494e-01,-1.474237744008199513e+00,-2.043324295674459279e+00,-2.119189564381734669e+00,1.020921468734741211e+00,-1.680176560078756154e+00,-3.141593043004171193e+00,-1.373304873704910278e-01,2.197355031967163086e-03,-4.241358954459428787e-03,2.039561979472637177e-03,-9.740271605551242828e-03,0.000000000000000000e+00
1.142920732498168945e+00,-1.068841893790513226e-01,-4.983966978830289274e-01,3.000002578416406385e-01,1.558690972378213094e-02,2.214375095190796561e+00,2.214374510935873008e+00,-7.925824284428052702e-02,1.980792674547982371e-02,1.382040744846913362e-06,5.234425194480177827e-06,4.975133074358617586e-07,-1.734431162476524624e-01,-1.475406471882955373e+00,-2.043305222188131154e+00,-2.119226280842916310e+00,1.020939111709594727e+00,-1.680264298115865529e+00,-3.141593043004171193e+00,-1.608504801988601685e-01,2.647611778229475021e-03,-5.110463127493858337e-03,2.457593334838747978e-03,-1.259263604879379272e-02,0.000000000000000000e+00
1.151015520095825195e+00,-1.075648676339624743e-01,-4.982254830027911252e-01,3.000003485445669194e-01,1.723940625678972022e-02,2.213620097468481429e+00,2.213619512726459071e+00,-9.090931038323150915e-02,2.298530854330439049e-02,1.630291629704404777e-06,6.073160464992917733e-06,5.683711085720171740e-07,-2.009321562945824702e-01,-1.476789299641744435e+00,-2.043281857167379201e+00,-2.119271103535787404e+00,1.020960569381713867e+00,-1.680379215870992482e+00,-3.141593043004171193e+00,-1.848504841327667236e-01,3.143192967399954796e-03,-6.067001726478338242e-03,2.917709061875939369e-03,-1.608167216181755066e-02,0.000000000000000000e+00
1.159657239913940430e+00,-1.083385350830175647e-01,-4.980286408859307401e-01,3.000003499168061860e-01,1.913620242410045066e-02,2.212752214921415383e+00,2.212751367177345330e+00,-1.024778246385568969e-01,2.626045813510068105e-02,1.903585007301773918e-06,6.931939272627920577e-06,6.347696933738172493e-07,-2.291957903653354112e-01,-1.478364292775289357e+00,-2.043254677449361623e+00,-2.119323555623189748e+00,1.020985960960388184e+00,-1.680524651204244435e+00,-3.141593043004171193e+00,-2.088504880666732788e-01,3.687123768031597137e-03,-7.116827648133039474e-03,3.422742942348122597e-03,-2.034530229866504669e-02,0.000000000000000000e+00
1.168118000030517578e+00,-1.092041563209681099e-01,-4.978048928609378754e-01,3.000002969686102472e-01,2.128519441813577287e-02,2.211766652923117249e+00,2.211766591693065109e+00,-1.139330655834950717e-01,2.965881803529938146e-02,2.201611033012970107e-06,7.824887026438876128e-06,7.107808327765890980e-07,-2.585581652820094223e-01,-1.480130974446431935e+00,-2.043222729359762013e+00,-2.119385544453756154e+00,1.021015644073486328e+00,-1.680708710347310841e+00,-3.141593043004171193e+00,-2.328504770994186401e-01,4.299663938581943512e-03,-8.299069479107856750e-03,3.991548437625169754e-03,-2.570768818259239197e-02,0.000000000000000000e+00
1.176805973052978516e+00,-1.101611196790279051e-01,-4.975535995787710997e-01,3.000003885496280720e-01,2.369453660414099286e-02,2.210659821143056369e+00,2.210659758996138535e+00,-1.253010324518882557e-01,3.316598540078280477e-02,2.531805842320933017e-06,8.793827447371749758e-06,7.813599475718809876e-07,-2.886872477829438566e-01,-1.482089821492330373e+00,-2.043185536061422169e+00,-2.119457070027486623e+00,1.021049976348876953e+00,-1.680939022694722951e+00,-3.141593043004171193e+00,-2.568504810333251953e-01,4.960105288773775101e-03,-9.573708288371562958e-03,4.604774527251720428e-03,-3.183676674962043762e-02,0.000000000000000000e+00
1.185329914093017578e+00,-1.112086694258615782e-01,-4.972738279684581486e-01,3.000003721914907828e-01,2.637082752405150651e-02,2.209427537864200541e+00,2.209427474699009686e+00,-1.365547230520854638e-01,3.680412661935519858e-02,2.877815614381723757e-06,9.749782021880689083e-06,8.450770898427937287e-07,-3.198608607053736730e-01,-1.484240833912984669e+00,-2.043143097554342091e+00,-2.119539086018697560e+00,1.021089553833007812e+00,-1.681222263966695607e+00,-3.141593043004171193e+00,-2.808504700660705566e-01,5.685751326382160187e-03,-1.097418926656246185e-02,5.278651602566242218e-03,-3.901039063930511475e-02,0.000000000000000000e+00
1.194995164871215820e+00,-1.123446864183039601e-01,-4.969636919497418814e-01,3.000002621336646524e-01,2.933416442166405722e-02,2.208059142824993160e+00,2.208060126509698406e+00,-1.474646422255597444e-01,4.073314098743177625e-02,3.357716286813417651e-06,1.067360419551120963e-05,9.236374171994210213e-07,-3.546802587807105223e-01,-1.486583534871236623e+00,-2.043093983327047169e+00,-2.119634453450338185e+00,1.021135330200195312e+00,-1.681577984486715138e+00,-3.141593043004171193e+00,-3.048504889011383057e-01,6.639051716774702072e-03,-1.281383540481328964e-02,6.164070218801498413e-03,-4.982976987957954407e-02,0.000000000000000000e+00
1.203440189361572266e+00,-1.135666334527842269e-01,-4.966209367671531871e-01,3.000004593133245856e-01,3.261574866726181521e-02,2.206540417168419754e+00,2.206540613474074597e+00,-1.580006241816575840e-01,4.497228444231979316e-02,3.823937121752115507e-06,1.212944699038025496e-05,9.990963871933558266e-07,-3.934347406029673477e-01,-1.489118401204244435e+00,-2.043035809193746388e+00,-2.119746033345357716e+00,1.021189093589782715e+00,-1.682035271321431935e+00,-3.141593043004171193e+00,-3.288504779338836670e-01,7.837845012545585632e-03,-1.512771751731634140e-02,7.277701981365680695e-03,-6.458426266908645630e-02,0.000000000000000000e+00
1.211795330047607422e+00,-1.138500007440808454e-01,-4.965402210313230036e-01,3.000003503865291132e-01,3.338913196644282405e-02,2.206181398209541733e+00,2.206182379618391032e+00,-3.541796089935902309e-02,1.010316900894512107e-02,8.547274088881113441e-07,2.719161495177752750e-06,2.275571228280407447e-07,-8.821099344640766227e-02,-1.489708248768941701e+00,-2.043021980916158498e+00,-2.119773213063375294e+00,1.021202087402343750e+00,-1.682151142750875294e+00,-3.141593043004171193e+00,-7.373072206974029541e-02,1.757303136400878429e-03,-3.391746664419770241e-03,1.631714869290590286e-03,-1.448027137666940689e-02,0.000000000000000000e+00
1.220414161682128906e+00,-1.138500007440808454e-01,-4.965402210313230036e-01,3.000003503865291132e-01,3.338913196644282405e-02,2.206181398209541733e+00,2.206182379618391032e+00,0.000000000000000000e+00,0.000000000000000000e+00,0.000000000000000000e+00,0.000000000000000000e+00,0.000000000000000000e+00,0.000000000000000000e+00,-1.489708248768941701e+00,-2.043021980916158498e+00,-2.119773213063375294e+00,1.021202087402343750e+00,-1.682151142750875294e+00,-3.141593043004171193e+00,0.000000000000000000e+00,0.000000000000000000e+00,0.000000000000000000e+00,0.000000000000000000e+00,0.000000000000000000e+00,0.000000000000000000e+00
1.228900909423828125e+00,-1.138500007440808454e-01,-4.965402210313230036e-01,3.000003503865291132e-01,3.338913196644282405e-02,2.206181398209541733e+00,2.206182379618391032e+00,0.000000000000000000e+00,0.000000000000000000e+00,0.000000000000000000e+00,0.000000000000000000e+00,0.000000000000000000e+00,0.000000000000000000e+00,-1.489708248768941701e+00,-2.043021980916158498e+00,-2.119773213063375294e+00,1.021202087402343750e+00,-1.682151142750875294e+00,-3.141593043004171193e+00,0.000000000000000000e+00,0.000000000000000000e+00,0.000000000000000000e+00,0.000000000000000000e+00,0.000000000000000000e+00,0.000000000000000000e+00
1.237177610397338867e+00,-1.138866671096835093e-01,-4.965291842109781362e-01,3.000004220751490980e-01,3.349934034597055327e-02,2.206130506917239664e+00,2.206130964652243787e+00,-9.381790679729662408e-03,2.835348504612408404e-03,2.918521798571969448e-07,7.548137397558206589e-07,6.252691972697355629e-08,-2.565565612167091530e-02,-1.489785973225728810e+00,-2.043019596730367482e+00,-2.119777504597799123e+00,1.021204233169555664e+00,-1.682174030934469044e+00,-3.141593043004171193e+00,-1.987200044095516205e-02,5.910743493586778641e-04,-1.140759908594191074e-03,5.489281611517071724e-04,-5.783655680716037750e-03,0.000000000000000000e+00
1.246980428695678711e+00,-1.139937894562327719e-01,-4.964965344986457807e-01,3.000005382835507217e-01,3.382424040371991014e-02,2.205979982183868149e+00,2.205979916184177547e+00,-1.855464699018387342e-02,5.672366731969726017e-03,5.981796454650208858e-07,1.560355131721933272e-06,1.260334249786955936e-07,-5.161754880100455356e-02,-1.490013424550191701e+00,-2.043012444172994435e+00,-2.119790856038228810e+00,1.021210670471191406e+00,-1.682243172322408498e+00,-3.141593043004171193e+00,-3.943488001823425293e-02,1.216983655467629433e-03,-2.348757116124033928e-03,1.130208023823797703e-03,-1.218266878277063370e-02,0.000000000000000000e+00
1.256806135177612305e+00,-1.141719425230788426e-01,-4.964406973378540089e-01,3.000003380344977710e-01,3.438785733365695707e-02,2.205717745582322031e+00,2.205718988185880303e+00,-2.765505738659330276e-02,8.804274519354884573e-03,1.001687943324715872e-06,2.509250894897304578e-06,2.150011571066384250e-07,-8.184400014578879778e-02,-1.490394894276754201e+00,-2.043000046406881154e+00,-2.119815651570455373e+00,1.021222472190856934e+00,-1.682376209889547169e+00,-3.141593043004171193e+00,-5.951508507132530212e-02,2.082825871184468269e-03,-4.019833635538816452e-03,1.934489351697266102e-03,-2.232891507446765900e-02,0.000000000000000000e+00
1.265594244003295898e+00,-1.144210005846213740e-01,-4.963569134074801159e-01,3.000004255878866988e-01,3.526449986834498396e-02,2.205310770018544808e+00,2.205311488633443062e+00,-3.646149456989688370e-02,1.274996730108595398e-02,1.788737830518745560e-06,3.709017806650789797e-06,3.112998487793007710e-07,-1.241525597870318243e-01,-1.490940395985738576e+00,-2.042977635060445607e+00,-2.119858566914693654e+00,1.021243214607238770e+00,-1.682631317769185841e+00,-3.141593043004171193e+00,-8.090398460626602173e-02,3.636534791439771652e-03,-7.018101401627063751e-03,3.377844579517841339e-03,-4.324857518076896667e-02,0.000000000000000000e+00
1.275037288665771484e+00,-1.147309479865961240e-01,-4.962432367403771249e-01,3.000003127569423333e-01,3.650198354743008217e-02,2.204735035434777224e+00,2.204736538366663279e+00,-4.260385531078353383e-02,1.624481722295950323e-02,2.497227281403660921e-06,5.032489853712305610e-06,4.454995338349839157e-07,-1.641770377754995236e-01,-1.491639439259664357e+00,-2.042942825947896779e+00,-2.119926277791158498e+00,1.021275758743286133e+00,-1.683062855397359669e+00,-3.141593043004171193e+00,-9.740845859050750732e-02,5.295892711728811264e-03,-1.022064965218305588e-02,4.919704981148242950e-03,-6.676857918500900269e-02,0.000000000000000000e+00
1.283720493316650391e+00,-1.150753753650855943e-01,-4.961046027545362724e-01,3.000004199334408983e-01,3.806989311209448695e-02,2.204005464732436081e+00,2.204006181852527391e+00,-4.350415709191893937e-02,1.845281859643530670e-02,3.179867857243457188e-06,5.991335830466103048e-06,5.007944748161217535e-07,-1.942374259233412004e-01,-1.492442909871236623e+00,-2.042894188557760060e+00,-2.120019737874166310e+00,1.021320939064025879e+00,-1.683692757283345998e+00,-3.141593043004171193e+00,-1.034688502550125122e-01,6.864392664283514023e-03,-1.324761472642421722e-02,6.377209909260272980e-03,-9.076857566833496094e-02,0.000000000000000000e+00
1.292826652526855469e+00,-1.153735180895105877e-01,-4.959617317924347457e-01,3.000004775587311601e-01,3.978221795177373094e-02,2.203207011249713076e+00,2.203207988929820615e+00,-3.104181128180052290e-02,1.724070235843357807e-02,3.673361159501380065e-06,5.985382518886439263e-06,5.176005544599695164e-07,-1.974112689494956774e-01,-1.493187252675191701e+00,-2.042834107075826466e+00,-2.120135609303609669e+00,1.021376609802246094e+00,-1.684514824544088185e+00,-3.141593043004171193e+00,-8.264269679784774780e-02,8.121821098029613495e-03,-1.567408628761768341e-02,7.546257693320512772e-03,-1.147685721516609192e-01,0.000000000000000000e+00
1.300790071487426758e+00,-1.155703303924542069e-01,-4.958335096479435933e-01,3.000006495768804959e-01,4.144903068728818946e-02,2.202428955938080080e+00,2.202429409831593521e+00,-1.817839202452919620e-02,1.481466442557824621e-02,3.799938437921220559e-06,5.729929344739695781e-06,4.693169104519123904e-07,-1.840314529836137303e-01,-1.493752304707662404e+00,-2.042767349873678029e+00,-2.120263878499166310e+00,1.021438360214233398e+00,-1.685475651417867482e+00,-3.141593043004171193e+00,-5.864269658923149109e-02,8.507176302373409271e-03,-1.641752570867538452e-02,7.904600352048873901e-03,-1.253887563943862915e-01,0.000000000000000000e+00
1.309966564178466797e+00,-1.156657666226956482e-01,-4.957255828198810499e-01,3.000006720324827625e-01,4.298151697389803599e-02,2.201712237690047314e+00,2.201712952126375633e+00,-5.652968307607782530e-03,1.215299620541200436e-02,3.821532384137754147e-06,5.245919245022751590e-06,4.472647652170911791e-07,-1.668762564659033998e-01,-1.494125668202535451e+00,-2.042698685322896779e+00,-2.120396439229146779e+00,1.021502137184143066e+00,-1.686506096516744435e+00,-3.141593043004171193e+00,-3.464269638061523438e-02,8.656851015985012054e-03,-1.670610159635543823e-02,8.043985813856124878e-03,-1.322335600852966309e-01,0.000000000000000000e+00
1.318382024765014648e+00,-1.156616041101651005e-01,-4.956394647024196520e-01,3.000005634626964901e-01,4.435495550839646528e-02,2.201068816311708254e+00,2.201070313627186970e+00,6.697489985809169585e-03,9.373228597540913393e-03,3.733287014690048534e-06,4.657108778402067195e-06,4.520244370542865487e-07,-1.477984068914910409e-01,-1.494306866322652638e+00,-2.042629543934957326e+00,-2.120530430470601857e+00,1.021566629409790039e+00,-1.687583748494283498e+00,-3.141593043004171193e+00,-1.064269524067640305e-02,8.686374872922897339e-03,-1.676298864185810089e-02,8.071935735642910004e-03,-1.371557116508483887e-01,0.000000000000000000e+00
1.328462600708007812e+00,-1.155587255017527237e-01,-4.955757328116339733e-01,3.000006748226881070e-01,4.555913147952143222e-02,2.200504589821982826e+00,2.200505563937547038e+00,1.901348364149220427e-02,6.576382338491074120e-03,3.649090796955631038e-06,4.060497899473858631e-06,3.756347194017852095e-07,-1.283887093886579012e-01,-1.494295899068013966e+00,-2.042559925709859669e+00,-2.120664421712056935e+00,1.021631240844726562e+00,-1.688699070607320607e+00,-3.141593043004171193e+00,1.335730496793985367e-02,8.695224300026893616e-03,-1.677992194890975952e-02,8.080620318651199341e-03,-1.417460143566131592e-01,0.000000000000000000e+00
1.336656093597412109e+00,-1.153573803971459366e-01,-4.955344258878315866e-01,3.000007855689646452e-01,4.659176361559338314e-02,2.200020289893267478e+00,2.200020741200130914e+00,3.128380486180672160e-02,3.761304146836348672e-03,3.570300331477809986e-06,3.446363629430884218e-06,2.962567717981515960e-07,-1.085001938044984487e-01,-1.494092766438619435e+00,-2.042490307484762013e+00,-2.120798412953512013e+00,1.021695852279663086e+00,-1.689849678670064748e+00,-3.141593043004171193e+00,3.735730424523353577e-02,8.674213662743568420e-03,-1.673917099833488464e-02,8.061498403549194336e-03,-1.458574980497360229e-01,0.000000000000000000e+00
1.350488901138305664e+00,-1.150582151522290958e-01,-4.955154885353317828e-01,3.000006970845573440e-01,4.744900833239445309e-02,2.199617114753627867e+00,2.199618870609708399e+00,4.351453380945189547e-02,9.383317359839760596e-04,3.464125322758992087e-06,2.811616459221342831e-06,3.387827598340373140e-07,-8.818340301508698076e-02,-1.493697945271627248e+00,-2.042421166096822560e+00,-2.120932404194967091e+00,1.021760106086730957e+00,-1.691031281148092091e+00,-3.141593043004171193e+00,6.135730445384979248e-02,8.626428432762622833e-03,-1.664681732654571533e-02,8.017559535801410675e-03,-1.495407074689865112e-01,0.000000000000000000e+00
1.358936309814453125e+00,-1.146613763009911718e-01,-4.955192652912823181e-01,3.000006947994774409e-01,4.812880736533889370e-02,2.199297764880664641e+00,2.199299259126941575e+00,5.573597645840490389e-02,-1.866188152916907830e-03,3.359862768734976682e-06,2.246215128382347299e-06,2.810394254865579721e-07,-6.776590645309556182e-02,-1.493111435567037404e+00,-2.042352501546041310e+00,-2.121064964924947560e+00,1.021824121475219727e+00,-1.692241970692769826e+00,-3.141593043004171193e+00,8.535730838775634766e-02,8.572343736886978149e-03,-1.654231362044811249e-02,7.967708632349967957e-03,-1.531232148408889771e-01,0.000000000000000000e+00
1.368606805801391602e+00,-1.141665307719836736e-01,-4.955455002143964172e-01,3.000007126822904491e-01,4.862880625795913681e-02,2.199062668760644712e+00,2.199064162504862363e+00,6.793844750594192627e-02,-4.652493054559522431e-03,3.255887745837081097e-06,1.609820670240645918e-06,2.350946068630013202e-07,-4.711779206987423696e-02,-1.492332283650533498e+00,-2.042284313832418263e+00,-2.121196571980611623e+00,1.021887540817260742e+00,-1.693480316792623341e+00,-3.141593043004171193e+00,1.093573048710823059e-01,8.503883145749568939e-03,-1.641003228724002838e-02,7.904525846242904663e-03,-1.564750969409942627e-01,0.000000000000000000e+00
1.377109766006469727e+00,-1.135742394449597292e-01,-4.955935940512443683e-01,3.000006301810926312e-01,4.894914455714585028e-02,2.198911638300181437e+00,2.198913914173010298e+00,8.013850400024113974e-02,-7.403490680743743044e-03,3.150469455847186262e-06,1.020922413030577179e-06,2.493996104554024578e-07,-2.641026675692328962e-02,-1.491361443196431935e+00,-2.042216602955953419e+00,-2.121327702199117482e+00,1.021950602531433105e+00,-1.694745365773336232e+00,-3.141593043004171193e+00,1.333573013544082642e-01,8.431702852249145508e-03,-1.627059839665889740e-02,7.837858051061630249e-03,-1.597675681114196777e-01,0.000000000000000000e+00
1.385599613189697266e+00,-1.128845160478604975e-01,-4.956637769510178204e-01,3.000007762518672738e-01,4.908873511045793586e-02,2.198846321449294816e+00,2.198847814510552556e+00,9.233825619585832312e-02,-1.011172513498785966e-02,3.048111190945218278e-06,3.900949571208304175e-07,1.445789998590895713e-07,-5.648300051650095854e-03,-1.490198914204732716e+00,-2.042149368916646779e+00,-2.121456925068990529e+00,1.022012948989868164e+00,-1.696036163960592091e+00,-3.141593043004171193e+00,1.573573052883148193e-01,8.356118574738502502e-03,-1.612456329166889191e-02,7.768044248223304749e-03,-1.630056053400039673e-01,0.000000000000000000e+00
1.393749237060546875e+00,-1.120968473353548961e-01,-4.957552033131189528e-01,3.000008328594462870e-01,4.904722512560331232e-02,2.198865734458741450e+00,2.198867488105813450e+00,1.045395720581851484e-01,-1.276963463282894569e-02,2.958443798510562423e-06,-2.481825139153954411e-07,1.147878890867529850e-07,1.516370475297662557e-02,-1.488843743001119435e+00,-2.042082611714498341e+00,-2.121585671101705373e+00,1.022074818611145020e+00,-1.697353188191549123e+00,-3.141593043004171193e+00,1.813573092222213745e-01,8.277451619505882263e-03,-1.597254164516925812e-02,7.695327978581190109e-03,-1.661936044692993164e-01,0.000000000000000000e+00
1.402235031127929688e+00,-1.112116889300337058e-01,-4.958679346381576480e-01,3.000008758962979805e-01,4.882450957656511020e-02,2.198970743034593944e+00,2.198971975100756815e+00,1.167444052378877328e-01,-1.536992587275148002e-02,2.863902890008640494e-06,-9.264141118702719104e-07,1.969663885191315872e-08,3.602178394797217464e-02,-1.487296883259908498e+00,-2.042016808186666310e+00,-2.121712509785787404e+00,1.022136092185974121e+00,-1.698695484791890919e+00,-3.141593043004171193e+00,2.053572982549667358e-01,8.195882663130760193e-03,-1.581492833793163300e-02,7.619967218488454819e-03,-1.693355143070220947e-01,0.000000000000000000e+00
1.410536050796508789e+00,-1.112116889300337058e-01,-4.958679346381576480e-01,3.000008758962979805e-01,4.882450957656511020e-02,2.198970743034593944e+00,2.198971975100756815e+00,0.000000000000000000e+00,0.000000000000000000e+00,0.000000000000000000e+00,0.000000000000000000e+00,0.000000000000000000e+00,0.000000000000000000e+00,-1.487296883259908498e+00,-2.042016808186666310e+00,-2.121712509785787404e+00,1.022136092185974121e+00,-1.698695484791890919e+00,-3.141593043004171193e+00,0.000000000000000000e+00,0.000000000000000000e+00,0.000000000000000000e+00,0.000000000000000000e+00,0.000000000000000000e+00,0.000000000000000000e+00
1.418831825256347656e+00,-1.112116889300337058e-01,-4.958679346381576480e-01,3.000008758962979805e-01,4.882450957656511020e-02,2.198970743034593944e+00,2.198971975100756815e+00,0.000000000000000000e+00,0.000000000000000000e+00,0.000000000000000000e+00,0.000000000000000000e+00,0.000000000000000000e+00,0.000000000000000000e+00,-1.487296883259908498e+00,-2.042016808186666310e+00,-2.121712509785787404e+00,1.022136092185974121e+00,-1.698695484791890919e+00,-3.141593043004171193e+00,0.000000000000000000e+00,0.000000000000000000e+00,0.000000000000000000e+00,0.000000000000000000e+00,0.000000000000000000e+00,0.000000000000000000e+00
1.427682399749755859e+00,-1.111664889271141016e-01,-4.958769583612456788e-01,3.000007564283828643e-01,4.875966160491183865e-02,2.199000892561882914e+00,2.199002906885245245e+00,1.158762126987887900e-02,-2.312756596651601403e-03,7.076810606132950278e-08,-4.830309591088664343e-07,-3.403225961328996015e-08,1.521785510704209456e-02,-1.487210575734273732e+00,-2.042016331349508107e+00,-2.121713940297262013e+00,1.022136688232421875e+00,-1.698722187672750294e+00,-3.141593043004171193e+00,2.211599983274936676e-02,1.747656497173011303e-04,-3.370561753399670124e-04,1.627747114980593324e-04,-6.898144725710153580e-03,0.000000000000000000e+00
1.436545133590698242e+00,-1.111614974953684110e-01,-4.958780164509347665e-01,3.000007455270832790e-01,4.875237985351683206e-02,2.199004435224564347e+00,2.199006188811246432e+00,1.182027657440429085e-02,-2.359070686046356446e-03,7.219533405120572201e-08,-4.926580799365933791e-07,-3.555610693019336312e-08,1.552336895838601037e-02,-1.487201038991109669e+00,-2.042016331349508107e+00,-2.121713940297262013e+00,1.022136807441711426e+00,-1.698725048695699513e+00,-3.141593043004171193e+00,2.256000041961669922e-02,1.782742328941822052e-04,-3.438229032326489687e-04,1.660425768932327628e-04,-7.036631461232900620e-03,0.000000000000000000e+00
1.446243047714233398e+00,-1.111614974953684110e-01,-4.958780164509347665e-01,3.000007455270832790e-01,4.875237985351683206e-02,2.199004435224564347e+00,2.199006188811246432e+00,0.000000000000000000e+00,0.000000000000000000e+00,0.000000000000000000e+00,0.000000000000000000e+00,0.000000000000000000e+00,0.000000000000000000e+00,-1.487201038991109669e+00,-2.042016331349508107e+00,-2.121713940297262013e+00,1.022136807441711426e+00,-1.698725048695699513e+00,-3.141593043004171193e+00,0.000000000000000000e+00,0.000000000000000000e+00,0.000000000000000000e+00,0.000000000000000000e+00,0.000000000000000000e+00,0.000000000000000000e+00
1.462650537490844727e+00,-1.111614974953684110e-01,-4.958780164509347665e-01,3.000007455270832790e-01,4.875237985351683206e-02,2.199004435224564347e+00,2.199006188811246432e+00,0.000000000000000000e+00,0.000000000000000000e+00,0.000000000000000000e+00,0.000000000000000000e+00,0.000000000000000000e+00,0.000000000000000000e+00,-1.487201038991109669e+00,-2.042016331349508107e+00,-2.121713940297262013e+00,1.022136807441711426e+00,-1.698725048695699513e+00,-3.141593043004171193e+00,0.000000000000000000e+00,0.000000000000000000e+00,0.000000000000000000e+00,0.000000000000000000e+00,0.000000000000000000e+00,0.000000000000000000e+00
1.471024751663208008e+00,-1.111218161025602086e-01,-4.958861022244165917e-01,3.000007465827051467e-01,4.869165512838308923e-02,2.199032878840398997e+00,2.199034893206621710e+00,1.010464843270004499e-02,-2.085103302824448720e-03,2.946858576761969168e-08,-4.245397054044449482e-07,-3.080484223133064647e-08,1.429318683222149944e-02,-1.487124745045797169e+00,-2.042015854512349904e+00,-2.121714893971578419e+00,1.022137165069580078e+00,-1.698745552693502248e+00,-3.141593043004171193e+00,1.943759992718696594e-02,9.624892118154093623e-05,-1.856104790931567550e-04,8.978718688013032079e-05,-5.144413094967603683e-03,0.000000000000000000e+00
1.480573654174804688e+00,-1.110071019168645118e-01,-4.959098753181776509e-01,3.000007268911905611e-01,4.851410241688646624e-02,2.199116380093174339e+00,2.199118394571987434e+00,1.994648951056918890e-02,-4.120434865270050998e-03,6.184079264440791355e-08,-8.617489745855030886e-07,-6.309671741810502324e-08,2.834910061210809545e-02,-1.486903969441549123e+00,-2.042014900838033498e+00,-2.121716801320211232e+00,1.022138118743896484e+00,-1.698803249989644826e+00,-3.141593043004171193e+00,3.838816657662391663e-02,1.825477083912119269e-04,-3.519953170325607061e-04,1.703116140561178327e-04,-1.003906596451997757e-02,0.000000000000000000e+00
1.489022731781005859e+00,-1.108156246942098994e-01,-4.959493852617217757e-01,3.000008080314290337e-01,4.821708549314118741e-02,2.199256269724345181e+00,2.199257762875605149e+00,2.995347861951698498e-02,-6.189315508808256733e-03,9.404743823098885826e-08,-1.308648159348877996e-06,-1.001882090868046121e-07,4.276871215552420502e-02,-1.486535374318258107e+00,-2.042012993489400685e+00,-2.121720139180318654e+00,1.022139787673950195e+00,-1.698899094258443654e+00,-3.141593043004171193e+00,5.767276138067245483e-02,2.631310780998319387e-04,-5.073419888503849506e-04,2.455233479849994183e-04,-1.490404922515153885e-02,0.000000000000000000e+00
1.497393369674682617e+00,-1.105429982346387008e-01,-4.960057835413396177e-01,3.000008793252185724e-01,4.779227856832651833e-02,2.199456180273419381e+00,2.199457152124956849e+00,4.052515754025728945e-02,-8.368708138571262847e-03,1.168414822434554491e-07,-1.762268370576596166e-06,-1.407104549010674022e-07,5.812061019241979154e-02,-1.486010376607076466e+00,-2.042010609303609669e+00,-2.121724430714742482e+00,1.022141933441162109e+00,-1.699034039174215138e+00,-3.141593043004171193e+00,7.805857807397842407e-02,3.415092069189995527e-04,-6.584599614143371582e-04,3.187186084687709808e-04,-1.993796788156032562e-02,0.000000000000000000e+00
1.505608320236206055e+00,-1.101817483033470102e-01,-4.960803817248437553e-01,3.000008311498801872e-01,4.722511136493600520e-02,2.199722534374582761e+00,2.199723767304433864e+00,5.204932308064530444e-02,-1.074736972170247003e-02,1.430955902589873858e-07,-2.290179144748206069e-06,-1.818161966824728566e-07,7.519616372883686228e-02,-1.485314194356099904e+00,-2.042007748280660451e+00,-2.121730152760640919e+00,1.022144675254821777e+00,-1.699209515248433888e+00,-3.141593043004171193e+00,1.003251895308494568e-01,4.079426580574363470e-04,-7.864803774282336235e-04,3.808350593317300081e-04,-2.512902580201625824e-02,0.000000000000000000e+00
1.514329195022583008e+00,-1.097210159741264374e-01,-4.961754981633841877e-01,3.000007731272563150e-01,4.649725451202021964e-02,2.200064186999599603e+00,2.200065681136107898e+00,6.433713620602544980e-02,-1.326751222345710392e-02,1.623591483674340904e-07,-2.839216271228252623e-06,-2.246702693662593848e-07,9.358659386635498345e-02,-1.484425846730367482e+00,-2.042004410420553029e+00,-2.121736828480855763e+00,1.022147893905639648e+00,-1.699429814015523732e+00,-3.141593043004171193e+00,1.240851879119873047e-01,4.682347062043845654e-04,-9.026595507748425007e-04,4.372728581074625254e-04,-3.049859404563903809e-02,0.000000000000000000e+00
1.522407293319702148e+00,-1.091564952705693925e-01,-4.962917138865773903e-01,3.000009364562599701e-01,4.559914837552225819e-02,2.200485944184296550e+00,2.200486656313286549e+00,7.674190135575481575e-02,-1.578487128351526922e-02,1.783564594780648758e-07,-3.419500853650433276e-06,-2.878532245661003574e-07,1.123310066759599102e-01,-1.483336750661031544e+00,-2.042000118886129201e+00,-2.121744457875387013e+00,1.022151589393615723e+00,-1.699694935475484669e+00,-3.141593043004171193e+00,1.480851918458938599e-01,5.186332273297011852e-04,-9.997365996241569519e-04,4.845349467359483242e-04,-3.575418516993522644e-02,0.000000000000000000e+00
1.541586637496948242e+00,-1.084931443786615601e-01,-4.964278094255780704e-01,3.000008696367666983e-01,4.453749129427456155e-02,2.200983417604297276e+00,2.200984651990974150e+00,8.914881499799169606e-02,-1.826129104848558254e-02,1.911205160643748737e-07,-3.986018956952507375e-06,-3.311362829114895591e-07,1.311526410281716737e-01,-1.482056442891256154e+00,-2.041995827351705373e+00,-2.121753040944234669e+00,1.022155642509460449e+00,-1.700001541768209279e+00,-3.141593043004171193e+00,1.720851957798004150e-01,5.642091855406761169e-04,-1.087517477571964264e-03,5.273079732432961464e-04,-4.093255475163459778e-02,0.000000000000000000e+00
1.549708604812622070e+00,-1.084931443786615601e-01,-4.964278094255780704e-01,3.000008696367666983e-01,4.453749129427456155e-02,2.200983417604297276e+00,2.200984651990974150e+00,0.000000000000000000e+00,0.000000000000000000e+00,0.000000000000000000e+00,0.000000000000000000e+00,0.000000000000000000e+00,0.000000000000000000e+00,-1.482056442891256154e+00,-2.041995827351705373e+00,-2.121753040944234669e+00,1.022155642509460449e+00,-1.700001541768209279e+00,-3.141593043004171193e+00,0.000000000000000000e+00,0.000000000000000000e+00,0.000000000000000000e+00,0.000000000000000000e+00,0.000000000000000000e+00,0.000000000000000000e+00
1.558655261993408203e+00,-1.084931443786615601e-01,-4.964278094255780704e-01,3.000008696367666983e-01,4.453749129427456155e-02,2.200983417604297276e+00,2.200984651990974150e+00,0.000000000000000000e+00,0.000000000000000000e+00,0.000000000000000000e+00,0.000000000000000000e+00,0.000000000000000000e+00,0.000000000000000000e+00,-1.482056442891256154e+00,-2.041995827351705373e+00,-2.121753040944234669e+00,1.022155642509460449e+00,-1.700001541768209279e+00,-3.141593043004171193e+00,0.000000000000000000e+00,0.000000000000000000e+00,0.000000000000000000e+00,0.000000000000000000e+00,0.000000000000000000e+00,0.000000000000000000e+00
1.566617965698242188e+00,-1.084483937382679647e-01,-4.964372767814743126e-01,3.000008587371947866e-01,4.446259007854283518e-02,2.201018631005409620e+00,2.201019604555855214e+00,1.139696140160404228e-02,-2.386656737275347998e-03,4.576791362626388329e-09,-5.247137244228949110e-07,-4.465661663913559660e-08,1.755351899191773257e-02,-1.481969658528463185e+00,-2.041995827351705373e+00,-2.121753040944234669e+00,1.022155761718750000e+00,-1.700019661580220998e+00,-3.141593043004171193e+00,2.211599983274936676e-02,2.892078009608667344e-05,-5.566396430367603898e-05,2.726979073486290872e-05,-4.562480840831995010e-03,0.000000000000000000e+00
1.576068162918090820e+00,-1.083135083130418314e-01,-4.964653858158541988e-01,3.000008706892243748e-01,4.423586407784835250e-02,2.201124617732043376e+00,2.201126113169054044e+00,2.315701778108035860e-02,-4.846446626110936448e-03,1.560655216311352328e-08,-1.085719654456721197e-06,-9.057851814968877933e-08,3.571753110736806958e-02,-1.481707874928609669e+00,-2.041995350514547169e+00,-2.121753994618551076e+00,1.022156000137329102e+00,-1.700073544179097951e+00,-3.141593043004171193e+00,4.494203999638557434e-02,5.584798054769635201e-05,-1.074458705261349678e-04,5.268736276775598526e-05,-9.224508889019489288e-03,0.000000000000000000e+00
1.584520816802978516e+00,-1.080815881522908806e-01,-4.965139240003721421e-01,3.000008499427908593e-01,4.384521954380080078e-02,2.201307701883917556e+00,2.201308936650519410e+00,3.539698550354004880e-02,-7.396340966358799784e-03,2.452263323174261875e-08,-1.673825391281999778e-06,-1.422125499373968138e-07,5.467029195279077963e-02,-1.481257740651265919e+00,-2.041994873677388966e+00,-2.121754948292867482e+00,1.022156596183776855e+00,-1.700165573750631154e+00,-3.141593043004171193e+00,6.870204210281372070e-02,8.103636355372145772e-05,-1.558692019898444414e-04,7.651267515029758215e-05,-1.403175015002489090e-02,0.000000000000000000e+00
1.592733144760131836e+00,-1.077489783711157445e-01,-4.965833949141132964e-01,3.000007304713435130e-01,4.328391388453310673e-02,2.201570137591659204e+00,2.201572155415829624e+00,4.775741167267429088e-02,-9.956105276416500616e-03,2.588474510097468642e-08,-2.263614645996883551e-06,-1.871435838923390398e-07,7.389993406832984224e-02,-1.480612103139058888e+00,-2.041994396840230763e+00,-2.121756378804342091e+00,1.022157192230224609e+00,-1.700296703969137013e+00,-3.141593043004171193e+00,9.270203858613967896e-02,1.011309432215057313e-04,-1.944820833159610629e-04,9.562241029925644398e-05,-1.880210451781749725e-02,0.000000000000000000e+00
1.600986242294311523e+00,-1.077489783711157445e-01,-4.965833949141132964e-01,3.000007304713435130e-01,4.328391388453310673e-02,2.201570137591659204e+00,2.201572155415829624e+00,0.000000000000000000e+00,0.000000000000000000e+00,0.000000000000000000e+00,0.000000000000000000e+00,0.000000000000000000e+00,0.000000000000000000e+00,-1.480612103139058888e+00,-2.041994396840230763e+00,-2.121756378804342091e+00,1.022157192230224609e+00,-1.700296703969137013e+00,-3.141593043004171193e+00,0.000000000000000000e+00,0.000000000000000000e+00,0.000000000000000000e+00,0.000000000000000000e+00,0.000000000000000000e+00,0.000000000000000000e+00
1.609797477722167969e+00,-1.077489783711157445e-01,-4.965833949141132964e-01,3.000007304713435130e-01,4.328391388453310673e-02,2.201570137591659204e+00,2.201572155415829624e+00,0.000000000000000000e+00,0.000000000000000000e+00,0.000000000000000000e+00,0.000000000000000000e+00,0.000000000000000000e+00,0.000000000000000000e+00,-1.480612103139058888e+00,-2.041994396840230763e+00,-2.121756378804342091e+00,1.022157192230224609e+00,-1.700296703969137013e+00,-3.141593043004171193e+00,0.000000000000000000e+00,0.000000000000000000e+00,0.000000000000000000e+00,0.000000000000000000e+00,0.000000000000000000e+00,0.000000000000000000e+00
1.618174791336059570e+00,-1.077489783711157445e-01,-4.965833949141132964e-01,3.000007304713435130e-01,4.328391388453310673e-02,2.201570137591659204e+00,2.201572155415829624e+00,0.000000000000000000e+00,0.000000000000000000e+00,0.000000000000000000e+00,0.000000000000000000e+00,0.000000000000000000e+00,0.000000000000000000e+00,-1.480612103139058888e+00,-2.041994396840230763e+00,-2.121756378804342091e+00,1.022157192230224609e+00,-1.700296703969137013e+00,-3.141593043004171193e+00,0.000000000000000000e+00,0.000000000000000000e+00,0.000000000000000000e+00,0.000000000000000000e+00,0.000000000000000000e+00,0.000000000000000000e+00
1.629700183868408203e+00,-1.077089768372949119e-01,-4.965918096081389788e-01,3.000007195721452469e-01,4.321573778819736561e-02,2.201602164000439288e+00,2.201603920950186755e+00,1.022593297156049706e-02,-2.141340204356438279e-03,8.786707936794629706e-10,-4.853554005803773827e-07,-4.075816643111752898e-08,1.597691606730340663e-02,-1.480534378682271779e+00,-2.041994396840230763e+00,-2.121756378804342091e+00,1.022157311439514160e+00,-1.700311962758199513e+00,-3.141593043004171193e+00,1.987200044095516205e-02,1.322002935921773314e-05,-2.537317959649953991e-05,1.264020374946994707e-05,-3.895084373652935028e-03,0.000000000000000000e+00
1.637800216674804688e+00,-1.076996272250008851e-01,-4.965937749898999831e-01,3.000007195721083875e-01,4.320012799413774224e-02,2.201609469733497360e+00,2.201611226692810952e+00,1.099168492864653797e-02,-2.301476914617915474e-03,9.447636332910933618e-10,-5.216981886916148003e-07,-4.381960882804201073e-08,1.717325532809026861e-02,-1.480516258870260060e+00,-2.041994396840230763e+00,-2.121756378804342091e+00,1.022157311439514160e+00,-1.700315777455465138e+00,-3.141593043004171193e+00,2.136000059545040131e-02,1.420993521605851129e-05,-2.727310311456676573e-05,1.358669214823748916e-05,-4.186745267361402512e-03,0.000000000000000000e+00
1.646515607833862305e+00,-1.076996272250008851e-01,-4.965937749898999831e-01,3.000007195721083875e-01,4.320012799413774224e-02,2.201609469733497360e+00,2.201611226692810952e+00,0.000000000000000000e+00,0.000000000000000000e+00,0.000000000000000000e+00,0.000000000000000000e+00,0.000000000000000000e+00,0.000000000000000000e+00,-1.480516258870260060e+00,-2.041994396840230763e+00,-2.121756378804342091e+00,1.022157311439514160e+00,-1.700315777455465138e+00,-3.141593043004171193e+00,0.000000000000000000e+00,0.000000000000000000e+00,0.000000000000000000e+00,0.000000000000000000e+00,0.000000000000000000e+00,0.000000000000000000e+00
1.656688690185546875e+00,-1.076996272250008851e-01,-4.965937749898999831e-01,3.000007195721083875e-01,4.320012799413774224e-02,2.201609469733497360e+00,2.201611226692810952e+00,0.000000000000000000e+00,0.000000000000000000e+00,0.000000000000000000e+00,0.000000000000000000e+00,0.000000000000000000e+00,0.000000000000000000e+00,-1.480516258870260060e+00,-2.041994396840230763e+00,-2.121756378804342091e+00,1.022157311439514160e+00,-1.700315777455465138e+00,-3.141593043004171193e+00,0.000000000000000000e+00,0.000000000000000000e+00,0.000000000000000000e+00,0.000000000000000000e+00,0.000000000000000000e+00,0.000000000000000000e+00
1.664984941482543945e+00,-1.076645866830563958e-01,-4.966010821059198554e-01,3.000009507720081681e-01,4.313971106440878112e-02,2.201638214298955898e+00,2.201638927610383600e+00,8.911963086015866481e-03,-1.874184195636403654e-03,-1.734323124341255929e-09,-4.239021895534343113e-07,-3.730300715859822289e-08,1.405434589833030705e-02,-1.480448071156637013e+00,-2.041993920003072560e+00,-2.121756378804342091e+00,1.022157311439514160e+00,-1.700328652058736623e+00,-3.141593043004171193e+00,1.733759976923465729e-02,4.349958089733263478e-06,-8.274377250927500427e-06,4.349958089733263478e-06,-3.283253870904445648e-03,0.000000000000000000e+00
1.673260450363159180e+00,-1.075668075732023055e-01,-4.966216857712886790e-01,3.000009507718660040e-01,4.297111454885302328e-02,2.201717110409914024e+00,2.201717823802935570e+00,1.717829890894630174e-02,-3.610207441985444164e-03,8.358370146495900800e-10,-8.331389807468202281e-07,-7.352171482162468159e-08,2.710600476712006143e-02,-1.480257813130513966e+00,-2.041993920003072560e+00,-2.121756378804342091e+00,1.022157311439514160e+00,-1.700364414845601857e+00,-3.141593043004171193e+00,3.342028707265853882e-02,7.484031812055036426e-06,-1.419119416823377833e-05,7.543536412413232028e-06,-6.314282305538654327e-03,0.000000000000000000e+00
1.681755542755126953e+00,-1.075439935963015403e-01,-4.966264862719871331e-01,3.000009507718318646e-01,4.293208589519028479e-02,2.201735372486538722e+00,2.201736085898422512e+00,1.806076158220278755e-02,-3.794887816549957250e-03,1.178879208924671576e-09,-8.770814690267842915e-07,-7.744196355855866939e-08,2.849938441067952077e-02,-1.480213467274801076e+00,-2.041993920003072560e+00,-2.121756378804342091e+00,1.022157311439514160e+00,-1.700372997914449513e+00,-3.141593043004171193e+00,3.513696044683456421e-02,7.803778316883835942e-06,-1.479389811720466241e-05,7.870610716054216027e-06,-6.637576036155223846e-03,0.000000000000000000e+00
1.690536737442016602e+00,-1.075439935963015403e-01,-4.966264862719871331e-01,3.000009507718318646e-01,4.293208589519028479e-02,2.201735372486538722e+00,2.201736085898422512e+00,0.000000000000000000e+00,0.000000000000000000e+00,0.000000000000000000e+00,0.000000000000000000e+00,0.000000000000000000e+00,0.000000000000000000e+00,-1.480213467274801076e+00,-2.041993920003072560e+00,-2.121756378804342091e+00,1.022157311439514160e+00,-1.700372997914449513e+00,-3.141593043004171193e+00,0.000000000000000000e+00,0.000000000000000000e+00,0.000000000000000000e+00,0.000000000000000000e+00,0.000000000000000000e+00,0.000000000000000000e+00
1.699572801589965820e+00,-1.075439935963015403e-01,-4.966264862719871331e-01,3.000009507718318646e-01,4.293208589519028479e-02,2.201735372486538722e+00,2.201736085898422512e+00,0.000000000000000000e+00,0.000000000000000000e+00,0.000000000000000000e+00,0.000000000000000000e+00,0.000000000000000000e+00,0.000000000000000000e+00,-1.480213467274801076e+00,-2.041993920003072560e+00,-2.121756378804342091e+00,1.022157311439514160e+00,-1.700372997914449513e+00,-3.141593043004171193e+00,0.000000000000000000e+00,0.000000000000000000e+00,0.000000000000000000e+00,0.000000000000000000e+00,0.000000000000000000e+00,0.000000000000000000e+00
1.708324193954467773e+00,-1.075123918107400156e-01,-4.966331279168527124e-01,3.000009398728517573e-01,4.287743016761376424e-02,2.201761062872963581e+00,2.201761515381132295e+00,8.088504559718528303e-03,-1.702718176116369735e-03,-6.040700247349904306e-10,-3.918216995904857188e-07,-3.498365193233240962e-08,1.281820260919629313e-02,-1.480151955281392873e+00,-2.041993920003072560e+00,-2.121756378804342091e+00,1.022157430648803711e+00,-1.700384442006246388e+00,-3.141593043004171193e+00,1.574400067329406738e-02,4.740731753827276407e-07,-7.968463933138991706e-07,7.161530675148242153e-07,-2.925798064097762108e-03,0.000000000000000000e+00
1.716823816299438477e+00,-1.074261765398649426e-01,-4.966512773448477081e-01,3.000009398727724874e-01,4.272807127499143875e-02,2.201830940744625043e+00,2.201831393320059060e+00,1.528734853227394462e-02,-3.215846031274444475e-03,-4.019444802596068931e-09,-7.318364152070711661e-07,-6.545273458219161730e-08,2.423183340579269235e-02,-1.479984108601705373e+00,-2.041993920003072560e+00,-2.121756378804342091e+00,1.022157430648803711e+00,-1.700415436421529591e+00,-3.141593043004171193e+00,2.975616045296192169e-02,5.260902753434493206e-07,-8.041331511776661500e-07,1.012799430100130849e-06,-5.524327047169208527e-03,0.000000000000000000e+00
1.725069999694824219e+00,-1.073984929636266072e-01,-4.966571007999133203e-01,3.000009398727468968e-01,4.268019120245480913e-02,2.201853339556909539e+00,2.201853792153899203e+00,1.653924423528500831e-02,-3.478281377355312096e-03,-4.619229745063875283e-09,-7.909384452905957600e-07,-7.078033951075137915e-08,2.621648367494342630e-02,-1.479930226002828419e+00,-2.041993920003072560e+00,-2.121756378804342091e+00,1.022157430648803711e+00,-1.700425450001851857e+00,-3.141593043004171193e+00,3.219264000654220581e-02,5.343676434677036013e-07,-8.039438057494407985e-07,1.063674289980554022e-06,-5.976156331598758698e-03,0.000000000000000000e+00
1.733102083206176758e+00,-1.073984929636266072e-01,-4.966571007999133203e-01,3.000009398727468968e-01,4.268019120245480913e-02,2.201853339556909539e+00,2.201853792153899203e+00,0.000000000000000000e+00,0.000000000000000000e+00,0.000000000000000000e+00,0.000000000000000000e+00,0.000000000000000000e+00,0.000000000000000000e+00,-1.479930226002828419e+00,-2.041993920003072560e+00,-2.121756378804342091e+00,1.022157430648803711e+00,-1.700425450001851857e+00,-3.141593043004171193e+00,0.000000000000000000e+00,0.000000000000000000e+00,0.000000000000000000e+00,0.000000000000000000e+00,0.000000000000000000e+00,0.000000000000000000e+00
1.744730949401855469e+00,-1.073984929636266072e-01,-4.966571007999133203e-01,3.000009398727468968e-01,4.268019120245480913e-02,2.201853339556909539e+00,2.201853792153899203e+00,0.000000000000000000e+00,0.000000000000000000e+00,0.000000000000000000e+00,0.000000000000000000e+00,0.000000000000000000e+00,0.000000000000000000e+00,-1.479930226002828419e+00,-2.041993920003072560e+00,-2.121756378804342091e+00,1.022157430648803711e+00,-1.700425450001851857e+00,-3.141593043004171193e+00,0.000000000000000000e+00,0.000000000000000000e+00,0.000000000000000000e+00,0.000000000000000000e+00,0.000000000000000000e+00,0.000000000000000000e+00
1.753080129623413086e+00,-1.073700546585201754e-01,-4.966630780192878292e-01,3.000009398727200849e-01,4.263126927566796703e-02,2.201876224766891266e+00,2.201876677385896208e+00,7.308895421697906777e-03,-1.537602975221282094e-03,-3.670094128452423639e-10,-3.511251210646558030e-07,-3.144544213964317843e-08,1.159276068210600766e-02,-1.479874912892476857e+00,-2.041993920003072560e+00,-2.121756378804342091e+00,1.022157430648803711e+00,-1.700435940419332326e+00,-3.141593043004171193e+00,1.422720029950141907e-02,-6.169272523948166054e-07,1.297950916523404885e-06,-3.284937406533572357e-07,-2.634439617395401001e-03,0.000000000000000000e+00
1.761007070541381836e+00,-1.072943697185425177e-01,-4.966789894872702948e-01,3.000009398726505294e-01,4.250011197294031179e-02,2.201937573947867044e+00,2.201938026625934963e+00,1.354145610799233242e-02,-2.847154555132560324e-03,-3.774819291916394197e-09,-6.492606055578476431e-07,-5.823908553469369068e-08,2.147395676001903966e-02,-1.479727570210592091e+00,-2.041993920003072560e+00,-2.121756378804342091e+00,1.022157430648803711e+00,-1.700463120137349904e+00,-3.141593043004171193e+00,2.635776065289974213e-02,-1.730974759084347170e-06,3.529262812662636861e-06,-1.146421482189907692e-06,-4.883803892880678177e-03,0.000000000000000000e+00
1.769721269607543945e+00,-1.071760643649140865e-01,-4.967038514399472748e-01,3.000009507713044532e-01,4.229504885855139840e-02,2.202033361103536979e+00,2.202034074823847831e+00,1.919401889365196859e-02,-4.031434062506905440e-03,-4.995661849233510729e-09,-9.255172942075585643e-07,-8.241271606904328374e-08,3.043046360835452088e-02,-1.479497257863179982e+00,-2.041993920003072560e+00,-2.121756378804342091e+00,1.022157311439514160e+00,-1.700505558644429982e+00,-3.141593043004171193e+00,3.735736384987831116e-02,-3.083933734160382301e-06,6.222478532436070964e-06,-2.209368403782718815e-06,-6.926900241523981094e-03,0.000000000000000000e+00
1.779018163681030273e+00,-1.070170298035271333e-01,-4.967371979319288866e-01,3.000009507710747481e-01,4.202019654736988824e-02,2.202161877004312984e+00,2.202162590857610791e+00,2.461904857660263471e-02,-5.163398722957492949e-03,-5.111698503911006278e-09,-1.188287109357589414e-06,-1.061823487597722575e-07,3.901944123208547083e-02,-1.479187790547506154e+00,-2.041993920003072560e+00,-2.121756378804342091e+00,1.022157311439514160e+00,-1.700563255940572560e+00,-3.141593043004171193e+00,4.791138693690299988e-02,-4.777179128723219037e-06,9.572274393576662987e-06,-3.602077185860252939e-06,-8.891945704817771912e-03,0.000000000000000000e+00
