ThomasAsmussen/golf_robot/log/run1_20251013_153451.csv
t,x,y,z,rx,ry,rz,vx,vy,vz,wx,wy,wz,q1,q2,q3,q4,q5,q6,dq1,dq2,dq3,dq4,dq5,dq6
4.397153854370117188e-03,-1.000000822680490037e-01,-5.000002094581326162e-01,3.000001472795442714e-01,-4.422814919258157490e-09,2.221441698759650141e+00,2.221440329442017081e+00,0.000000000000000000e+00,0.000000000000000000e+00,0.000000000000000000e+00,0.000000000000000000e+00,0.000000000000000000e+00,0.000000000000000000e+00,-1.461602036152974904e+00,-2.043482128773824513e+00,-2.118884865437642873e+00,1.020774960517883301e+00,-1.679991070424215138e+00,-3.141593043004171193e+00,0.000000000000000000e+00,0.000000000000000000e+00,0.000000000000000000e+00,0.000000000000000000e+00,0.000000000000000000e+00,0.000000000000000000e+00
1.310753822326660156e-02,-1.000000822680490037e-01,-5.000002094581326162e-01,3.000001472795442714e-01,-4.422814919258157490e-09,2.221441698759650141e+00,2.221440329442017081e+00,0.000000000000000000e+00,0.000000000000000000e+00,0.000000000000000000e+00,0.000000000000000000e+00,0.000000000000000000e+00,0.000000000000000000e+00,-1.461602036152974904e+00,-2.043482128773824513e+00,-2.118884865437642873e+00,1.020774960517883301e+00,-1.679991070424215138e+00,-3.141593043004171193e+00,0.000000000000000000e+00,0.000000000000000000e+00,0.000000000000000000e+00,0.000000000000000000e+00,0.000000000000000000e+00,0.000000000000000000e+00
2.142620086669921875e-02,-1.000000822680490037e-01,-5.000002094581326162e-01,3.000001472795442714e-01,-4.422814919258157490e-09,2.221441698759650141e+00,2.221440329442017081e+00,0.000000000000000000e+00,0.000000000000000000e+00,0.000000000000000000e+00,0.000000000000000000e+00,0.000000000000000000e+00,0.000000000000000000e+00,-1.461602036152974904e+00,-2.043482128773824513e+00,-2.118884865437642873e+00,1.020774960517883301e+00,-1.679991070424215138e+00,-3.141593043004171193e+00,0.000000000000000000e+00,0.000000000000000000e+00,0.000000000000000000e+00,0.000000000000000000e+00,0.000000000000000000e+00,0.000000000000000000e+00
2.963948249816894531e-02,-1.000000822680490037e-01,-5.000002094581326162e-01,3.000001472795442714e-01,-4.422814919258157490e-09,2.221441698759650141e+00,2.221440329442017081e+00,0.000000000000000000e+00,0.000000000000000000e+00,0.000000000000000000e+00,0.000000000000000000e+00,0.000000000000000000e+00,0.000000000000000000e+00,-1.461602036152974904e+00,-2.043482128773824513e+00,-2.118884865437642873e+00,1.020774960517883301e+00,-1.679991070424215138e+00,-3.141593043004171193e+00,0.000000000000000000e+00,0.000000000000000000e+00,0.000000000000000000e+00,0.000000000000000000e+00,0.000000000000000000e+00,0.000000000000000000e+00
3.833174705505371094e-02,-1.000000822680490037e-01,-5.000002094581326162e-01,3.000001472795442714e-01,-4.422814919258157490e-09,2.221441698759650141e+00,2.221440329442017081e+00,0.000000000000000000e+00,0.000000000000000000e+00,0.000000000000000000e+00,0.000000000000000000e+00,0.000000000000000000e+00,0.000000000000000000e+00,-1.461602036152974904e+00,-2.043482128773824513e+00,-2.118884865437642873e+00,1.020774960517883301e+00,-1.679991070424215138e+00,-3.141593043004171193e+00,0.000000000000000000e+00,0.000000000000000000e+00,0.000000000000000000e+00,0.000000000000000000e+00,0.000000000000000000e+00,0.000000000000000000e+00
4.676508903503417969e-02,-1.000000822680490037e-01,-5.000002094581326162e-01,3.000001472795442714e-01,-4.422814919258157490e-09,2.221441698759650141e+00,2.221440329442017081e+00,0.000000000000000000e+00,0.000000000000000000e+00,0.000000000000000000e+00,0.000000000000000000e+00,0.000000000000000000e+00,0.000000000000000000e+00,-1.461602036152974904e+00,-2.043482128773824513e+00,-2.118884865437642873e+00,1.020774960517883301e+00,-1.679991070424215138e+00,-3.141593043004171193e+00,0.000000000000000000e+00,0.000000000000000000e+00,0.000000000000000000e+00,0.000000000000000000e+00,0.000000000000000000e+00,0.000000000000000000e+00
5.513501167297363281e-02,-1.000000822680490037e-01,-5.000002094581326162e-01,3.000001472795442714e-01,-4.422814919258157490e-09,2.221441698759650141e+00,2.221440329442017081e+00,0.000000000000000000e+00,0.000000000000000000e+00,0.000000000000000000e+00,0.000000000000000000e+00,0.000000000000000000e+00,0.000000000000000000e+00,-1.461602036152974904e+00,-2.043482128773824513e+00,-2.118884865437642873e+00,1.020774960517883301e+00,-1.679991070424215138e+00,-3.141593043004171193e+00,0.000000000000000000e+00,0.000000000000000000e+00,0.000000000000000000e+00,0.000000000000000000e+00,0.000000000000000000e+00,0.000000000000000000e+00
6.361699104309082031e-02,-1.000000822680490037e-01,-5.000002094581326162e-01,3.000001472795442714e-01,-4.422814919258157490e-09,2.221441698759650141e+00,2.221440329442017081e+00,0.000000000000000000e+00,0.000000000000000000e+00,0.000000000000000000e+00,0.000000000000000000e+00,0.000000000000000000e+00,0.000000000000000000e+00,-1.461602036152974904e+00,-2.043482128773824513e+00,-2.118884865437642873e+00,1.020774960517883301e+00,-1.679991070424215138e+00,-3.141593043004171193e+00,0.000000000000000000e+00,0.000000000000000000e+00,0.000000000000000000e+00,0.000000000000000000e+00,0.000000000000000000e+00,0.000000000000000000e+00
7.342696189880371094e-02,-1.000000822680490037e-01,-5.000002094581326162e-01,3.000001472795442714e-01,-4.422814919258157490e-09,2.221441698759650141e+00,2.221440329442017081e+00,0.000000000000000000e+00,0.000000000000000000e+00,0.000000000000000000e+00,0.000000000000000000e+00,0.000000000000000000e+00,0.000000000000000000e+00,-1.461602036152974904e+00,-2.043482128773824513e+00,-2.118884865437642873e+00,1.020774960517883301e+00,-1.679991070424215138e+00,-3.141593043004171193e+00,0.000000000000000000e+00,0.000000000000000000e+00,0.000000000000000000e+00,0.000000000000000000e+00,0.000000000000000000e+00,0.000000000000000000e+00
8.152246475219726562e-02,-1.000000822680490037e-01,-5.000002094581326162e-01,3.000001472795442714e-01,-4.422814919258157490e-09,2.221441698759650141e+00,2.221440329442017081e+00,0.000000000000000000e+00,0.000000000000000000e+00,0.000000000000000000e+00,0.000000000000000000e+00,0.000000000000000000e+00,0.000000000000000000e+00,-1.461602036152974904e+00,-2.043482128773824513e+00,-2.118884865437642873e+00,1.020774960517883301e+00,-1.679991070424215138e+00,-3.141593043004171193e+00,0.000000000000000000e+00,0.000000000000000000e+00,0.000000000000000000e+00,0.000000000000000000e+00,0.000000000000000000e+00,0.000000000000000000e+00
8.998584747314453125e-02,-1.000000822680490037e-01,-5.000002094581326162e-01,3.000001472795442714e-01,-4.422814919258157490e-09,2.221441698759650141e+00,2.221440329442017081e+00,0.000000000000000000e+00,0.000000000000000000e+00,0.000000000000000000e+00,0.000000000000000000e+00,0.000000000000000000e+00,0.000000000000000000e+00,-1.461602036152974904e+00,-2.043482128773824513e+00,-2.118884865437642873e+00,1.020774960517883301e+00,-1.679991070424215138e+00,-3.141593043004171193e+00,0.000000000000000000e+00,0.000000000000000000e+00,0.000000000000000000e+00,0.000000000000000000e+00,0.000000000000000000e+00,0.000000000000000000e+00
9.788632392883300781e-02,-1.000000822680490037e-01,-5.000002094581326162e-01,3.000001472795442714e-01,-4.422814919258157490e-09,2.221441698759650141e+00,2.221440329442017081e+00,0.000000000000000000e+00,0.000000000000000000e+00,0.000000000000000000e+00,0.000000000000000000e+00,0.000000000000000000e+00,0.000000000000000000e+00,-1.461602036152974904e+00,-2.043482128773824513e+00,-2.118884865437642873e+00,1.020774960517883301e+00,-1.679991070424215138e+00,-3.141593043004171193e+00,0.000000000000000000e+00,0.000000000000000000e+00,0.000000000000000000e+00,0.000000000000000000e+00,0.000000000000000000e+00,0.000000000000000000e+00
1.062045097351074219e-01,-1.000000822680490037e-01,-5.000002094581326162e-01,3.000001472795442714e-01,-4.422814919258157490e-09,2.221441698759650141e+00,2.221440329442017081e+00,0.000000000000000000e+00,0.000000000000000000e+00,0.000000000000000000e+00,0.000000000000000000e+00,0.000000000000000000e+00,0.000000000000000000e+00,-1.461602036152974904e+00,-2.043482128773824513e+00,-2.118884865437642873e+00,1.020774960517883301e+00,-1.679991070424215138e+00,-3.141593043004171193e+00,0.000000000000000000e+00,0.000000000000000000e+00,0.000000000000000000e+00,0.000000000000000000e+00,0.000000000000000000e+00,0.000000000000000000e+00
1.143794059753417969e-01,-1.000000822680490037e-01,-5.000002094581326162e-01,3.000001472795442714e-01,-4.422814919258157490e-09,2.221441698759650141e+00,2.221440329442017081e+00,0.000000000000000000e+00,0.000000000000000000e+00,0.000000000000000000e+00,0.000000000000000000e+00,0.000000000000000000e+00,0.000000000000000000e+00,-1.461602036152974904e+00,-2.043482128773824513e+00,-2.118884865437642873e+00,1.020774960517883301e+00,-1.679991070424215138e+00,-3.141593043004171193e+00,0.000000000000000000e+00,0.000000000000000000e+00,0.000000000000000000e+00,0.000000000000000000e+00,0.000000000000000000e+00,0.000000000000000000e+00
1.228973865509033203e-01,-1.000000822680490037e-01,-5.000002094581326162e-01,3.000001472795442714e-01,-4.422814919258157490e-09,2.221441698759650141e+00,2.221440329442017081e+00,0.000000000000000000e+00,0.000000000000000000e+00,0.000000000000000000e+00,0.000000000000000000e+00,0.000000000000000000e+00,0.000000000000000000e+00,-1.461602036152974904e+00,-2.043482128773824513e+00,-2.118884865437642873e+00,1.020774960517883301e+00,-1.679991070424215138e+00,-3.141593043004171193e+00,0.000000000000000000e+00,0.000000000000000000e+00,0.000000000000000000e+00,0.000000000000000000e+00,0.000000000000000000e+00,0.000000000000000000e+00
1.316511631011962891e-01,-1.000000822680490037e-01,-5.000002094581326162e-01,3.000001472795442714e-01,-4.422814919258157490e-09,2.221441698759650141e+00,2.221440329442017081e+00,0.000000000000000000e+00,0.000000000000000000e+00,0.000000000000000000e+00,0.000000000000000000e+00,0.000000000000000000e+00,0.000000000000000000e+00,-1.461602036152974904e+00,-2.043482128773824513e+00,-2.118884865437642873e+00,1.020774960517883301e+00,-1.679991070424215138e+00,-3.141593043004171193e+00,0.000000000000000000e+00,0.000000000000000000e+00,0.000000000000000000e+00,0.000000000000000000e+00,0.000000000000000000e+00,0.000000000000000000e+00
1.397483348846435547e-01,-1.000000822680490037e-01,-5.000002094581326162e-01,3.000001472795442714e-01,-4.422814919258157490e-09,2.221441698759650141e+00,2.221440329442017081e+00,0.000000000000000000e+00,0.000000000000000000e+00,0.000000000000000000e+00,0.000000000000000000e+00,0.000000000000000000e+00,0.000000000000000000e+00,-1.461602036152974904e+00,-2.043482128773824513e+00,-2.118884865437642873e+00,1.020774960517883301e+00,-1.679991070424215138e+00,-3.141593043004171193e+00,0.000000000000000000e+00,0.000000000000000000e+00,0.000000000000000000e+00,0.000000000000000000e+00,0.000000000000000000e+00,0.000000000000000000e+00
1.481897830963134766e-01,-1.000000822680490037e-01,-5.000002094581326162e-01,3.000001472795442714e-01,-4.422814919258157490e-09,2.221441698759650141e+00,2.221440329442017081e+00,0.000000000000000000e+00,0.000000000000000000e+00,0.000000000000000000e+00,0.000000000000000000e+00,0.000000000000000000e+00,0.000000000000000000e+00,-1.461602036152974904e+00,-2.043482128773824513e+00,-2.118884865437642873e+00,1.020774960517883301e+00,-1.679991070424215138e+00,-3.141593043004171193e+00,0.000000000000000000e+00,0.000000000000000000e+00,0.000000000000000000e+00,0.000000000000000000e+00,0.000000000000000000e+00,0.000000000000000000e+00
1.563425064086914062e-01,-1.000000822680490037e-01,-5.000002094581326162e-01,3.000001472795442714e-01,-4.422814919258157490e-09,2.221441698759650141e+00,2.221440329442017081e+00,0.000000000000000000e+00,0.000000000000000000e+00,0.000000000000000000e+00,0.000000000000000000e+00,0.000000000000000000e+00,0.000000000000000000e+00,-1.461602036152974904e+00,-2.043482128773824513e+00,-2.118884865437642873e+00,1.020774960517883301e+00,-1.679991070424215138e+00,-3.141593043004171193e+00,0.000000000000000000e+00,0.000000000000000000e+00,0.000000000000000000e+00,0.000000000000000000e+00,0.000000000000000000e+00,0.000000000000000000e+00
1.646132469177246094e-01,-1.000000822680490037e-01,-5.000002094581326162e-01,3.000001472795442714e-01,-4.422814919258157490e-09,2.221441698759650141e+00,2.221440329442017081e+00,0.000000000000000000e+00,0.000000000000000000e+00,0.000000000000000000e+00,0.000000000000000000e+00,0.000000000000000000e+00,0.000000000000000000e+00,-1.461602036152974904e+00,-2.043482128773824513e+00,-2.118884865437642873e+00,1.020774960517883301e+00,-1.679991070424215138e+00,-3.141593043004171193e+00,0.000000000000000000e+00,0.000000000000000000e+00,0.000000000000000000e+00,0.000000000000000000e+00,0.000000000000000000e+00,0.000000000000000000e+00
1.727612018585205078e-01,-1.000000822680490037e-01,-5.000002094581326162e-01,3.000001472795442714e-01,-4.422814919258157490e-09,2.221441698759650141e+00,2.221440329442017081e+00,0.000000000000000000e+00,0.000000000000000000e+00,0.000000000000000000e+00,0.000000000000000000e+00,0.000000000000000000e+00,0.000000000000000000e+00,-1.461602036152974904e+00,-2.043482128773824513e+00,-2.118884865437642873e+00,1.020774960517883301e+00,-1.679991070424215138e+00,-3.141593043004171193e+00,0.000000000000000000e+00,0.000000000000000000e+00,0.000000000000000000e+00,0.000000000000000000e+00,0.000000000000000000e+00,0.000000000000000000e+00
1.813666820526123047e-01,-1.000000822680490037e-01,-5.000002094581326162e-01,3.000001472795442714e-01,-4.422814919258157490e-09,2.221441698759650141e+00,2.221440329442017081e+00,0.000000000000000000e+00,0.000000000000000000e+00,0.000000000000000000e+00,0.000000000000000000e+00,0.000000000000000000e+00,0.000000000000000000e+00,-1.461602036152974904e+00,-2.043482128773824513e+00,-2.118884865437642873e+00,1.020774960517883301e+00,-1.679991070424215138e+00,-3.141593043004171193e+00,0.000000000000000000e+00,0.000000000000000000e+00,0.000000000000000000e+00,0.000000000000000000e+00,0.000000000000000000e+00,0.000000000000000000e+00
1.898155212402343750e-01,-1.000000822680490037e-01,-5.000002094581326162e-01,3.000001472795442714e-01,-4.422814919258157490e-09,2.221441698759650141e+00,2.221440329442017081e+00,0.000000000000000000e+00,0.000000000000000000e+00,0.000000000000000000e+00,0.000000000000000000e+00,0.000000000000000000e+00,0.000000000000000000e+00,-1.461602036152974904e+00,-2.043482128773824513e+00,-2.118884865437642873e+00,1.020774960517883301e+00,-1.679991070424215138e+00,-3.141593043004171193e+00,0.000000000000000000e+00,0.000000000000000000e+00,0.000000000000000000e+00,0.000000000000000000e+00,0.000000000000000000e+00,0.000000000000000000e+00
1.988565921783447266e-01,-1.000000822680490037e-01,-5.000002094581326162e-01,3.000001472795442714e-01,-4.422814919258157490e-09,2.221441698759650141e+00,2.221440329442017081e+00,0.000000000000000000e+00,0.000000000000000000e+00,0.000000000000000000e+00,0.000000000000000000e+00,0.000000000000000000e+00,0.000000000000000000e+00,-1.461602036152974904e+00,-2.043482128773824513e+00,-2.118884865437642873e+00,1.020774960517883301e+00,-1.679991070424215138e+00,-3.141593043004171193e+00,0.000000000000000000e+00,0.000000000000000000e+00,0.000000000000000000e+00,0.000000000000000000e+00,0.000000000000000000e+00,0.000000000000000000e+00
2.070882320404052734e-01,-1.000000822680490037e-01,-5.000002094581326162e-01,3.000001472795442714e-01,-4.422814919258157490e-09,2.221441698759650141e+00,2.221440329442017081e+00,0.000000000000000000e+00,0.000000000000000000e+00,0.000000000000000000e+00,0.000000000000000000e+00,0.000000000000000000e+00,0.000000000000000000e+00,-1.461602036152974904e+00,-2.043482128773824513e+00,-2.118884865437642873e+00,1.020774960517883301e+00,-1.679991070424215138e+00,-3.141593043004171193e+00,0.000000000000000000e+00,0.000000000000000000e+00,0.000000000000000000e+00,0.000000000000000000e+00,0.000000000000000000e+00,0.000000000000000000e+00
2.159276008605957031e-01,-1.000000822680490037e-01,-5.000002094581326162e-01,3.000001472795442714e-01,-4.422814919258157490e-09,2.221441698759650141e+00,2.221440329442017081e+00,0.000000000000000000e+00,0.000000000000000000e+00,0.000000000000000000e+00,0.000000000000000000e+00,0.000000000000000000e+00,0.000000000000000000e+00,-1.461602036152974904e+00,-2.043482128773824513e+00,-2.118884865437642873e+00,1.020774960517883301e+00,-1.679991070424215138e+00,-3.141593043004171193e+00,0.000000000000000000e+00,0.000000000000000000e+00,0.000000000000000000e+00,0.000000000000000000e+00,0.000000000000000000e+00,0.000000000000000000e+00
2.240092754364013672e-01,-1.000000822680490037e-01,-5.000002094581326162e-01,3.000001472795442714e-01,-4.422814919258157490e-09,2.221441698759650141e+00,2.221440329442017081e+00,0.000000000000000000e+00,0.000000000000000000e+00,0.000000000000000000e+00,0.000000000000000000e+00,0.000000000000000000e+00,0.000000000000000000e+00,-1.461602036152974904e+00,-2.043482128773824513e+00,-2.118884865437642873e+00,1.020774960517883301e+00,-1.679991070424215138e+00,-3.141593043004171193e+00,0.000000000000000000e+00,0.000000000000000000e+00,0.000000000000000000e+00,0.000000000000000000e+00,0.000000000000000000e+00,0.000000000000000000e+00
2.340421676635742188e-01,-1.000000822680490037e-01,-5.000002094581326162e-01,3.000001472795442714e-01,-4.422814919258157490e-09,2.221441698759650141e+00,2.221440329442017081e+00,0.000000000000000000e+00,0.000000000000000000e+00,0.000000000000000000e+00,0.000000000000000000e+00,0.000000000000000000e+00,0.000000000000000000e+00,-1.461602036152974904e+00,-2.043482128773824513e+00,-2.118884865437642873e+00,1.020774960517883301e+00,-1.679991070424215138e+00,-3.141593043004171193e+00,0.000000000000000000e+00,0.000000000000000000e+00,0.000000000000000000e+00,0.000000000000000000e+00,0.000000000000000000e+00,0.000000000000000000e+00
2.419459819793701172e-01,-1.000000822680490037e-01,-5.000002094581326162e-01,3.000001472795442714e-01,-4.422814919258157490e-09,2.221441698759650141e+00,2.221440329442017081e+00,0.000000000000000000e+00,0.000000000000000000e+00,0.000000000000000000e+00,0.000000000000000000e+00,0.000000000000000000e+00,0.000000000000000000e+00,-1.461602036152974904e+00,-2.043482128773824513e+00,-2.118884865437642873e+00,1.020774960517883301e+00,-1.679991070424215138e+00,-3.141593043004171193e+00,0.000000000000000000e+00,0.000000000000000000e+00,0.000000000000000000e+00,0.000000000000000000e+00,0.000000000000000000e+00,0.000000000000000000e+00
2.507069110870361328e-01,-1.000000822680490037e-01,-5.000002094581326162e-01,3.000001472795442714e-01,-4.422814919258157490e-09,2.221441698759650141e+00,2.221440329442017081e+00,0.000000000000000000e+00,0.000000000000000000e+00,0.000000000000000000e+00,0.000000000000000000e+00,0.000000000000000000e+00,0.000000000000000000e+00,-1.461602036152974904e+00,-2.043482128773824513e+00,-2.118884865437642873e+00,1.020774960517883301e+00,-1.679991070424215138e+00,-3.141593043004171193e+00,0.000000000000000000e+00,0.000000000000000000e+00,0.000000000000000000e+00,0.000000000000000000e+00,0.000000000000000000e+00,0.000000000000000000e+00
2.592811584472656250e-01,-1.000000822680490037e-01,-5.000002094581326162e-01,3.000001472795442714e-01,-4.422814919258157490e-09,2.221441698759650141e+00,2.221440329442017081e+00,-9.682364645753955258e-06,2.100603532718808627e-06,-3.608704406039382462e-09,-4.583815845726030227e-14,4.181155542975069071e-13,-1.852146664305122755e-05,-1.461602036152974904e+00,-2.043482128773824513e+00,-2.118884865437642873e+00,1.020774960517883301e+00,-1.679991070424215138e+00,-3.141593043004171193e+00,-1.920000067912042141e-05,1.759162273629044648e-07,-3.518324547258089297e-07,1.759162273629044648e-07,6.785340360693226103e-07,0.000000000000000000e+00
2.676138877868652344e-01,-1.000000822680490037e-01,-5.000002094581326162e-01,3.000001472795442714e-01,-4.422814919258157490e-09,2.221441698759650141e+00,2.221440329442017081e+00,-2.962848425297758974e-05,6.428081578304998994e-06,-1.092379536078619740e-09,-1.970798169573964177e-13,1.276068271543660998e-12,-5.667109508067409441e-05,-1.461602036152974904e+00,-2.043482128773824513e+00,-2.118884865437642873e+00,1.020774960517883301e+00,-1.679991070424215138e+00,-3.141593043004171193e+00,-5.875200076843611896e-05,5.547794899030122906e-07,-1.075166778718994465e-06,5.203873456594010349e-07,2.080905687762424350e-06,0.000000000000000000e+00
2.763187885284423828e-01,-1.000003206867166317e-01,-5.000001617743204951e-01,3.000001472795442714e-01,5.252101020741351578e-07,2.221441460341464946e+00,2.221440091023129337e+00,-6.045885292865544100e-05,1.309879170385686015e-05,-6.703382087960404500e-10,-1.706902276812341946e-13,2.600187264297340773e-12,-1.157005854111056660e-04,-1.461602512990133107e+00,-2.043482128773824513e+00,-2.118884865437642873e+00,1.020774960517883301e+00,-1.679991070424215138e+00,-3.141593043004171193e+00,-1.199001635541208088e-04,1.115033796850184444e-06,-2.155845322704408318e-06,1.040811412167386152e-06,4.199578143015969545e-06,0.000000000000000000e+00
2.865784168243408203e-01,-1.000010359425830275e-01,-5.000000187222030101e-01,3.000001472795442714e-01,2.114025330382760833e-06,2.221440745126016747e+00,2.221439375805128513e+00,-1.627188839716099775e-04,3.525324789584069170e-05,-1.712326809845451928e-09,-7.633547250312439153e-13,6.963109217363337076e-12,-3.114000128334759067e-04,-1.461603943501607716e+00,-2.043482128773824513e+00,-2.118884865437642873e+00,1.020774960517883301e+00,-1.679991070424215138e+00,-3.141593043004171193e+00,-3.227000124752521515e-04,3.000000106112565845e-06,-5.800000053568510339e-06,2.799999947455944493e-06,1.129999964177841321e-05,0.000000000000000000e+00
2.947726249694824219e-01,-1.000017527012709850e-01,-4.999998619586945026e-01,3.000001363538995491e-01,3.688609846818783621e-06,2.221440154962788238e+00,2.221438522398052839e+00,-1.647338235939822077e-04,3.572724587678673678e-05,-4.592175862649492921e-09,-9.059299221925434627e-13,8.263749590687630122e-12,-3.154762662234164941e-04,-1.461605374013082326e+00,-2.043482128773824513e+00,-2.118884865437642873e+00,1.020775079727172852e+00,-1.679991070424215138e+00,-3.141593043004171193e+00,-3.267239953856915236e-04,3.067135139644960873e-06,-5.939293259871192276e-06,2.872158120226231404e-06,1.124772916227811947e-05,0.000000000000000000e+00
3.030197620391845703e-01,-1.000027503395281847e-01,-4.999996712193388593e-01,3.000001363538959964e-01,5.277380809861064705e-06,2.221439439704279817e+00,2.221437807140218101e+00,-2.263435366620385365e-04,4.910783995224499436e-05,3.800192244654042728e-09,3.388905296475947243e-08,3.726469645131501685e-09,-4.336354231781996537e-04,-1.461607281361715138e+00,-2.043482128773824513e+00,-2.118884865437642873e+00,1.020775079727172852e+00,-1.679990593587056935e+00,-3.141593043004171193e+00,-4.489413695409893990e-04,4.245590389473363757e-06,-8.197782335628289729e-06,3.918098627764265984e-06,1.530594636278692633e-05,0.000000000000000000e+00
3.115236759185791016e-01,-1.000039617708443490e-01,-4.999992563740314755e-01,3.000000374132487102e-01,7.983323415111667101e-06,2.221437747110922789e+00,2.221437167508384825e+00,-3.072096947051847823e-04,6.669128381530344180e-05,1.209986984412102872e-10,2.400271171086812657e-08,2.636577404236889415e-09,-5.892030712857333416e-04,-1.461609665547506154e+00,-2.043482128773824513e+00,-2.118885342274801076e+00,1.020775079727172852e+00,-1.679990593587056935e+00,-3.141593043004171193e+00,-6.094306008890271187e-04,5.783472715847892687e-06,-1.117734336730791256e-05,5.369723567127948627e-06,2.022752960328944027e-05,0.000000000000000000e+00
3.195006847381591797e-01,-1.000053922797821404e-01,-4.999989702583553797e-01,3.000000374132487102e-01,1.116112813555824707e-05,2.221436316587926729e+00,2.221435736981034914e+00,-4.037003749087019031e-04,8.766146988774779769e-05,2.016729932325524223e-09,2.370600840106971329e-08,2.605579980850490899e-09,-7.746184837742435677e-04,-1.461612526570455373e+00,-2.043482128773824513e+00,-2.118885342274801076e+00,1.020775079727172852e+00,-1.679990593587056935e+00,-3.141593043004171193e+00,-8.008974837139248848e-04,7.620297765242867172e-06,-1.471860650781309232e-05,7.074459972500335425e-06,2.627899993967730552e-05,0.000000000000000000e+00
3.279659748077392578e-01,-1.000075470147186452e-01,-4.999984592176418552e-01,3.000002692153937445e-01,1.587006374135868327e-05,2.221434671302617403e+00,2.221433038745193489e+00,-5.162179354935535203e-04,1.121300997712986028e-04,3.407932174231955468e-09,4.500872401814806563e-08,4.958374636474154325e-09,-9.909256077662573822e-04,-1.461616818104879201e+00,-2.043481651936666310e+00,-2.118885342274801076e+00,1.020775079727172852e+00,-1.679990593587056935e+00,-3.141593043004171193e+00,-1.024179509840905666e-03,9.773086276254616678e-06,-1.887845792225562036e-05,9.060090633283834904e-06,3.325390207464806736e-05,0.000000000000000000e+00
3.362452983856201172e-01,-1.000104534943908607e-01,-4.999978732504004597e-01,3.000002582897425274e-01,2.168157891906139924e-05,2.221432173798839393e+00,2.221430278001636616e+00,-6.457172892179816742e-04,1.403620341878992247e-04,2.314477639910794658e-09,5.444534690231271946e-08,6.002582211369090504e-09,-1.240959572896830699e-03,-1.461622540150777638e+00,-2.043481651936666310e+00,-2.118885342274801076e+00,1.020775198936462402e+00,-1.679990116749898732e+00,-3.141593043004171193e+00,-1.281319535337388515e-03,1.229995541507378221e-05,-2.376547854510135949e-05,1.141074790211860090e-05,4.035996244056150317e-05,0.000000000000000000e+00
3.450365066528320312e-01,-1.000137913380721860e-01,-4.999972055974530871e-01,3.000002582897425274e-01,2.909636544982925640e-05,2.221428835895357778e+00,2.221426940095800440e+00,-7.934660436155653107e-04,1.725863090324753814e-04,9.817031516934021260e-09,3.991154332090408689e-08,4.416167389116992365e-09,-1.526366260804943968e-03,-1.461629215870992482e+00,-2.043481651936666310e+00,-2.118885342274801076e+00,1.020775198936462402e+00,-1.679990116749898732e+00,-3.141593043004171193e+00,-1.574716647155582905e-03,1.520804744359338656e-05,-2.935267912107519805e-05,1.410447657690383494e-05,4.835038635064847767e-05,0.000000000000000000e+00
3.540487289428710938e-01,-1.000181476463213870e-01,-4.999961570225218699e-01,3.000001484234592342e-01,3.814329062679468126e-05,2.221424407343984164e+00,2.221423301254884741e+00,-9.607234042478343412e-04,2.091471652678288768e-04,7.600528436793809166e-09,5.632481743053669031e-08,6.201278784589377802e-09,-1.850627228122898480e-03,-1.461637798939840138e+00,-2.043481651936666310e+00,-2.118885819111959279e+00,1.020775318145751953e+00,-1.679989639912740529e+00,-3.141593043004171193e+00,-1.907026278786361217e-03,1.854288893810007721e-05,-3.580615521059371531e-05,1.720660111459437758e-05,5.639905066345818341e-05,0.000000000000000000e+00
3.622961044311523438e-01,-1.000233943116815849e-01,-4.999950940524523491e-01,3.000001374978143454e-01,4.978058136357192866e-05,2.221419287148116872e+00,2.221417917819918042e+00,-1.149028218374926937e-03,2.503203765069326211e-04,1.375511552890954403e-08,5.983499991285302129e-08,6.597706153507912889e-09,-2.215782522398513244e-03,-1.461648289357320607e+00,-2.043481651936666310e+00,-2.118885819111959279e+00,1.020775437355041504e+00,-1.679989639912740529e+00,-3.141593043004171193e+00,-2.281167311593890190e-03,2.231796497653704137e-05,-4.307794006308540702e-05,2.069977745122741908e-05,6.538478919537737966e-05,0.000000000000000000e+00
3.718543052673339844e-01,-1.000298963389233686e-01,-4.999936161166840254e-01,3.000000276316347469e-01,6.359398842102283080e-05,2.221412712718276783e+00,2.221412133098684905e+00,-1.360042029494557729e-03,2.964281389654909718e-04,1.741357151571415228e-08,7.637121519048750752e-08,8.388068169358707843e-09,-2.624416112666936186e-03,-1.461661163960592091e+00,-2.043481651936666310e+00,-2.118886295949117482e+00,1.020775556564331055e+00,-1.679989163075582326e+00,-3.141593043004171193e+00,-2.700350247323513031e-03,2.651302020240109414e-05,-5.117326145409606397e-05,2.458341077726799995e-05,7.593413465656340122e-05,0.000000000000000000e+00
3.827672004699707031e-01,-1.000373416442487395e-01,-4.999920418512427966e-01,3.000002485078851477e-01,7.941039470027200535e-05,2.221406185529328337e+00,2.221404289725908754e+00,-1.595401959012116011e-03,3.479613382664125320e-04,1.956266696125170121e-08,9.261183887268002331e-08,1.022079453031276313e-08,-3.081653791014117658e-03,-1.461675945912496388e+00,-2.043481175099508107e+00,-2.118886295949117482e+00,1.020775675773620605e+00,-1.679988686238424123e+00,-3.141593043004171193e+00,-3.168112132698297501e-03,3.126664523733779788e-05,-6.035230762790888548e-05,2.899248829635325819e-05,8.645834168419241905e-05,0.000000000000000000e+00
3.949778079986572266e-01,-1.000464661804346123e-01,-4.999900389764295738e-01,3.000001386417178728e-01,9.904938565210673199e-05,2.221396988281207019e+00,2.221395882180769998e+00,-1.856853127305242625e-03,4.055193297826873420e-04,2.230467126211109758e-08,1.098161138651607974e-07,1.207654266846505869e-08,-3.593873057980079104e-03,-1.461694065724508107e+00,-2.043481175099508107e+00,-2.118886772786275685e+00,1.020775794982910156e+00,-1.679988209401265919e+00,-3.141593043004171193e+00,-3.688358003273606300e-03,3.678704888443462551e-05,-7.101071241777390242e-05,3.411318539292551577e-05,9.448494529351592064e-05,0.000000000000000000e+00
4.149339199066162109e-01,-1.000570316202696042e-01,-4.999876541007507447e-01,3.000002496516694372e-01,1.217937331675938468e-04,2.221386985971412820e+00,2.221385353397120177e+00,-2.147043815083006253e-03,4.692312134321541327e-04,2.480495810166707762e-08,1.224160169833766719e-07,1.348508549043355739e-08,-4.159731302934235701e-03,-1.461715046559469044e+00,-2.043480698262349904e+00,-2.118887249623433888e+00,1.020776033401489258e+00,-1.679987732564107716e+00,-3.141593043004171193e+00,-4.265408962965011597e-03,4.276473191566765308e-05,-8.255164721049368382e-05,3.966375879826955497e-05,1.056776600307784975e-04,0.000000000000000000e+00
4.230422973632812500e-01,-1.000694953327892489e-01,-4.999849691312306943e-01,3.000001288599659643e-01,1.488323748519738163e-04,2.221374575555468578e+00,2.221373469444668292e+00,-2.468075612395951787e-03,5.398574158559883490e-04,2.879280577150299869e-08,1.397698280379080050e-07,1.536222036123117921e-08,-4.787520600075353960e-03,-1.461739842091695607e+00,-2.043480698262349904e+00,-2.118887726460592091e+00,1.020776271820068359e+00,-1.679987255726949513e+00,-3.141593043004171193e+00,-4.904055502265691757e-03,4.947846173308789730e-05,-9.551076072966679931e-05,4.589168747770600021e-05,1.165349021903239191e-04,0.000000000000000000e+00
4.314277172088623047e-01,-1.000839191790407617e-01,-4.999818201969604137e-01,3.000002398697879102e-01,1.795202091891126084e-04,2.221360996402696131e+00,2.221359363820148758e+00,-2.822811830402699451e-03,6.178557410991924841e-04,3.132867808065319883e-08,1.652869907927942047e-07,1.818881563901324805e-08,-5.480264677316882584e-03,-1.461768452321187794e+00,-2.043480221425191701e+00,-2.118888203297750294e+00,1.020776510238647461e+00,-1.679986302052633107e+00,-3.141593043004171193e+00,-5.609622225165367126e-03,5.684141433448530734e-05,-1.097310887416824698e-04,5.272338967188261449e-05,1.293575478484854102e-04,0.000000000000000000e+00
4.395837783813476562e-01,-1.001143400400086869e-01,-4.999752550853403532e-01,3.000002191622436198e-01,2.457042172986737558e-04,2.221331316055044525e+00,2.221329420233877805e+00,-4.992689213793242466e-03,1.093240180202190723e-03,5.479089939804924517e-08,2.944551439345106070e-07,3.240982857278563741e-08,-9.694824169855585649e-03,-1.461829010640279591e+00,-2.043479744588033498e+00,-2.118889156972066701e+00,1.020777106285095215e+00,-1.679985348378316701e+00,-3.141593043004171193e+00,-9.922103025019168854e-03,1.006335151032544672e-04,-1.942735689226537943e-04,9.334382048109546304e-05,2.272788551636040211e-04,0.000000000000000000e+00
4.492413997650146484e-01,-1.001628245870272022e-01,-4.999646304603685421e-01,3.000001995984162839e-01,3.500293289425996865e-04,2.221284340626333620e+00,2.221282444794557609e+00,-7.461921757111205158e-03,1.634765369078887941e-03,8.147309166553320581e-08,4.414633840504486244e-07,4.854579903556779575e-08,-1.449108420638371003e-02,-1.461925331746236623e+00,-2.043478790913717091e+00,-2.118891064320699513e+00,1.020778059959411621e+00,-1.679982964192525685e+00,-3.141593043004171193e+00,-1.482978463172912598e-02,1.504706160631030798e-04,-2.904862049035727978e-04,1.395714643876999617e-04,3.387004253454506397e-04,0.000000000000000000e+00
4.595491886138916016e-01,-1.001983228709468904e-01,-4.999567989231543663e-01,3.000003117513282413e-01,4.267996243374017691e-04,2.221249888367193392e+00,2.221247729305208640e+00,-5.875731203572574085e-03,1.288508640751156618e-03,6.157679077723571383e-08,3.548711926109277907e-07,3.901563869030079023e-08,-1.142259559128438497e-02,-1.461995903645650685e+00,-2.043477837239400685e+00,-2.118892494832174123e+00,1.020778656005859375e+00,-1.679981533681051076e+00,-3.141593043004171193e+00,-1.167930103838443756e-02,1.191246919916011393e-04,-2.299836487509310246e-04,1.105019473470747471e-04,2.567054471001029015e-04,0.000000000000000000e+00
4.680197238922119141e-01,-1.002302356953103935e-01,-4.999497636443974713e-01,3.000001921039019415e-01,4.956822496362926506e-04,2.221218511433737053e+00,2.221217142026119085e+00,-5.485100222800140014e-03,1.204286177662760096e-03,5.864026520452811190e-08,3.350383570476426222e-07,3.671649965641309884e-08,-1.067888298712202540e-02,-1.462059322987691701e+00,-2.043477360402242482e+00,-2.118893925343648732e+00,1.020779252052307129e+00,-1.679980103169576466e+00,-3.141593043004171193e+00,-1.090526394546031952e-02,1.120597953558899462e-04,-2.163421158911660314e-04,1.039452763507142663e-04,2.263809583382681012e-04,0.000000000000000000e+00
4.763395786285400391e-01,-1.002623864216191929e-01,-4.999426785197878531e-01,3.000000724567910004e-01,5.650924400460435523e-04,2.221186894943881551e+00,2.221186315173737214e+00,-5.638650794376346212e-03,1.239291942247418548e-03,6.307559701257365723e-08,3.394039097446285437e-07,3.708840246949549003e-08,-1.099113174132065190e-02,-1.462123219166890919e+00,-2.043476883565084279e+00,-2.118895355855123341e+00,1.020779848098754883e+00,-1.679978672658101857e+00,-3.141593043004171193e+00,-1.121263206005096436e-02,1.159279927378520370e-04,-2.237998269265517592e-04,1.075304098776541650e-04,2.215003187302500010e-04,0.000000000000000000e+00
4.849359989166259766e-01,-1.002971693378268275e-01,-4.999349696790426067e-01,3.000001736836200306e-01,6.402531596767119812e-04,2.221153279583186535e+00,2.221152173362809013e+00,-6.068721084426136232e-03,1.335454648957780117e-03,6.651428366872381995e-08,3.628647814200708893e-07,3.967683836780406588e-08,-1.184698147699232186e-02,-1.462192360554830373e+00,-2.043475929890767873e+00,-2.118896786366597951e+00,1.020780563354492188e+00,-1.679977242146627248e+00,-3.141593043004171193e+00,-1.207056827843189240e-02,1.257187395822256804e-04,-2.427055151201784611e-04,1.166217480204068124e-04,2.235868014395236969e-04,0.000000000000000000e+00
4.927697181701660156e-01,-1.003352361555249483e-01,-4.999266705131130140e-01,3.000000431111547461e-01,7.234113234153773542e-04,2.221115584861485637e+00,2.221115005043599044e+00,-6.663725351763682102e-03,1.468369671206045789e-03,7.343680628599172333e-08,3.976576669087205891e-07,4.338734830395927702e-08,-1.302966788352925322e-02,-1.462268177662984669e+00,-2.043475453053609669e+00,-2.118898216878072560e+00,1.020781278610229492e+00,-1.679976288472310841e+00,-3.141593043004171193e+00,-1.325730700045824051e-02,1.391979603795334697e-04,-2.687272499315440655e-04,1.291292719542980194e-04,2.276391169289126992e-04,0.000000000000000000e+00
5.012688636779785156e-01,-1.003781242497616411e-01,-4.999173155814152780e-01,3.000001334119049567e-01,8.165544827383137754e-04,2.221073982457920426e+00,2.221072612991798589e+00,-7.377733889225325352e-03,1.628074615709351530e-03,7.988941688224594170e-08,4.546356189393522190e-07,4.964017897773096181e-08,-1.445068421890022964e-02,-1.462353531514303029e+00,-2.043474499379293263e+00,-2.118899647389547169e+00,1.020782113075256348e+00,-1.679974857960836232e+00,-3.141593043004171193e+00,-1.468169223517179489e-02,1.554688642499968410e-04,-3.001490840688347816e-04,1.442228822270408273e-04,2.310080162715166807e-04,0.000000000000000000e+00
5.101156234741210938e-01,-1.004263044949743611e-01,-4.999064550338600532e-01,3.000002467070718715e-01,9.213848774590237614e-04,2.221026755096648486e+00,2.221025385611635095e+00,-8.193370995763437151e-03,1.811455340602526444e-03,9.170332279711974486e-08,4.926300341243897023e-07,5.372508180738395274e-08,-1.608561789907974812e-02,-1.462449375783101857e+00,-2.043473068867818654e+00,-2.118902031575338185e+00,1.020783066749572754e+00,-1.679973427449361623e+00,-3.141593043004171193e+00,-1.631058193743228912e-02,1.746990747051313519e-04,-3.372627543285489082e-04,1.620681287022307515e-04,2.249640383524820209e-04,0.000000000000000000e+00
5.182764530181884766e-01,-1.004806545829365211e-01,-4.998945887392681753e-01,3.000002162170038456e-01,1.039961143150710957e-03,2.220973448316380772e+00,2.220971815612067246e+00,-9.108455314075511802e-03,2.017485821290520686e-03,1.034830909863841705e-07,5.433250940074996561e-07,5.920092197899980014e-08,-1.792129073874088041e-02,-1.462557617818013966e+00,-2.043472115193502248e+00,-2.118903938923970998e+00,1.020784139633178711e+00,-1.679971996937887013e+00,-3.141593043004171193e+00,-1.813834905624389648e-02,1.963426038855686784e-04,-3.790417104028165340e-04,1.821525656851008534e-04,2.170583175029605627e-04,0.000000000000000000e+00
5.267143249511718750e-01,-1.005417261003552776e-01,-4.998809257413093787e-01,3.000002087216459556e-01,1.173397507729387248e-03,2.220913083354859818e+00,2.220911977016667649e+00,-1.012792144937157274e-02,2.246824031736902733e-03,1.172067295446572413e-07,6.105948817010633237e-07,6.638190640014907950e-08,-1.995989984425240726e-02,-1.462679211293355763e+00,-2.043470684682027638e+00,-2.118906799946920216e+00,1.020785331726074219e+00,-1.679970566426412404e+00,-3.141593043004171193e+00,-2.017377689480781555e-02,2.200972958235070109e-04,-4.248967743478715420e-04,2.041852858383208513e-04,2.138770505553111434e-04,0.000000000000000000e+00
5.355219841003417969e-01,-1.006104261109863340e-01,-4.998656927221298285e-01,3.000001793748375833e-01,1.323737142710941983e-03,2.220845330252218641e+00,2.220844223880783286e+00,-1.125940097988656005e-02,2.502364796112632826e-03,1.301419930049197024e-07,6.857470399722336435e-07,7.443801740090963083e-08,-2.223241403407871103e-02,-1.462816063557760060e+00,-2.043469254170553029e+00,-2.118909660969869435e+00,1.020786762237548828e+00,-1.679969135914937794e+00,-3.141593043004171193e+00,-2.243441715836524963e-02,2.469963219482451677e-04,-4.768299113493412733e-04,2.291438140673562884e-04,2.020031242864206433e-04,0.000000000000000000e+00
5.437030792236328125e-01,-1.006876809418554980e-01,-4.998485318151352774e-01,3.000000401648044712e-01,1.493695258476517495e-03,2.220768368615524402e+00,2.220768051745317440e+00,-1.251581427176743158e-02,2.786269549109003998e-03,1.466297678567230160e-07,7.604326929857972315e-07,8.234148730001094601e-08,-2.475229448464217816e-02,-1.462970081959859669e+00,-2.043467823659078419e+00,-2.118912998829976857e+00,1.020788311958312988e+00,-1.679968182240621388e+00,-3.141593043004171193e+00,-2.494431473314762115e-02,2.766622928902506828e-04,-5.340953357517719269e-04,2.566681650932878256e-04,1.920202485052868724e-04,0.000000000000000000e+00
5.521335601806640625e-01,-1.007747693431883668e-01,-4.998291976460868535e-01,3.000003426928691819e-01,1.684669271262995973e-03,2.220683107172482185e+00,2.220680948034133184e+00,-1.390966281405281793e-02,3.103806249906468102e-03,1.666145474002349107e-07,8.435648455770869521e-07,9.131741121280015851e-08,-2.757776794896916669e-02,-1.463143650685445607e+00,-2.043465439473287404e+00,-2.118916336690084279e+00,1.020790100097656250e+00,-1.679966751729146779e+00,-3.141593043004171193e+00,-2.773333340883255005e-02,3.112134290859103203e-04,-6.007860065437853336e-04,2.887240843847393990e-04,1.555654598632827401e-04,0.000000000000000000e+00
5.607316493988037109e-01,-1.008727628721413361e-01,-4.998073238050068090e-01,3.000001827743306038e-01,1.901160394647963226e-03,2.220585256355060100e+00,2.220583623530257178e+00,-1.546009429434360392e-02,3.458304918068032772e-03,1.866115869291508169e-07,9.433327638041091104e-07,1.018394099054164311e-07,-3.073031055828306934e-02,-1.463339153920308888e+00,-2.043463532124654591e+00,-2.118920628224508107e+00,1.020792245864868164e+00,-1.679966274891988576e+00,-3.141593043004171193e+00,-3.083733469247817993e-02,3.501626197248697281e-04,-6.759770913049578667e-04,3.248656576033681631e-04,1.070241341949440539e-04,0.000000000000000000e+00
5.701553821563720703e-01,-1.009827157670721842e-01,-4.997825747693438458e-01,3.000000458510889700e-01,2.144134128067055455e-03,2.220475085924955128e+00,2.220474768833007762e+00,-1.718806138781215839e-02,3.855004898840348054e-03,2.102523472267642564e-07,1.043165377436647074e-06,1.123037452131010611e-07,-3.425611571583409704e-02,-1.463558499013082326e+00,-2.043461147938863576e+00,-2.118925873433248341e+00,1.020794510841369629e+00,-1.679965798054830373e+00,-3.141593043004171193e+00,-3.429888188838958740e-02,3.942332405131310225e-04,-7.610475877299904823e-04,3.657651541288942099e-04,4.276617255527526140e-05,0.000000000000000000e+00
5.784733295440673828e-01,-1.011066917488750716e-01,-4.997548343400836091e-01,3.000001079424813311e-01,2.418730807907902916e-03,2.220351455949661101e+00,2.220350612479721431e+00,-1.912002898355714964e-02,4.298971797836189865e-03,2.409879090519805338e-07,1.152433434348810199e-06,1.237633798666050129e-07,-3.819054121049679507e-02,-1.463805977498189748e+00,-2.043458286915914357e+00,-2.118931118641988576e+00,1.020797133445739746e+00,-1.679965798054830373e+00,-3.141593043004171193e+00,-3.816837072372436523e-02,4.430756671354174614e-04,-8.553129155188798904e-04,4.110781883355230093e-04,-2.217048677266575396e-05,0.000000000000000000e+00
5.871477127075195312e-01,-1.012461573743431431e-01,-4.997234357598328014e-01,3.000001602492924913e-01,2.728214313141159343e-03,2.220212052077089826e+00,2.220210682267485858e+00,-2.128355604783326721e-02,4.798959261094783157e-03,2.699609393649650911e-07,1.307352171485648250e-06,1.399706914712974373e-07,-4.261990859231416795e-02,-1.464084450398580373e+00,-2.043454949055806935e+00,-2.118937317525045216e+00,1.020800232887268066e+00,-1.679966274891988576e+00,-3.141593043004171193e+00,-4.250556230545043945e-02,4.990206798538565636e-04,-9.633160079829394817e-04,4.629805043805390596e-04,-1.143462868640199304e-04,0.000000000000000000e+00
5.951125621795654297e-01,-1.014032522683065846e-01,-4.996879445975487832e-01,3.000002136965961297e-01,3.077346498495982675e-03,2.220054592797980231e+00,2.220052959810640658e+00,-2.371580888489491223e-02,5.362275533966209470e-03,3.047934118352720043e-07,1.450394133049046718e-06,1.547450640574855528e-07,-4.759560471575206148e-02,-1.464398209248678029e+00,-2.043451134358541310e+00,-2.118944470082418263e+00,1.020803689956665039e+00,-1.679967228566304982e+00,-3.141593043004171193e+00,-4.738153889775276184e-02,5.616784328594803810e-04,-1.084260642528533936e-03,5.211235838942229748e-04,-2.140658179996535182e-04,0.000000000000000000e+00
6.036398410797119141e-01,-1.015805490046170351e-01,-4.996478115514723650e-01,3.000002682837549228e-01,3.472457099800278259e-03,2.219876202776631224e+00,2.219874569735056813e+00,-2.645866062069769306e-02,5.999524146936425703e-03,3.494980628963713563e-07,1.610439933975785537e-06,1.711770563366597195e-07,-5.320842436049091906e-02,-1.464752499257222951e+00,-2.043446842824117482e+00,-2.118952576314107716e+00,1.020807504653930664e+00,-1.679969135914937794e+00,-3.141593043004171193e+00,-5.288122966885566711e-02,6.323934067040681839e-04,-1.220738980919122696e-03,5.867260624654591084e-04,-3.271946916356682777e-04,0.000000000000000000e+00
6.119260787963867188e-01,-1.017806857740474885e-01,-4.996022636142150586e-01,3.000001923010685578e-01,3.919354814410277825e-03,2.219674116838612932e+00,2.219673009898313509e+00,-2.956249124334253339e-02,6.723423907078483579e-03,3.890982164970338485e-07,1.812634982430082957e-06,1.919779253191267497e-07,-5.956588385743045999e-02,-1.465152565632955373e+00,-2.043442074452535451e+00,-2.118962113057271779e+00,1.020812034606933594e+00,-1.679971996937887013e+00,-3.141593043004171193e+00,-5.910661071538925171e-02,7.126707932911813259e-04,-1.375716412439942360e-03,6.612228462472558022e-04,-4.592731420416384935e-04,0.000000000000000000e+00
6.201019287109375000e-01,-1.020067320318509690e-01,-4.995508312206643486e-01,3.000000956078052172e-01,4.424841649179205721e-03,2.219445588552805937e+00,2.219444744562898197e+00,-3.308816690024166118e-02,7.549369634207064687e-03,4.388939144411982251e-07,2.036103862315987025e-06,2.147384058092346449e-07,-6.679693260230076812e-02,-1.465604607258931935e+00,-2.043436829243795216e+00,-2.118972603474752248e+00,1.020817160606384277e+00,-1.679975811635152638e+00,-3.141593043004171193e+00,-6.618075072765350342e-02,8.043269626796245575e-04,-1.552643021568655968e-03,7.462686626240611076e-04,-6.161818746477365494e-04,0.000000000000000000e+00
6.288139820098876953e-01,-1.022431817611520188e-01,-4.994967978682697263e-01,3.000003526135285870e-01,4.954468258961486869e-03,2.219206634299375924e+00,2.219204738016503420e+00,-3.850576266041444429e-02,8.809686122904064262e-03,5.119201969314936898e-07,2.374089512310668314e-06,2.488525228695560809e-07,-7.781476003583442935e-02,-1.466077629719869435e+00,-2.043430630360738576e+00,-2.118983570729390919e+00,1.020822405815124512e+00,-1.679980580006734669e+00,-3.141593043004171193e+00,-7.703635096549987793e-02,9.400761337019503117e-04,-1.814686111174523830e-03,8.722228812985122204e-04,-7.784090703353285789e-04,0.000000000000000000e+00
6.459326744079589844e-01,-1.022431817611520188e-01,-4.994967978682697263e-01,3.000003526135285870e-01,4.954468258961486869e-03,2.219206634299375924e+00,2.219204738016503420e+00,0.000000000000000000e+00,0.000000000000000000e+00,0.000000000000000000e+00,0.000000000000000000e+00,0.000000000000000000e+00,0.000000000000000000e+00,-1.466077629719869435e+00,-2.043430630360738576e+00,-2.118983570729390919e+00,1.020822405815124512e+00,-1.679980580006734669e+00,-3.141593043004171193e+00,0.000000000000000000e+00,0.000000000000000000e+00,0.000000000000000000e+00,0.000000000000000000e+00,0.000000000000000000e+00,0.000000000000000000e+00
6.539916992187500000e-01,-1.022431817611520188e-01,-4.994967978682697263e-01,3.000003526135285870e-01,4.954468258961486869e-03,2.219206634299375924e+00,2.219204738016503420e+00,0.000000000000000000e+00,0.000000000000000000e+00,0.000000000000000000e+00,0.000000000000000000e+00,0.000000000000000000e+00,0.000000000000000000e+00,-1.466077629719869435e+00,-2.043430630360738576e+00,-2.118983570729390919e+00,1.020822405815124512e+00,-1.679980580006734669e+00,-3.141593043004171193e+00,0.000000000000000000e+00,0.000000000000000000e+00,0.000000000000000000e+00,0.000000000000000000e+00,0.000000000000000000e+00,0.000000000000000000e+00
6.629624366760253906e-01,-1.022431817611520188e-01,-4.994967978682697263e-01,3.000003526135285870e-01,4.954468258961486869e-03,2.219206634299375924e+00,2.219204738016503420e+00,0.000000000000000000e+00,0.000000000000000000e+00,0.000000000000000000e+00,0.000000000000000000e+00,0.000000000000000000e+00,0.000000000000000000e+00,-1.466077629719869435e+00,-2.043430630360738576e+00,-2.118983570729390919e+00,1.020822405815124512e+00,-1.679980580006734669e+00,-3.141593043004171193e+00,0.000000000000000000e+00,0.000000000000000000e+00,0.000000000000000000e+00,0.000000000000000000e+00,0.000000000000000000e+00,0.000000000000000000e+00
6.711394786834716797e-01,-1.022674593715101193e-01,-4.994911448154706335e-01,3.000002329742608720e-01,5.009481227262096818e-03,2.219181401558051991e+00,2.219180294380214580e+00,-6.205688164871226049e-03,1.431319051099050896e-03,8.777686700429505235e-08,3.812424357961023217e-07,3.991825706152978325e-08,-1.270294876303512677e-02,-1.466126267110006154e+00,-2.043430153523580373e+00,-2.118985001240865529e+00,1.020823001861572266e+00,-1.679981533681051076e+00,-3.141593043004171193e+00,-1.243919972330331802e-02,1.604151329956948757e-04,-3.096504078712314367e-04,1.488519483245909214e-04,-2.637490397319197655e-04,0.000000000000000000e+00
6.794018745422363281e-01,-1.023426181426244086e-01,-4.994737853926290994e-01,3.000002047637637115e-01,5.180213409421401648e-03,2.219104071246984500e+00,2.219103227061919092e+00,-1.293051176380624265e-02,2.984435982553251127e-03,1.828442467817559942e-07,7.943886074208313106e-07,8.312187157124585216e-08,-2.646958315744975601e-02,-1.466276947651998341e+00,-2.043428246174947560e+00,-2.118988815938131154e+00,1.020824790000915527e+00,-1.679984871541158498e+00,-3.141593043004171193e+00,-2.591999992728233337e-02,3.342626732774078846e-04,-6.452294765040278435e-04,3.101680777035653591e-04,-5.495832301676273346e-04,0.000000000000000000e+00
6.890096664428710938e-01,-1.024470607083457913e-01,-4.994496316631901744e-01,3.000002777645190410e-01,5.416965101326600036e-03,2.218997102277978861e+00,2.218995995011900479e+00,-1.686717480002904515e-02,3.899292496496219954e-03,2.396451920171214818e-07,1.036119250057810073e-06,1.080948266413169342e-07,-3.456631675362555750e-02,-1.466486279164449513e+00,-2.043425385151998341e+00,-2.118994061146871388e+00,1.020827293395996094e+00,-1.679989163075582326e+00,-3.141593043004171193e+00,-3.381840139627456665e-02,4.380519967526197433e-04,-8.455723873339593410e-04,4.064786480739712715e-04,-7.479153573513031006e-04,0.000000000000000000e+00
6.969692707061767578e-01,-1.025792569982231922e-01,-4.994190410953435189e-01,3.000002202000816021e-01,5.717660065627634680e-03,2.218860939787322906e+00,2.218860095463797144e+00,-2.059746981197685053e-02,4.774692460868244261e-03,2.925626179618735528e-07,1.285724948639183453e-06,1.338732795916236649e-07,-4.231870395597037149e-02,-1.466751400624410451e+00,-2.043422047291890919e+00,-2.119000736867086232e+00,1.020830512046813965e+00,-1.679995361958638966e+00,-3.141593043004171193e+00,-4.131573438644409180e-02,5.407368298619985580e-04,-1.043797470629215240e-03,5.017679650336503983e-04,-1.002969569526612759e-03,0.000000000000000000e+00
7.056109905242919922e-01,-1.027391658944160208e-01,-4.993819099813237572e-01,3.000002638442006431e-01,6.082746788701174669e-03,2.218695832366252674e+00,2.218694724956341346e+00,-2.432611258900652107e-02,5.658841686053330856e-03,3.510635461589875750e-07,1.535381612112389148e-06,1.591614507691349496e-07,-5.015052133239757820e-02,-1.467072312031881154e+00,-2.043417755757467091e+00,-2.119008843098775685e+00,1.020834445953369141e+00,-1.680003945027486623e+00,-3.141593043004171193e+00,-4.882334545254707336e-02,6.478606956079602242e-04,-1.250576577149331570e-03,6.011722725816071033e-04,-1.327175879850983620e-03,0.000000000000000000e+00
7.141723632812500000e-01,-1.029281580016550707e-01,-4.993379856684844187e-01,3.000001659978736579e-01,6.515936476110614425e-03,2.218499714238298282e+00,2.218498606735058054e+00,-2.820587834655764736e-02,6.592963239757025293e-03,4.167737290638832976e-07,1.779270485164350050e-06,1.836345852965719830e-07,-5.844764306675583054e-02,-1.467451874409810841e+00,-2.043412987385885060e+00,-2.119018379841939748e+00,1.020839214324951172e+00,-1.680015389119283498e+00,-3.141593043004171193e+00,-5.665857717394828796e-02,7.673733634874224663e-04,-1.481257495470345020e-03,7.120954105630517006e-04,-1.789065892808139324e-03,0.000000000000000000e+00
7.226383686065673828e-01,-1.031483768847147320e-01,-4.992862758272555435e-01,3.000001923482163990e-01,7.022474296157636513e-03,2.218270172934023954e+00,2.218269328275402241e+00,-3.237960252671794742e-02,7.603434302729077110e-03,4.862150479866868178e-07,2.046383262432683976e-06,2.104421946824694424e-07,-6.738912453874887354e-02,-1.467894379292623341e+00,-2.043406788502828419e+00,-2.119030300770894826e+00,1.020844817161560059e+00,-1.680030171071187794e+00,-3.141593043004171193e+00,-6.509178876876831055e-02,8.967014728114008904e-04,-1.730889198370277882e-03,8.321305504068732262e-04,-2.297335769981145859e-03,0.000000000000000000e+00
7.310941219329833984e-01,-1.033739163171807779e-01,-4.992333086239194584e-01,3.000001968424132470e-01,7.542608083099178705e-03,2.218034602069430150e+00,2.218033494345571732e+00,-3.777944648098877783e-02,8.900932529014913761e-03,5.714098150835328772e-07,2.390010717790969748e-06,2.442932943081599138e-07,-7.880107476375912412e-02,-1.468347851430074513e+00,-2.043400589619771779e+00,-2.119042221699849904e+00,1.020850658416748047e+00,-1.680046383534566701e+00,-3.141593043004171193e+00,-7.598003000020980835e-02,1.055403496138751507e-03,-2.037223661318421364e-03,9.794177021831274033e-04,-2.821044763550162315e-03,0.000000000000000000e+00
7.391228675842285156e-01,-1.033739163171807779e-01,-4.992333086239194584e-01,3.000001968424132470e-01,7.542608083099178705e-03,2.218034602069430150e+00,2.218033494345571732e+00,0.000000000000000000e+00,0.000000000000000000e+00,0.000000000000000000e+00,0.000000000000000000e+00,0.000000000000000000e+00,0.000000000000000000e+00,-1.468347851430074513e+00,-2.043400589619771779e+00,-2.119042221699849904e+00,1.020850658416748047e+00,-1.680046383534566701e+00,-3.141593043004171193e+00,0.000000000000000000e+00,0.000000000000000000e+00,0.000000000000000000e+00,0.000000000000000000e+00,0.000000000000000000e+00,0.000000000000000000e+00
7.478814125061035156e-01,-1.033739163171807779e-01,-4.992333086239194584e-01,3.000001968424132470e-01,7.542608083099178705e-03,2.218034602069430150e+00,2.218033494345571732e+00,0.000000000000000000e+00,0.000000000000000000e+00,0.000000000000000000e+00,0.000000000000000000e+00,0.000000000000000000e+00,0.000000000000000000e+00,-1.468347851430074513e+00,-2.043400589619771779e+00,-2.119042221699849904e+00,1.020850658416748047e+00,-1.680046383534566701e+00,-3.141593043004171193e+00,0.000000000000000000e+00,0.000000000000000000e+00,0.000000000000000000e+00,0.000000000000000000e+00,0.000000000000000000e+00,0.000000000000000000e+00
7.561414241790771484e-01,-1.034019920184745395e-01,-4.992264783160734742e-01,3.000001881974528328e-01,7.609678797332651221e-03,2.218004083207338883e+00,2.218003238398374322e+00,-7.231088417958175980e-03,1.730665588260986735e-03,1.217659353328967686e-07,4.789768473245180841e-07,4.888266641712955514e-08,-1.546680729370548089e-02,-1.468404595051900685e+00,-2.043399635945455373e+00,-2.119044129048482716e+00,1.020851492881774902e+00,-1.680050198231832326e+00,-3.141593043004171193e+00,-1.459920033812522888e-02,2.231207035947591066e-04,-4.306739137973636389e-04,2.070717455353587866e-04,-8.676069555804133415e-04,0.000000000000000000e+00
7.648437023162841797e-01,-1.034773237780009791e-01,-4.992085042110163129e-01,3.000002600446786127e-01,7.788107858212026460e-03,2.217923438424855842e+00,2.217922067727347457e+00,-1.345766916309303236e-02,3.228505164251090163e-03,2.272331130258613124e-07,8.986271447069013617e-07,9.114879602610258316e-08,-2.886467904318073402e-02,-1.468556706105367482e+00,-2.043397251759664357e+00,-2.119048420582906544e+00,1.020853638648986816e+00,-1.680059258137838185e+00,-3.141593043004171193e+00,-2.718295156955718994e-02,4.195723740849643946e-04,-8.098750840872526169e-04,3.893994726240634918e-04,-1.681727473624050617e-03,0.000000000000000000e+00
7.747054100036621094e-01,-1.035957895477505608e-01,-4.991800287899871291e-01,3.000003134592414966e-01,8.070008470523724192e-03,2.217795744221084941e+00,2.217794110566064347e+00,-1.914773824197557942e-02,4.607043767228443873e-03,3.295530745933553312e-07,1.243237446309909563e-06,1.253950371165852119e-07,-4.119663522578682208e-02,-1.468796078358785451e+00,-2.043393437062398732e+00,-2.119055573140279591e+00,1.020857095718383789e+00,-1.680074516926900685e+00,-3.141593043004171193e+00,-3.869704902172088623e-02,6.038862047716975212e-04,-1.165619934909045696e-03,5.604841862805187702e-04,-2.499586204066872597e-03,0.000000000000000000e+00
7.829363346099853516e-01,-1.037456256173432123e-01,-4.991437933129329596e-01,3.000002483785143004e-01,8.426884537658550431e-03,2.217633534151289609e+00,2.217632689134609425e+00,-2.500450772920233267e-02,6.028353046611705131e-03,4.331650725314340010e-07,1.606582111444778071e-06,1.626795653179677330e-07,-5.386185180395784006e-02,-1.469098869954244435e+00,-2.043388668690816701e+00,-2.119065109883443654e+00,1.020861506462097168e+00,-1.680094067250387013e+00,-3.141593043004171193e+00,-5.054636299610137939e-02,7.919562049210071564e-04,-1.528620487079024315e-03,7.350494852289557457e-04,-3.315488807857036591e-03,0.000000000000000000e+00
7.911832332611083984e-01,-1.037456256173432123e-01,-4.991437933129329596e-01,3.000002483785143004e-01,8.426884537658550431e-03,2.217633534151289609e+00,2.217632689134609425e+00,0.000000000000000000e+00,0.000000000000000000e+00,0.000000000000000000e+00,0.000000000000000000e+00,0.000000000000000000e+00,0.000000000000000000e+00,-1.469098869954244435e+00,-2.043388668690816701e+00,-2.119065109883443654e+00,1.020861506462097168e+00,-1.680094067250387013e+00,-3.141593043004171193e+00,0.000000000000000000e+00,0.000000000000000000e+00,0.000000000000000000e+00,0.000000000000000000e+00,0.000000000000000000e+00,0.000000000000000000e+00
7.998414039611816406e-01,-1.037456256173432123e-01,-4.991437933129329596e-01,3.000002483785143004e-01,8.426884537658550431e-03,2.217633534151289609e+00,2.217632689134609425e+00,0.000000000000000000e+00,0.000000000000000000e+00,0.000000000000000000e+00,0.000000000000000000e+00,0.000000000000000000e+00,0.000000000000000000e+00,-1.469098869954244435e+00,-2.043388668690816701e+00,-2.119065109883443654e+00,1.020861506462097168e+00,-1.680094067250387013e+00,-3.141593043004171193e+00,0.000000000000000000e+00,0.000000000000000000e+00,0.000000000000000000e+00,0.000000000000000000e+00,0.000000000000000000e+00,0.000000000000000000e+00
8.081831932067871094e-01,-1.037723995446206277e-01,-4.991373667732509345e-01,3.000003386532659189e-01,8.492291882278481946e-03,2.217604221017599908e+00,2.217602587309040363e+00,-6.827828985521792841e-03,1.673644326769303629e-03,1.232667776696556715e-07,4.809402160872620820e-07,4.813217302979823795e-08,-1.509983814321414625e-02,-1.469153229390279591e+00,-2.043387715016500294e+00,-2.119066540394918263e+00,1.020862340927124023e+00,-1.680098835621969044e+00,-3.141593043004171193e+00,-1.386000029742717743e-02,2.377966884523630142e-04,-4.590131866279989481e-04,2.207331563113257289e-04,-1.239837845787405968e-03,0.000000000000000000e+00
8.177435398101806641e-01,-1.038423418078589372e-01,-4.991201894637955494e-01,3.000003006489785351e-01,8.664365478869154660e-03,2.217526038603229832e+00,2.217524667757868162e+00,-1.257734180876557764e-02,3.092636120240876453e-03,2.334477906512301307e-07,8.518614953719787832e-07,8.527996891379057484e-08,-2.792860125191446233e-02,-1.469295326863424123e+00,-2.043385330830709279e+00,-2.119071308766500294e+00,1.020864605903625488e+00,-1.680112187062398732e+00,-3.141593043004171193e+00,-2.554859966039657593e-02,4.442430508788675070e-04,-8.574863313697278500e-04,4.123871622141450644e-04,-2.380001591518521309e-03,0.000000000000000000e+00
8.260810375213623047e-01,-1.039512320244593419e-01,-4.990933250972249824e-01,3.000002442115614065e-01,8.932486786596697398e-03,2.217404139751927072e+00,2.217403294607820818e+00,-1.773392172983626405e-02,4.377213677817665301e-03,3.318856631172507804e-07,1.198801660119212000e-06,1.204852592064975234e-07,-3.956206189468452344e-02,-1.469516579304830373e+00,-2.043381516133443654e+00,-2.119078938161031544e+00,1.020868182182312012e+00,-1.680133167897359669e+00,-3.141593043004171193e+00,-3.605196624994277954e-02,6.363368011079728603e-04,-1.228270353749394417e-03,5.907287122681736946e-04,-3.510095644742250443e-03,0.000000000000000000e+00
8.342669010162353516e-01,-1.040994082868095250e-01,-4.990566363285802720e-01,3.000001584145112754e-01,9.299248553862852693e-03,2.217237434651624373e+00,2.217237115129469416e+00,-2.360655073849546315e-02,5.840443570165267280e-03,4.428890260567342449e-07,1.594709971779681140e-06,1.608978712512156233e-07,-5.275739403441510877e-02,-1.469817940388814748e+00,-2.043376270924703419e+00,-2.119089428578512013e+00,1.020873188972473145e+00,-1.680163208638326466e+00,-3.141593043004171193e+00,-4.800790920853614807e-02,8.520650444552302361e-04,-1.644673873670399189e-03,7.910060230642557144e-04,-4.749484825879335403e-03,0.000000000000000000e+00
8.461613655090332031e-01,-1.040994082868095250e-01,-4.990566363285802720e-01,3.000001584145112754e-01,9.299248553862852693e-03,2.217237434651624373e+00,2.217237115129469416e+00,0.000000000000000000e+00,0.000000000000000000e+00,0.000000000000000000e+00,0.000000000000000000e+00,0.000000000000000000e+00,0.000000000000000000e+00,-1.469817940388814748e+00,-2.043376270924703419e+00,-2.119089428578512013e+00,1.020873188972473145e+00,-1.680163208638326466e+00,-3.141593043004171193e+00,0.000000000000000000e+00,0.000000000000000000e+00,0.000000000000000000e+00,0.000000000000000000e+00,0.000000000000000000e+00,0.000000000000000000e+00
8.542675971984863281e-01,-1.040994082868095250e-01,-4.990566363285802720e-01,3.000001584145112754e-01,9.299248553862852693e-03,2.217237434651624373e+00,2.217237115129469416e+00,0.000000000000000000e+00,0.000000000000000000e+00,0.000000000000000000e+00,0.000000000000000000e+00,0.000000000000000000e+00,0.000000000000000000e+00,-1.469817940388814748e+00,-2.043376270924703419e+00,-2.119089428578512013e+00,1.020873188972473145e+00,-1.680163208638326466e+00,-3.141593043004171193e+00,0.000000000000000000e+00,0.000000000000000000e+00,0.000000000000000000e+00,0.000000000000000000e+00,0.000000000000000000e+00,0.000000000000000000e+00
8.646516799926757812e-01,-1.041243545725229896e-01,-4.990503495735605921e-01,3.000001388419832327e-01,9.363091595385330049e-03,2.217208451674369307e+00,2.217208132130707998e+00,-6.418873249150099276e-03,1.629009082898325847e-03,1.448726916847585014e-07,4.411373515006901393e-07,4.441697175187841142e-08,-1.493185362778593275e-02,-1.469868961964742482e+00,-2.043375317250387013e+00,-2.119091335927144826e+00,1.020874142646789551e+00,-1.680169884358541310e+00,-3.141593043004171193e+00,-1.314000040292739868e-02,2.639402518980205059e-04,-5.094209918752312660e-04,2.450373722240328789e-04,-1.791853224858641624e-03,0.000000000000000000e+00
8.727061748504638672e-01,-1.042021363183657789e-01,-4.990305651957647193e-01,3.000002020316941409e-01,9.563565718966614976e-03,2.217117549990468284e+00,2.217116967533759198e+00,-1.336000753800245175e-02,3.392793862391706074e-03,3.012451396714583398e-07,9.184150829107058318e-07,9.187830613018046274e-08,-3.108007251284984965e-02,-1.470028225575582326e+00,-2.043371979390279591e+00,-2.119097534810201466e+00,1.020877122879028320e+00,-1.680191818867818654e+00,-3.141593043004171193e+00,-2.735039964318275452e-02,5.493813659995794296e-04,-1.060340087860822678e-03,5.100357229821383953e-04,-3.729672869667410851e-03,0.000000000000000000e+00
8.814222812652587891e-01,-1.042049492171267799e-01,-4.990299555951913102e-01,3.000001911062968318e-01,9.570410342293292350e-03,2.217114560953681313e+00,2.217113715649730921e+00,-1.301297516879130686e-02,3.304742529307253679e-03,2.934133791703609905e-07,8.945966993491140195e-07,8.905511075757775901e-08,-3.027279814705207892e-02,-1.470033947621480763e+00,-2.043371979390279591e+00,-2.119097534810201466e+00,1.020877242088317871e+00,-1.680192295704976857e+00,-3.141593043004171193e+00,-2.663999982178211212e-02,5.351116997189819813e-04,-1.032798783853650093e-03,4.967880668118596077e-04,-3.632798325270414352e-03,0.000000000000000000e+00
8.893907070159912109e-01,-1.042049492171267799e-01,-4.990299555951913102e-01,3.000001911062968318e-01,9.570410342293292350e-03,2.217114560953681313e+00,2.217113715649730921e+00,0.000000000000000000e+00,0.000000000000000000e+00,0.000000000000000000e+00,0.000000000000000000e+00,0.000000000000000000e+00,0.000000000000000000e+00,-1.470033947621480763e+00,-2.043371979390279591e+00,-2.119097534810201466e+00,1.020877242088317871e+00,-1.680192295704976857e+00,-3.141593043004171193e+00,0.000000000000000000e+00,0.000000000000000000e+00,0.000000000000000000e+00,0.000000000000000000e+00,0.000000000000000000e+00,0.000000000000000000e+00
8.978147506713867188e-01,-1.042049492171267799e-01,-4.990299555951913102e-01,3.000001911062968318e-01,9.570410342293292350e-03,2.217114560953681313e+00,2.217113715649730921e+00,0.000000000000000000e+00,0.000000000000000000e+00,0.000000000000000000e+00,0.000000000000000000e+00,0.000000000000000000e+00,0.000000000000000000e+00,-1.470033947621480763e+00,-2.043371979390279591e+00,-2.119097534810201466e+00,1.020877242088317871e+00,-1.680192295704976857e+00,-3.141593043004171193e+00,0.000000000000000000e+00,0.000000000000000000e+00,0.000000000000000000e+00,0.000000000000000000e+00,0.000000000000000000e+00,0.000000000000000000e+00
9.060516357421875000e-01,-1.042269962202253819e-01,-4.990239407108044700e-01,3.000002934405835986e-01,9.632122194742409604e-03,2.217086657538236860e+00,2.217085549376747178e+00,-5.659099029763255996e-03,1.518733261037608171e-03,1.552455894485996113e-07,4.530071991056352342e-07,4.448077700994658692e-08,-1.433982141315895409e-02,-1.470079723988668263e+00,-2.043370548878804982e+00,-2.119099918995992482e+00,1.020878314971923828e+00,-1.680202309285299123e+00,-3.141593043004171193e+00,-1.175760012120008469e-02,2.972730144392699003e-04,-5.737674073316156864e-04,2.760392089840024710e-04,-2.582221291959285736e-03,0.000000000000000000e+00
9.148235321044921875e-01,-1.042820891850567006e-01,-4.990090423033604061e-01,3.000002347206897624e-01,9.789858698354964375e-03,2.217015024955611757e+00,2.217013916762955450e+00,-1.006931614540691917e-02,2.751190098300343705e-03,2.923618745799645977e-07,8.369928086805234762e-07,8.188002860716275726e-08,-2.620490780100144523e-02,-1.470194641743795216e+00,-2.043367687855855763e+00,-2.119105641041890919e+00,1.020881175994873047e+00,-1.680229965840474904e+00,-3.141593043004171193e+00,-2.102224715054035187e-02,5.668349913321435452e-04,-1.094053150154650211e-03,5.263771745376288891e-04,-5.182660650461912155e-03,0.000000000000000000e+00
9.241302013397216797e-01,-1.043652510970492775e-01,-4.989860635830177804e-01,3.000001696290566233e-01,1.003255205680643816e-02,2.216904434449752159e+00,2.216904114681734761e+00,-1.379171579210832985e-02,3.823274519829747593e-03,4.302653746324828917e-07,1.124402868988747499e-06,1.121884255360625139e-07,-3.665352798998324640e-02,-1.470368687306539357e+00,-2.043362919484273732e+00,-2.119115177785054982e+00,1.020885586738586426e+00,-1.680275265370504201e+00,-3.141593043004171193e+00,-2.890668623149394989e-02,8.181814919225871563e-04,-1.579124596901237965e-03,7.598131196573376656e-04,-7.746841758489608765e-03,0.000000000000000000e+00
9.326386451721191406e-01,-1.045011799482723630e-01,-4.989482517529898464e-01,3.000001458665996767e-01,1.043392971686639761e-02,2.216722071566659569e+00,2.216721751664612050e+00,-2.073958734054041214e-02,5.785790047665628245e-03,6.633175004368716656e-07,1.678462886721000317e-06,1.669206860305507732e-07,-5.556230060756159328e-02,-1.470653835927144826e+00,-2.043354813252584279e+00,-2.119130913411275685e+00,1.020893216133117676e+00,-1.680352989827291310e+00,-3.141593043004171193e+00,-4.353753104805946350e-02,1.254592207260429859e-03,-2.421385608613491058e-03,1.165106659755110741e-03,-1.202476955950260162e-02,0.000000000000000000e+00
9.469747543334960938e-01,-1.045055092890970622e-01,-4.989470210456859456e-01,3.000002568446158424e-01,1.044655936285328150e-02,2.216716570110779383e+00,2.216715724594557457e+00,-2.010015628072421914e-02,5.608125996512434465e-03,6.428902996636097435e-07,1.626728459626728814e-06,1.589658539644981446e-07,-5.385707505047203358e-02,-1.470662895833150685e+00,-2.043354336415426076e+00,-2.119131390248433888e+00,1.020893454551696777e+00,-1.680355374013082326e+00,-3.141593043004171193e+00,-4.219646379351615906e-02,1.216337084770202637e-03,-2.347551984712481499e-03,1.129580428823828697e-03,-1.166061125695705414e-02,0.000000000000000000e+00
9.552123546600341797e-01,-1.045055092890970622e-01,-4.989470210456859456e-01,3.000002568446158424e-01,1.044655936285328150e-02,2.216716570110779383e+00,2.216715724594557457e+00,0.000000000000000000e+00,0.000000000000000000e+00,0.000000000000000000e+00,0.000000000000000000e+00,0.000000000000000000e+00,0.000000000000000000e+00,-1.470662895833150685e+00,-2.043354336415426076e+00,-2.119131390248433888e+00,1.020893454551696777e+00,-1.680355374013082326e+00,-3.141593043004171193e+00,0.000000000000000000e+00,0.000000000000000000e+00,0.000000000000000000e+00,0.000000000000000000e+00,0.000000000000000000e+00,0.000000000000000000e+00
9.633412361145019531e-01,-1.045055092890970622e-01,-4.989470210456859456e-01,3.000002568446158424e-01,1.044655936285328150e-02,2.216716570110779383e+00,2.216715724594557457e+00,0.000000000000000000e+00,0.000000000000000000e+00,0.000000000000000000e+00,0.000000000000000000e+00,0.000000000000000000e+00,0.000000000000000000e+00,-1.470662895833150685e+00,-2.043354336415426076e+00,-2.119131390248433888e+00,1.020893454551696777e+00,-1.680355374013082326e+00,-3.141593043004171193e+00,0.000000000000000000e+00,0.000000000000000000e+00,0.000000000000000000e+00,0.000000000000000000e+00,0.000000000000000000e+00,0.000000000000000000e+00
9.715731143951416016e-01,-1.045258930204382986e-01,-4.989400159286758729e-01,3.000003286728974983e-01,1.052933027009981225e-02,2.216679192922168529e+00,2.216677821785531410e+00,-5.245408099841618495e-03,1.815534732220840976e-03,3.151336983698436066e-07,5.700066120031845250e-07,5.264352630583788109e-08,-1.913843955844487382e-02,-1.470708672200338185e+00,-2.043351952229635060e+00,-2.119135681782857716e+00,1.020895600318908691e+00,-1.680384461079732716e+00,-3.141593043004171193e+00,-1.175760012120008469e-02,5.968778277747333050e-04,-1.151914708316326141e-03,5.544644664041697979e-04,-7.380839437246322632e-03,0.000000000000000000e+00
9.801154136657714844e-01,-1.045768484038364643e-01,-4.989216914793769275e-01,3.000002342103882391e-01,1.074400237436165528e-02,2.216581266043728959e+00,2.216580683249949058e+00,-9.234163089095843643e-03,3.349363366263874431e-03,6.345157817147807055e-07,1.050540789790384640e-06,1.014563839219918476e-07,-3.589355945587085345e-02,-1.470824066792623341e+00,-2.043345753346578419e+00,-2.119148079548970998e+00,1.020901441574096680e+00,-1.680463139210836232e+00,-3.141593043004171193e+00,-2.102224715054035187e-02,1.171788549982011318e-03,-2.261358778923749924e-03,1.088514807634055614e-03,-1.487131230533123016e-02,0.000000000000000000e+00
9.887475967407226562e-01,-1.046729593275201181e-01,-4.988866079162152523e-01,3.000002649497658935e-01,1.116108072768317444e-02,2.216391646534061177e+00,2.216391063624951308e+00,-1.519525589958237687e-02,5.581327954924575688e-03,1.076423036403318657e-06,1.749445829637282863e-06,1.684259023926178672e-07,-6.003451719879980553e-02,-1.471043411885396779e+00,-2.043333355580465138e+00,-2.119171921406881154e+00,1.020912885665893555e+00,-1.680620972310201466e+00,-3.141593043004171193e+00,-3.473820164799690247e-02,1.981428824365139008e-03,-3.823800710961222649e-03,1.840614364482462406e-03,-2.529631555080413818e-02,0.000000000000000000e+00
9.969367980957031250e-01,-1.047864144548205784e-01,-4.988436274300271922e-01,3.000002271477931193e-01,1.167824371209998276e-02,2.216156425605080305e+00,2.216155842553572786e+00,-1.744065918868722628e-02,6.755131763547862246e-03,1.327680721233121740e-06,2.241900841064569386e-06,2.150121904031900859e-07,-7.390051335096198271e-02,-1.471305672322408498e+00,-2.043317619954244435e+00,-2.119202438985006154e+00,1.020927667617797852e+00,-1.680826489125387013e+00,-3.141593043004171193e+00,-4.060841351747512817e-02,2.548513701185584068e-03,-4.918343853205442429e-03,2.367577981203794479e-03,-3.329209983348846436e-02,0.000000000000000000e+00
1.005275726318359375e+00,-1.049004605623743980e-01,-4.987958435560849169e-01,3.000002536046495472e-01,1.227013224737457005e-02,2.215887082498018135e+00,2.215886499285157019e+00,-1.544147958600124160e-02,6.909910476263483523e-03,1.532782474713215843e-06,2.392752775370338570e-06,2.274050790745467468e-07,-7.882376015186119689e-02,-1.471578900014058888e+00,-2.043298069630758107e+00,-2.119240109120504201e+00,1.020945787429809570e+00,-1.681088749562398732e+00,-3.141593043004171193e+00,-3.792380169034004211e-02,2.992384135723114014e-03,-5.774952936917543411e-03,2.780165290459990501e-03,-4.089995846152305603e-02,0.000000000000000000e+00
1.013395071029663086e+00,-1.049970154797562061e-01,-4.987475417941479305e-01,3.000003431537984766e-01,1.289611024874230162e-02,2.215602188956478091e+00,2.215601342899523374e+00,-1.230180870331253409e-02,6.795120028371381612e-03,1.727286914232031897e-06,2.450804553000471587e-06,2.247623857677753380e-07,-8.144041150807931895e-02,-1.471826855336324513e+00,-2.043275181447164357e+00,-2.119283978139058888e+00,1.020966887474060059e+00,-1.681407276784078419e+00,-3.141593043004171193e+00,-3.295384347438812256e-02,3.408545395359396935e-03,-6.578039843589067459e-03,3.167033428326249123e-03,-4.848656803369522095e-02,0.000000000000000000e+00
1.021705865859985352e+00,-1.050680066825604581e-01,-4.987004622180805646e-01,3.000002531360201341e-01,1.354144483296417130e-02,2.215308075933987375e+00,2.215307492382581955e+00,-7.931311619928178153e-03,6.415401087224078050e-03,1.903771138103392447e-06,2.582088545668576735e-06,2.409871194789453245e-07,-8.195219375192872024e-02,-1.472033802662984669e+00,-2.043249432240621388e+00,-2.119334046040670216e+00,1.020991086959838867e+00,-1.681784454976217091e+00,-3.141593043004171193e+00,-2.557314373552799225e-02,3.815876552835106850e-03,-7.364146877080202103e-03,3.545677056536078453e-03,-5.637905001640319824e-02,0.000000000000000000e+00
1.030178070068359375e+00,-1.051028234585075632e-01,-4.986567284240017717e-01,3.000002370809778940e-01,1.418818915996215672e-02,2.215013148925557118e+00,2.215012827807806506e+00,-2.180100304226824208e-03,5.757940865100817825e-03,2.118199874351880007e-06,2.600117168771318276e-06,2.479271974764922638e-07,-8.038267400115609029e-02,-1.472179237996236623e+00,-2.043220345173970998e+00,-2.119390312825338185e+00,1.021018147468566895e+00,-1.682224575673238576e+00,-3.141593043004171193e+00,-1.552848424762487411e-02,4.228802863508462906e-03,-8.160882629454135895e-03,3.929467871785163879e-03,-6.485418975353240967e-02,0.000000000000000000e+00
1.038660287857055664e+00,-1.051049185386105089e-01,-4.986195981968656876e-01,3.000004416785810868e-01,1.477783647129158641e-02,2.214744692445052454e+00,2.214743320885232514e+00,1.448710885625989833e-03,5.789873750619524070e-03,2.422739542807360658e-06,2.828131080157268773e-06,2.323889707162760222e-07,-8.589629642663873521e-02,-1.472261253987447560e+00,-2.043190781270162404e+00,-2.119446579610006154e+00,1.021045327186584473e+00,-1.682676617299215138e+00,-3.141593043004171193e+00,-1.014547608792781830e-02,4.846848081797361374e-03,-9.353511966764926910e-03,4.503826610743999481e-03,-7.575082033872604370e-02,0.000000000000000000e+00
1.047136068344116211e+00,-1.051049185386105089e-01,-4.986195981968656876e-01,3.000004416785810868e-01,1.477783647129158641e-02,2.214744692445052454e+00,2.214743320885232514e+00,0.000000000000000000e+00,0.000000000000000000e+00,0.000000000000000000e+00,0.000000000000000000e+00,0.000000000000000000e+00,0.000000000000000000e+00,-1.472261253987447560e+00,-2.043190781270162404e+00,-2.119446579610006154e+00,1.021045327186584473e+00,-1.682676617299215138e+00,-3.141593043004171193e+00,0.000000000000000000e+00,0.000000000000000000e+00,0.000000000000000000e+00,0.000000000000000000e+00,0.000000000000000000e+00,0.000000000000000000e+00
1.055465936660766602e+00,-1.051049185386105089e-01,-4.986195981968656876e-01,3.000004416785810868e-01,1.477783647129158641e-02,2.214744692445052454e+00,2.214743320885232514e+00,0.000000000000000000e+00,0.000000000000000000e+00,0.000000000000000000e+00,0.000000000000000000e+00,0.000000000000000000e+00,0.000000000000000000e+00,-1.472261253987447560e+00,-2.043190781270162404e+00,-2.119446579610006154e+00,1.021045327186584473e+00,-1.682676617299215138e+00,-3.141593043004171193e+00,0.000000000000000000e+00,0.000000000000000000e+00,0.000000000000000000e+00,0.000000000000000000e+00,0.000000000000000000e+00,0.000000000000000000e+00
1.063397169113159180e+00,-1.050921337020119389e-01,-4.986179188379249450e-01,3.000003949616561472e-01,1.482366560124803549e-02,2.214723546845225322e+00,2.214722700406791756e+00,3.264131192600174501e-03,4.193963681099901835e-04,4.113824998959993736e-07,3.632178053272020225e-07,3.031532180904702373e-08,-1.058170059695726084e-02,-1.472245518361226857e+00,-2.043187443410054982e+00,-2.119453255330220998e+00,1.021048426628112793e+00,-1.682733837758199513e+00,-3.141593043004171193e+00,4.017499741166830063e-03,8.649670053273439407e-04,-1.669250545091927052e-03,8.039191015996038914e-04,-1.459920033812522888e-02,0.000000000000000000e+00
1.072350263595581055e+00,-1.050394906604796563e-01,-4.986178459966246201e-01,3.000003721570304593e-01,1.490422457494706976e-02,2.214686673441371045e+00,2.214686089548727921e+00,1.087526047975359220e-02,-3.377153926603917110e-04,7.332125743763622609e-07,3.560125679182271954e-07,2.806376642273198932e-08,-1.010239310562509665e-02,-1.472166363392965138e+00,-2.043178860341207326e+00,-2.119469944630758107e+00,1.021056413650512695e+00,-1.682885948811666310e+00,-3.141593043004171193e+00,1.708055846393108368e-02,1.499464153312146664e-03,-2.893574070185422897e-03,1.393752871081233025e-03,-2.718295156955718994e-02,0.000000000000000000e+00
1.080630064010620117e+00,-1.049326415846385946e-01,-4.986238738583215202e-01,3.000002819031353796e-01,1.497058168503702727e-02,2.214656158912764461e+00,2.214656100102403435e+00,1.835500824894242475e-02,-1.263812872373664851e-03,9.479157997886019558e-07,2.599337253909078080e-07,2.487320648941439278e-08,-6.950674578547411803e-03,-1.471992794667379201e+00,-2.043166462575094044e+00,-2.119494263325826466e+00,1.021068096160888672e+00,-1.683119599019185841e+00,-3.141593043004171193e+00,3.031206317245960236e-02,1.975633436813950539e-03,-3.812443697825074196e-03,1.836549141444265842e-03,-3.726273775100708008e-02,0.000000000000000000e+00
1.096755504608154297e+00,-1.047738859715938858e-01,-4.986372686404377252e-01,3.000003743155325586e-01,1.499687434042837331e-02,2.214644398980764706e+00,2.214643815092481649e+00,2.503323228942317541e-02,-2.353977818172821312e-03,1.046299878721750236e-06,1.259942663009682185e-07,1.205818445368513388e-09,-2.437569200977596218e-04,-1.471725289021627248e+00,-2.043151203786031544e+00,-2.119523350392476857e+00,1.021082162857055664e+00,-1.683410946522847951e+00,-3.141593043004171193e+00,4.269725456833839417e-02,2.186833182349801064e-03,-4.219947848469018936e-03,2.032989170402288437e-03,-4.294101148843765259e-02,0.000000000000000000e+00
1.105331182479858398e+00,-1.045655165756286253e-01,-4.986588429947436674e-01,3.000004482263383121e-01,1.496790748770317030e-02,2.214657734870720596e+00,2.214656888484984432e+00,3.155781081558032414e-02,-3.458071504011411227e-03,1.135515179129182558e-06,-1.144890866832719197e-07,-2.979218080237146172e-08,6.975509226325636580e-03,-1.471365753804342091e+00,-2.043134514485494435e+00,-2.119555298482076466e+00,1.021097540855407715e+00,-1.683744255696431935e+00,-3.141593043004171193e+00,5.489461123943328857e-02,2.356516430154442787e-03,-4.547265823930501938e-03,2.190866274759173393e-03,-4.791910201311111450e-02,0.000000000000000000e+00
1.114097118377685547e+00,-1.043066973283109100e-01,-4.986893382222781224e-01,3.000004915838830888e-01,1.486943733340664181e-02,2.214702900534960772e+00,2.214701529166858585e+00,3.809000466733482304e-02,-4.711614369159313614e-03,1.144485930663378634e-06,-4.182580145507231240e-07,-7.366360110128158132e-08,1.648254320026414782e-02,-1.470910851155416310e+00,-2.043116871510640919e+00,-2.119589153920308888e+00,1.021113991737365723e+00,-1.684109989796773732e+00,-3.141593043004171193e+00,6.743940711021423340e-02,2.401002682745456696e-03,-4.633039701730012894e-03,2.232460537925362587e-03,-5.095686390995979309e-02,0.000000000000000000e+00
1.122368335723876953e+00,-1.039948419116022704e-01,-4.987295977511876366e-01,3.000004262236200536e-01,1.469152301148668113e-02,2.214783829718570463e+00,2.214782983472959987e+00,4.508163802789905139e-02,-6.016131143995654025e-03,1.167699999633006307e-06,-6.748161190835739952e-07,-8.891852890163296774e-08,2.627013996243859201e-02,-1.470354859028951466e+00,-2.043098751698629201e+00,-2.119624439870015919e+00,1.021130919456481934e+00,-1.684504810963765919e+00,-3.141593043004171193e+00,8.080745488405227661e-02,2.469833474606275558e-03,-4.765796940773725510e-03,2.296643797308206558e-03,-5.453731492161750793e-02,0.000000000000000000e+00
1.130781412124633789e+00,-1.037338587796231559e-01,-4.987649700507258421e-01,3.000004380984157559e-01,1.451305529793539377e-02,2.214865116958647739e+00,2.214864533302208560e+00,5.050279785701650148e-02,-6.952039986785266482e-03,1.211618883895456303e-06,-8.479101757368709390e-07,-1.011842607468473112e-07,3.287451341748420103e-02,-1.469885651265279591e+00,-2.043084923421041310e+00,-2.119651142750875294e+00,1.021143674850463867e+00,-1.684812370930806935e+00,-3.141593043004171193e+00,9.102667868137359619e-02,2.577255712822079659e-03,-4.973043221980333328e-03,2.396641299128532410e-03,-5.815216526389122009e-02,0.000000000000000000e+00
1.139555931091308594e+00,-1.037338587796231559e-01,-4.987649700507258421e-01,3.000004380984157559e-01,1.451305529793539377e-02,2.214865116958647739e+00,2.214864533302208560e+00,0.000000000000000000e+00,0.000000000000000000e+00,0.000000000000000000e+00,0.000000000000000000e+00,0.000000000000000000e+00,0.000000000000000000e+00,-1.469885651265279591e+00,-2.043084923421041310e+00,-2.119651142750875294e+00,1.021143674850463867e+00,-1.684812370930806935e+00,-3.141593043004171193e+00,0.000000000000000000e+00,0.000000000000000000e+00,0.000000000000000000e+00,0.000000000000000000e+00,0.000000000000000000e+00,0.000000000000000000e+00
1.147510528564453125e+00,-1.037338587796231559e-01,-4.987649700507258421e-01,3.000004380984157559e-01,1.451305529793539377e-02,2.214865116958647739e+00,2.214864533302208560e+00,0.000000000000000000e+00,0.000000000000000000e+00,0.000000000000000000e+00,0.000000000000000000e+00,0.000000000000000000e+00,0.000000000000000000e+00,-1.469885651265279591e+00,-2.043084923421041310e+00,-2.119651142750875294e+00,1.021143674850463867e+00,-1.684812370930806935e+00,-3.141593043004171193e+00,0.000000000000000000e+00,0.000000000000000000e+00,0.000000000000000000e+00,0.000000000000000000e+00,0.000000000000000000e+00,0.000000000000000000e+00
1.165037393569946289e+00,-1.036985406444665830e-01,-4.987711807484279669e-01,3.000003075815950160e-01,1.446780307333818578e-02,2.214885519245778589e+00,2.214885460636732084e+00,9.015956292048781309e-03,-1.560334139793675360e-03,9.362532953948036159e-08,-2.877306562563527682e-07,-2.930708305590029898e-08,1.051764469593757627e-02,-1.469819370900289357e+00,-2.043084446583883107e+00,-2.119652573262349904e+00,1.021144390106201172e+00,-1.684837643300191701e+00,-3.141593043004171193e+00,1.693199947476387024e-02,2.045282453764230013e-04,-3.945960488636046648e-04,1.903570228023454547e-04,-6.414354778826236725e-03,0.000000000000000000e+00
1.176990509033203125e+00,-1.036188069161865788e-01,-4.987850131524640962e-01,3.000003891031968739e-01,1.436510033697202190e-02,2.214932594799419174e+00,2.214932011192539463e+00,1.571917487812325015e-02,-2.717911230181467141e-03,1.631159589413032106e-07,-5.013517139727291884e-07,-5.382160218440385304e-08,1.833692844957141369e-02,-1.469669644032613576e+00,-2.043082539235250294e+00,-2.119655911122457326e+00,1.021146059036254883e+00,-1.684894386922017873e+00,-3.141593043004171193e+00,2.951999939978122711e-02,3.565836232155561447e-04,-6.879562861286103725e-04,3.318768867757171392e-04,-1.118307095021009445e-02,0.000000000000000000e+00
1.186442613601684570e+00,-1.036188069161865788e-01,-4.987850131524640962e-01,3.000003891031968739e-01,1.436510033697202190e-02,2.214932594799419174e+00,2.214932011192539463e+00,0.000000000000000000e+00,0.000000000000000000e+00,0.000000000000000000e+00,0.000000000000000000e+00,0.000000000000000000e+00,0.000000000000000000e+00,-1.469669644032613576e+00,-2.043082539235250294e+00,-2.119655911122457326e+00,1.021146059036254883e+00,-1.684894386922017873e+00,-3.141593043004171193e+00,0.000000000000000000e+00,0.000000000000000000e+00,0.000000000000000000e+00,0.000000000000000000e+00,0.000000000000000000e+00,0.000000000000000000e+00
1.194853067398071289e+00,-1.036188069161865788e-01,-4.987850131524640962e-01,3.000003891031968739e-01,1.436510033697202190e-02,2.214932594799419174e+00,2.214932011192539463e+00,0.000000000000000000e+00,0.000000000000000000e+00,0.000000000000000000e+00,0.000000000000000000e+00,0.000000000000000000e+00,0.000000000000000000e+00,-1.469669644032613576e+00,-2.043082539235250294e+00,-2.119655911122457326e+00,1.021146059036254883e+00,-1.684894386922017873e+00,-3.141593043004171193e+00,0.000000000000000000e+00,0.000000000000000000e+00,0.000000000000000000e+00,0.000000000000000000e+00,0.000000000000000000e+00,0.000000000000000000e+00
1.203396558761596680e+00,-1.035888831297137325e-01,-4.987904235884078608e-01,3.000003793041190470e-01,1.432244973886435957e-02,2.214952044793275121e+00,2.214951461200330929e+00,7.703525124390616860e-03,-1.393639039666972950e-03,6.066293994039139244e-08,-3.146809429168224124e-07,-3.319117477524237708e-08,9.889444801956512321e-03,-1.469612900410787404e+00,-2.043082062398092091e+00,-2.119656864796773732e+00,1.021146535873413086e+00,-1.684912506734029591e+00,-3.141593043004171193e+00,1.459920033812522888e-02,1.251072390004992485e-04,-2.413149777567014098e-04,1.165241628768853843e-04,-4.709755536168813705e-03,0.000000000000000000e+00
1.211407661437988281e+00,-1.035085052087277996e-01,-4.988050143915739865e-01,3.000004706241400365e-01,1.420657637953575032e-02,2.215005119665216071e+00,2.215004011063673062e+00,1.431651722547713258e-02,-2.612037204321724249e-03,1.047614894068735149e-07,-5.922276827925963223e-07,-6.447298464137907097e-08,1.873276103288028932e-02,-1.469460312520162404e+00,-2.043080631886617482e+00,-2.119659248982564748e+00,1.021147727966308594e+00,-1.684960190449849904e+00,-3.141593043004171193e+00,2.718295156955718994e-02,2.130198408849537373e-04,-4.108639841433614492e-04,1.984398550121113658e-04,-8.450190536677837372e-03,0.000000000000000000e+00
1.219780683517456055e+00,-1.033827846509641907e-01,-4.988281386151850461e-01,3.000003205094125547e-01,1.402334812415998756e-02,2.215088423371223580e+00,2.215087839875669040e+00,2.034489379896776279e-02,-3.739341921391577377e-03,1.342493304522057766e-07,-8.521498119198404252e-07,-8.991486977145564777e-08,2.709387056529544494e-02,-1.469221417103902638e+00,-2.043079201375142873e+00,-2.119662586842672169e+00,1.021149396896362305e+00,-1.685033146535054982e+00,-3.141593043004171193e+00,3.869704902172088623e-02,2.766319375950843096e-04,-5.335368914529681206e-04,2.577618288341909647e-04,-1.160317845642566681e-02,0.000000000000000000e+00
1.228884220123291016e+00,-1.032129463718018253e-01,-4.988594123080283271e-01,3.000004031496820711e-01,1.377159676437412182e-02,2.215203301944179692e+00,2.215202455994258024e+00,2.616315602269427346e-02,-4.829535415860596211e-03,1.617327192015437833e-07,-1.105000526281828413e-06,-1.185685276264250683e-07,3.527401760220610916e-02,-1.468898121510640919e+00,-2.043076817189351857e+00,-2.119666878377095998e+00,1.021151423454284668e+00,-1.685128513966695607e+00,-3.141593043004171193e+00,4.982449114322662354e-02,3.318751696497201920e-04,-6.400556885637342930e-04,3.092918486800044775e-04,-1.455047354102134705e-02,0.000000000000000000e+00
1.237318038940429688e+00,-1.030254806587866112e-01,-4.988939362194012572e-01,3.000003759914196544e-01,1.349141894395632785e-02,2.215330752918297286e+00,2.215330432139387629e+00,3.214839393354771563e-02,-5.937476010506306454e-03,1.930654609318705659e-07,-1.362995391398718762e-06,-1.424050309335479528e-07,4.356410354375828825e-02,-1.468540970479146779e+00,-2.043074433003560841e+00,-2.119671646748678029e+00,1.021153569221496582e+00,-1.685231987630025685e+00,-3.141593043004171193e+00,6.125158071517944336e-02,3.954955609515309334e-04,-7.627385784871876240e-04,3.686134296003729105e-04,-1.768747717142105103e-02,0.000000000000000000e+00
1.245288372039794922e+00,-1.030254806587866112e-01,-4.988939362194012572e-01,3.000003759914196544e-01,1.349141894395632785e-02,2.215330752918297286e+00,2.215330432139387629e+00,0.000000000000000000e+00,0.000000000000000000e+00,0.000000000000000000e+00,0.000000000000000000e+00,0.000000000000000000e+00,0.000000000000000000e+00,-1.468540970479146779e+00,-2.043074433003560841e+00,-2.119671646748678029e+00,1.021153569221496582e+00,-1.685231987630025685e+00,-3.141593043004171193e+00,0.000000000000000000e+00,0.000000000000000000e+00,0.000000000000000000e+00,0.000000000000000000e+00,0.000000000000000000e+00,0.000000000000000000e+00
1.255082368850708008e+00,-1.030254806587866112e-01,-4.988939362194012572e-01,3.000003759914196544e-01,1.349141894395632785e-02,2.215330752918297286e+00,2.215330432139387629e+00,0.000000000000000000e+00,0.000000000000000000e+00,0.000000000000000000e+00,0.000000000000000000e+00,0.000000000000000000e+00,0.000000000000000000e+00,-1.468540970479146779e+00,-2.043074433003560841e+00,-2.119671646748678029e+00,1.021153569221496582e+00,-1.685231987630025685e+00,-3.141593043004171193e+00,0.000000000000000000e+00,0.000000000000000000e+00,0.000000000000000000e+00,0.000000000000000000e+00,0.000000000000000000e+00,0.000000000000000000e+00
1.263359785079956055e+00,-1.030254806587866112e-01,-4.988939362194012572e-01,3.000003759914196544e-01,1.349141894395632785e-02,2.215330752918297286e+00,2.215330432139387629e+00,0.000000000000000000e+00,0.000000000000000000e+00,0.000000000000000000e+00,0.000000000000000000e+00,0.000000000000000000e+00,0.000000000000000000e+00,-1.468540970479146779e+00,-2.043074433003560841e+00,-2.119671646748678029e+00,1.021153569221496582e+00,-1.685231987630025685e+00,-3.141593043004171193e+00,0.000000000000000000e+00,0.000000000000000000e+00,0.000000000000000000e+00,0.000000000000000000e+00,0.000000000000000000e+00,0.000000000000000000e+00
1.271442174911499023e+00,-1.029995298862914493e-01,-4.988988556477733094e-01,3.000002552748068374e-01,1.345141548511032126e-02,2.215348744699859651e+00,2.215348949026191061e+00,6.685071070124121682e-03,-1.257965527374732637e-03,2.767436656383151572e-08,-2.785696273821014950e-07,-2.827447430921487102e-08,9.402901399880606026e-03,-1.468491379414693654e+00,-2.043074433003560841e+00,-2.119672123585836232e+00,1.021153807640075684e+00,-1.685245339070455373e+00,-3.141593043004171193e+00,1.278719957917928696e-02,6.331822078209370375e-05,-1.221055281348526478e-04,5.906730802962556481e-05,-3.384298179298639297e-03,0.000000000000000000e+00
1.280085086822509766e+00,-1.029325185992919639e-01,-4.989115146036228743e-01,3.000004661900029235e-01,1.334651984407078142e-02,2.215397131304794875e+00,2.215396022930326669e+00,1.212420555148498690e-02,-2.291665631010276604e-03,5.102633495443550442e-08,-5.225533574910312253e-07,-5.673006803557948091e-08,1.722521847114031474e-02,-1.468363110219137013e+00,-2.043073479329244435e+00,-2.119673077260152638e+00,1.021154403686523438e+00,-1.685278717671529591e+00,-3.141593043004171193e+00,2.321587130427360535e-02,1.053661690093576908e-04,-2.031575859291478992e-04,9.831703209783881903e-05,-5.990652833133935928e-03,0.000000000000000000e+00
1.288544893264770508e+00,-1.028297196341670938e-01,-4.989311366195356978e-01,3.000003356740602589e-01,1.318429948548405575e-02,2.215470800205831647e+00,2.215470216980980123e+00,1.686959876937661404e-02,-3.201137671752809794e-03,6.180001108314374597e-08,-7.392399336402145694e-07,-7.828081487571555899e-08,2.419993001967681023e-02,-1.468166176472799123e+00,-2.043073002492086232e+00,-2.119674507771627248e+00,1.021155118942260742e+00,-1.685328785573140919e+00,-3.141593043004171193e+00,3.233557939529418945e-02,1.337485737167298794e-04,-2.578686107881367207e-04,1.248634071089327335e-04,-8.135649375617504120e-03,0.000000000000000000e+00
1.297441720962524414e+00,-1.026942488984886048e-01,-4.989566736079523723e-01,3.000004488301667438e-01,1.296830196478506413e-02,2.215569189191017863e+00,2.215568606035158705e+00,2.129351729755410080e-02,-4.049287741358350082e-03,6.875920772206779124e-08,-9.293534475574012052e-07,-9.861979876658022346e-08,3.075681719928995833e-02,-1.467906300221578419e+00,-2.043071571980611623e+00,-2.119676891957418263e+00,1.021156072616577148e+00,-1.685393158589498341e+00,-3.141593043004171193e+00,4.084446281194686890e-02,1.571490138303488493e-04,-3.029788786079734564e-04,1.467644324293360114e-04,-1.008764561265707016e-02,0.000000000000000000e+00
1.306441545486450195e+00,-1.025260216700160099e-01,-4.989888747471998842e-01,3.000004073932520665e-01,1.269851293641756015e-02,2.215692290379997598e+00,2.215691182171339868e+00,2.564344435698671931e-02,-4.891630880779910921e-03,7.528945045422661719e-08,-1.124417206584621858e-06,-1.224330267212758816e-07,3.738650958985215850e-02,-1.467583481465474904e+00,-2.043070618306295216e+00,-2.119678799306051076e+00,1.021157264709472656e+00,-1.685471836720601857e+00,-3.141593043004171193e+00,4.923646152019500732e-02,1.700662542134523392e-04,-3.278434160165488720e-04,1.589082094142213464e-04,-1.184995193034410477e-02,0.000000000000000000e+00
1.314784049987792969e+00,-1.023242370139450658e-01,-4.990272353510757375e-01,3.000003998322705590e-01,1.237183917724743627e-02,2.215840784247987916e+00,2.215840201282259336e+00,3.012872318820239773e-02,-5.756170686939295067e-03,7.935214672328149487e-08,-1.340896217333008553e-06,-1.430174736331119819e-07,4.423402994871159649e-02,-1.467195812855855763e+00,-2.043069187794820607e+00,-2.119681660329000294e+00,1.021158456802368164e+00,-1.685563866292135060e+00,-3.141593043004171193e+00,5.788982659578323364e-02,1.826714287744835019e-04,-3.521068720147013664e-04,1.707839401206001639e-04,-1.365579664707183838e-02,0.000000000000000000e+00
1.324330806732177734e+00,-1.020865504507488114e-01,-4.990727662717031610e-01,3.000004911497512472e-01,1.198498026272855690e-02,2.216017096014888388e+00,2.216015987987419056e+00,3.491455221483010657e-02,-6.673772638152991078e-03,8.585425829253069504e-08,-1.570473428531595549e-06,-1.718506473045242377e-07,5.155107378959817438e-02,-1.466739002858297169e+00,-2.043067757283345998e+00,-2.119684044514791310e+00,1.021159648895263672e+00,-1.685670677815572560e+00,-3.141593043004171193e+00,6.712285429239273071e-02,1.954507315531373024e-04,-3.766942827496677637e-04,1.828233798732981086e-04,-1.557178050279617310e-02,0.000000000000000000e+00
1.332839012145996094e+00,-1.018504389003829502e-01,-4.991179738888114059e-01,3.000003508341648195e-01,1.159917242579099061e-02,2.216192395205938581e+00,2.216191812486099089e+00,4.052603415145194371e-02,-7.738168427248771214e-03,9.622154189308175005e-08,-1.832771834855704184e-06,-1.969743606089860732e-07,5.999734066426776896e-02,-1.466285053883687794e+00,-2.043066803609029591e+00,-2.119686428700582326e+00,1.021160840988159180e+00,-1.685775581990377248e+00,-3.141593043004171193e+00,7.792855799198150635e-02,2.177162095904350281e-04,-4.195791843812912703e-04,2.037062949966639280e-04,-1.793121732771396637e-02,0.000000000000000000e+00
1.340967655181884766e+00,-1.018504389003829502e-01,-4.991179738888114059e-01,3.000003508341648195e-01,1.159917242579099061e-02,2.216192395205938581e+00,2.216191812486099089e+00,0.000000000000000000e+00,0.000000000000000000e+00,0.000000000000000000e+00,0.000000000000000000e+00,0.000000000000000000e+00,0.000000000000000000e+00,-1.466285053883687794e+00,-2.043066803609029591e+00,-2.119686428700582326e+00,1.021160840988159180e+00,-1.685775581990377248e+00,-3.141593043004171193e+00,0.000000000000000000e+00,0.000000000000000000e+00,0.000000000000000000e+00,0.000000000000000000e+00,0.000000000000000000e+00,0.000000000000000000e+00
1.349632501602172852e+00,-1.018504389003829502e-01,-4.991179738888114059e-01,3.000003508341648195e-01,1.159917242579099061e-02,2.216192395205938581e+00,2.216191812486099089e+00,0.000000000000000000e+00,0.000000000000000000e+00,0.000000000000000000e+00,0.000000000000000000e+00,0.000000000000000000e+00,0.000000000000000000e+00,-1.466285053883687794e+00,-2.043066803609029591e+00,-2.119686428700582326e+00,1.021160840988159180e+00,-1.685775581990377248e+00,-3.141593043004171193e+00,0.000000000000000000e+00,0.000000000000000000e+00,0.000000000000000000e+00,0.000000000000000000e+00,0.000000000000000000e+00,0.000000000000000000e+00
1.362571477890014648e+00,-1.018202885262037144e-01,-4.991236378330906609e-01,3.000004726692606094e-01,1.154855187128360494e-02,2.216215540329751210e+00,2.216214695019323333e+00,7.763344829870893506e-03,-1.504341963805166070e-03,1.204115054212087399e-08,-3.688651474269749804e-07,-3.992367936686895584e-08,1.182028930634275617e-02,-1.466226879750387013e+00,-2.043066326771871388e+00,-2.119686905537740529e+00,1.021160960197448730e+00,-1.685787979756490529e+00,-3.141593043004171193e+00,1.497600041329860687e-02,2.372518974880222231e-05,-4.566547795548103750e-05,2.231130565633065999e-05,-3.155711106956005096e-03,0.000000000000000000e+00
1.370992660522460938e+00,-1.017387350954760961e-01,-4.991394809099585217e-01,3.000003519529829132e-01,1.141099042317489723e-02,2.216277874274422022e+00,2.216277554225252189e+00,1.452473919816445538e-02,-2.814909799282531641e-03,1.891665272951536933e-08,-6.721489627144210854e-07,-7.149472784554017903e-08,2.215534495189778325e-02,-1.466069523488179982e+00,-2.043066326771871388e+00,-2.119687382374898732e+00,1.021161198616027832e+00,-1.685820881520406544e+00,-3.141593043004171193e+00,2.802431955933570862e-02,4.212767817080020905e-05,-8.108896872727200389e-05,3.963723065680824220e-05,-5.868974607437849045e-03,0.000000000000000000e+00
1.379549026489257812e+00,-1.016099693498277029e-01,-4.991644893616852818e-01,3.000004519512942669e-01,1.119373848451921810e-02,2.216377030921260260e+00,2.216375923092834377e+00,2.076522549468460405e-02,-4.022909768750663681e-03,2.210582752541829324e-08,-9.555991527763822483e-07,-1.048828686182957740e-07,3.173229005187835211e-02,-1.465821091328756154e+00,-2.043065849934713185e+00,-2.119687859212056935e+00,1.021161556243896484e+00,-1.685872856770650685e+00,-3.141593043004171193e+00,4.007162898778915405e-02,5.694548963219858706e-05,-1.096079140552319586e-04,5.362375304684974253e-05,-8.339338935911655426e-03,0.000000000000000000e+00
1.387557268142700195e+00,-1.014353166009570595e-01,-4.991982891857419391e-01,3.000004421517493136e-01,1.089794564607209082e-02,2.216511520711404337e+00,2.216510412956741227e+00,2.683839287597915638e-02,-5.195121819213214219e-03,3.006625927627414819e-08,-1.246702605616499682e-06,-1.371739743733050682e-07,4.108719434589257202e-02,-1.465483967457906544e+00,-2.043065373097554982e+00,-2.119688812886373341e+00,1.021162033081054688e+00,-1.685942474995748341e+00,-3.141593043004171193e+00,5.179920047521591187e-02,6.937041325727477670e-05,-1.334872795268893242e-04,6.537108129123225808e-05,-1.071200612932443619e-02,0.000000000000000000e+00
1.396507501602172852e+00,-1.012139457706169171e-01,-4.992411684999745747e-01,3.000004323522901251e-01,1.052301254465256783e-02,2.216681942039038233e+00,2.216680834377943388e+00,3.302138519603268346e-02,-6.385898649025638883e-03,3.375774121923692605e-08,-1.538015988665633121e-06,-1.698173695355900032e-07,5.067928135395181888e-02,-1.465056721364156544e+00,-2.043064896260396779e+00,-2.119689766560689748e+00,1.021162509918212891e+00,-1.686030689870015919e+00,-3.141593043004171193e+00,6.374649703502655029e-02,7.815935532562434673e-05,-1.503588428022339940e-04,7.374683627858757973e-05,-1.306721568107604980e-02,0.000000000000000000e+00
