ThomasAsmussen/golf_robot/log/run1_20251013_152857.csv
t,x,y,z,rx,ry,rz,vx,vy,vz,wx,wy,wz,q1,q2,q3,q4,q5,q6,dq1,dq2,dq3,dq4,dq5,dq6
2.699389457702636719e-01,-1.000000822680490037e-01,-5.000002094581326162e-01,3.000001472795442714e-01,-4.422814919258157490e-09,2.221441698759650141e+00,2.221440329442017081e+00,0.000000000000000000e+00,0.000000000000000000e+00,0.000000000000000000e+00,0.000000000000000000e+00,0.000000000000000000e+00,0.000000000000000000e+00,-1.461602036152974904e+00,-2.043482128773824513e+00,-2.118884865437642873e+00,1.020774960517883301e+00,-1.679991070424215138e+00,-3.141593043004171193e+00,0.000000000000000000e+00,0.000000000000000000e+00,0.000000000000000000e+00,0.000000000000000000e+00,0.000000000000000000e+00,0.000000000000000000e+00
2.779181003570556641e-01,-1.000000822680490037e-01,-5.000002094581326162e-01,3.000001472795442714e-01,-4.422814919258157490e-09,2.221441698759650141e+00,2.221440329442017081e+00,0.000000000000000000e+00,0.000000000000000000e+00,0.000000000000000000e+00,0.000000000000000000e+00,0.000000000000000000e+00,0.000000000000000000e+00,-1.461602036152974904e+00,-2.043482128773824513e+00,-2.118884865437642873e+00,1.020774960517883301e+00,-1.679991070424215138e+00,-3.141593043004171193e+00,0.000000000000000000e+00,0.000000000000000000e+00,0.000000000000000000e+00,0.000000000000000000e+00,0.000000000000000000e+00,0.000000000000000000e+00
2.868230342864990234e-01,-1.000000822680490037e-01,-5.000002094581326162e-01,3.000001472795442714e-01,-4.422814919258157490e-09,2.221441698759650141e+00,2.221440329442017081e+00,0.000000000000000000e+00,0.000000000000000000e+00,0.000000000000000000e+00,0.000000000000000000e+00,0.000000000000000000e+00,0.000000000000000000e+00,-1.461602036152974904e+00,-2.043482128773824513e+00,-2.118884865437642873e+00,1.020774960517883301e+00,-1.679991070424215138e+00,-3.141593043004171193e+00,0.000000000000000000e+00,0.000000000000000000e+00,0.000000000000000000e+00,0.000000000000000000e+00,0.000000000000000000e+00,0.000000000000000000e+00
2.953135967254638672e-01,-1.000000822680490037e-01,-5.000002094581326162e-01,3.000001472795442714e-01,-4.422814919258157490e-09,2.221441698759650141e+00,2.221440329442017081e+00,0.000000000000000000e+00,0.000000000000000000e+00,0.000000000000000000e+00,0.000000000000000000e+00,0.000000000000000000e+00,0.000000000000000000e+00,-1.461602036152974904e+00,-2.043482128773824513e+00,-2.118884865437642873e+00,1.020774960517883301e+00,-1.679991070424215138e+00,-3.141593043004171193e+00,0.000000000000000000e+00,0.000000000000000000e+00,0.000000000000000000e+00,0.000000000000000000e+00,0.000000000000000000e+00,0.000000000000000000e+00
3.037264347076416016e-01,-1.000000822680490037e-01,-5.000002094581326162e-01,3.000001472795442714e-01,-4.422814919258157490e-09,2.221441698759650141e+00,2.221440329442017081e+00,0.000000000000000000e+00,0.000000000000000000e+00,0.000000000000000000e+00,0.000000000000000000e+00,0.000000000000000000e+00,0.000000000000000000e+00,-1.461602036152974904e+00,-2.043482128773824513e+00,-2.118884865437642873e+00,1.020774960517883301e+00,-1.679991070424215138e+00,-3.141593043004171193e+00,0.000000000000000000e+00,0.000000000000000000e+00,0.000000000000000000e+00,0.000000000000000000e+00,0.000000000000000000e+00,0.000000000000000000e+00
3.120677471160888672e-01,-1.000000822680490037e-01,-5.000002094581326162e-01,3.000001472795442714e-01,-4.422814919258157490e-09,2.221441698759650141e+00,2.221440329442017081e+00,0.000000000000000000e+00,0.000000000000000000e+00,0.000000000000000000e+00,0.000000000000000000e+00,0.000000000000000000e+00,0.000000000000000000e+00,-1.461602036152974904e+00,-2.043482128773824513e+00,-2.118884865437642873e+00,1.020774960517883301e+00,-1.679991070424215138e+00,-3.141593043004171193e+00,0.000000000000000000e+00,0.000000000000000000e+00,0.000000000000000000e+00,0.000000000000000000e+00,0.000000000000000000e+00,0.000000000000000000e+00
3.198637962341308594e-01,-1.000000822680490037e-01,-5.000002094581326162e-01,3.000001472795442714e-01,-4.422814919258157490e-09,2.221441698759650141e+00,2.221440329442017081e+00,0.000000000000000000e+00,0.000000000000000000e+00,0.000000000000000000e+00,0.000000000000000000e+00,0.000000000000000000e+00,0.000000000000000000e+00,-1.461602036152974904e+00,-2.043482128773824513e+00,-2.118884865437642873e+00,1.020774960517883301e+00,-1.679991070424215138e+00,-3.141593043004171193e+00,0.000000000000000000e+00,0.000000000000000000e+00,0.000000000000000000e+00,0.000000000000000000e+00,0.000000000000000000e+00,0.000000000000000000e+00
3.283314704895019531e-01,-1.000000822680490037e-01,-5.000002094581326162e-01,3.000001472795442714e-01,-4.422814919258157490e-09,2.221441698759650141e+00,2.221440329442017081e+00,0.000000000000000000e+00,0.000000000000000000e+00,0.000000000000000000e+00,0.000000000000000000e+00,0.000000000000000000e+00,0.000000000000000000e+00,-1.461602036152974904e+00,-2.043482128773824513e+00,-2.118884865437642873e+00,1.020774960517883301e+00,-1.679991070424215138e+00,-3.141593043004171193e+00,0.000000000000000000e+00,0.000000000000000000e+00,0.000000000000000000e+00,0.000000000000000000e+00,0.000000000000000000e+00,0.000000000000000000e+00
3.370327949523925781e-01,-1.000000822680490037e-01,-5.000002094581326162e-01,3.000001472795442714e-01,-4.422814919258157490e-09,2.221441698759650141e+00,2.221440329442017081e+00,0.000000000000000000e+00,0.000000000000000000e+00,0.000000000000000000e+00,0.000000000000000000e+00,0.000000000000000000e+00,0.000000000000000000e+00,-1.461602036152974904e+00,-2.043482128773824513e+00,-2.118884865437642873e+00,1.020774960517883301e+00,-1.679991070424215138e+00,-3.141593043004171193e+00,0.000000000000000000e+00,0.000000000000000000e+00,0.000000000000000000e+00,0.000000000000000000e+00,0.000000000000000000e+00,0.000000000000000000e+00
3.454780578613281250e-01,-1.000000822680490037e-01,-5.000002094581326162e-01,3.000001472795442714e-01,-4.422814919258157490e-09,2.221441698759650141e+00,2.221440329442017081e+00,0.000000000000000000e+00,0.000000000000000000e+00,0.000000000000000000e+00,0.000000000000000000e+00,0.000000000000000000e+00,0.000000000000000000e+00,-1.461602036152974904e+00,-2.043482128773824513e+00,-2.118884865437642873e+00,1.020774960517883301e+00,-1.679991070424215138e+00,-3.141593043004171193e+00,0.000000000000000000e+00,0.000000000000000000e+00,0.000000000000000000e+00,0.000000000000000000e+00,0.000000000000000000e+00,0.000000000000000000e+00
3.540132045745849609e-01,-1.000000822680490037e-01,-5.000002094581326162e-01,3.000001472795442714e-01,-4.422814919258157490e-09,2.221441698759650141e+00,2.221440329442017081e+00,0.000000000000000000e+00,0.000000000000000000e+00,0.000000000000000000e+00,0.000000000000000000e+00,0.000000000000000000e+00,0.000000000000000000e+00,-1.461602036152974904e+00,-2.043482128773824513e+00,-2.118884865437642873e+00,1.020774960517883301e+00,-1.679991070424215138e+00,-3.141593043004171193e+00,0.000000000000000000e+00,0.000000000000000000e+00,0.000000000000000000e+00,0.000000000000000000e+00,0.000000000000000000e+00,0.000000000000000000e+00
3.620791435241699219e-01,-1.000000822680490037e-01,-5.000002094581326162e-01,3.000001472795442714e-01,-4.422814919258157490e-09,2.221441698759650141e+00,2.221440329442017081e+00,0.000000000000000000e+00,0.000000000000000000e+00,0.000000000000000000e+00,0.000000000000000000e+00,0.000000000000000000e+00,0.000000000000000000e+00,-1.461602036152974904e+00,-2.043482128773824513e+00,-2.118884865437642873e+00,1.020774960517883301e+00,-1.679991070424215138e+00,-3.141593043004171193e+00,0.000000000000000000e+00,0.000000000000000000e+00,0.000000000000000000e+00,0.000000000000000000e+00,0.000000000000000000e+00,0.000000000000000000e+00
3.707053661346435547e-01,-1.000000822680490037e-01,-5.000002094581326162e-01,3.000001472795442714e-01,-4.422814919258157490e-09,2.221441698759650141e+00,2.221440329442017081e+00,0.000000000000000000e+00,0.000000000000000000e+00,0.000000000000000000e+00,0.000000000000000000e+00,0.000000000000000000e+00,0.000000000000000000e+00,-1.461602036152974904e+00,-2.043482128773824513e+00,-2.118884865437642873e+00,1.020774960517883301e+00,-1.679991070424215138e+00,-3.141593043004171193e+00,0.000000000000000000e+00,0.000000000000000000e+00,0.000000000000000000e+00,0.000000000000000000e+00,0.000000000000000000e+00,0.000000000000000000e+00
3.791520595550537109e-01,-1.000000822680490037e-01,-5.000002094581326162e-01,3.000001472795442714e-01,-4.422814919258157490e-09,2.221441698759650141e+00,2.221440329442017081e+00,0.000000000000000000e+00,0.000000000000000000e+00,0.000000000000000000e+00,0.000000000000000000e+00,0.000000000000000000e+00,0.000000000000000000e+00,-1.461602036152974904e+00,-2.043482128773824513e+00,-2.118884865437642873e+00,1.020774960517883301e+00,-1.679991070424215138e+00,-3.141593043004171193e+00,0.000000000000000000e+00,0.000000000000000000e+00,0.000000000000000000e+00,0.000000000000000000e+00,0.000000000000000000e+00,0.000000000000000000e+00
3.870403766632080078e-01,-1.000003206867166317e-01,-5.000001617743204951e-01,3.000001472795442714e-01,5.252101020741351578e-07,2.221441460341464946e+00,2.221440091023129337e+00,-2.622633808512134332e-05,5.733867314118246728e-06,-1.066715770614943882e-08,-1.229490040741963680e-13,1.121491765674579956e-12,-5.017999944811925159e-05,-1.461602512990133107e+00,-2.043482128773824513e+00,-2.118884865437642873e+00,1.020774960517883301e+00,-1.679991070424215138e+00,-3.141593043004171193e+00,-5.199999941396526992e-05,5.200000146032834891e-07,-1.040000029206566978e-06,5.200000146032834891e-07,1.819999965846363921e-06,0.000000000000000000e+00
3.967380523681640625e-01,-1.000005591053615001e-01,-5.000001140903951313e-01,3.000001472795442714e-01,1.054602842150914556e-06,2.221441221980504643e+00,2.221439852638395607e+00,-2.824374645927125337e-05,6.174947611245870766e-06,-1.148770776074350155e-08,-1.324060438767068148e-13,1.207760426166293905e-12,-5.404000080488951174e-05,-1.461602989827291310e+00,-2.043482128773824513e+00,-2.118884865437642873e+00,1.020774960517883301e+00,-1.679991070424215138e+00,-3.141593043004171193e+00,-5.600000076810829341e-05,5.599999894911888987e-07,-1.119999978982377797e-06,5.599999894911888987e-07,1.959999963219161145e-06,0.000000000000000000e+00
4.058377742767333984e-01,-1.000012758641989352e-01,-4.999999573275704101e-01,3.000001363538995491e-01,2.629290293184769026e-06,2.221440631806929300e+00,2.221438999231642342e+00,-1.155831604744944862e-04,2.507622979170716907e-05,-4.307892080842607139e-08,-6.524068946920881045e-13,5.951100203166063351e-12,-2.210999991802986857e-04,-1.461604420338765919e+00,-2.043482128773824513e+00,-2.118884865437642873e+00,1.020775079727172852e+00,-1.679991070424215138e+00,-3.141593043004171193e+00,-2.291999990120530128e-04,2.100000074278796092e-06,-4.200000148557592183e-06,2.100000074278796092e-06,8.099999831756576896e-06,0.000000000000000000e+00
4.154837131500244141e-01,-1.000044386072478780e-01,-4.999991610025942279e-01,3.000000374132487102e-01,9.042611821783159927e-06,2.221437270254872587e+00,2.221436690655786972e+00,-5.206994561949051040e-04,1.128139312604083930e-04,-5.477231350298245897e-09,-1.033419914911426571e-12,9.427149608523670550e-12,-9.964799937733927714e-04,-1.461610619221822560e+00,-2.043482128773824513e+00,-2.118885342274801076e+00,1.020775079727172852e+00,-1.679990593587056935e+00,-3.141593043004171193e+00,-1.032639993354678154e-03,9.600000339560210705e-06,-1.856000017141923308e-05,8.959999831859022379e-06,3.615999958128668368e-05,0.000000000000000000e+00
4.252114295959472656e-01,-1.000106919119444632e-01,-4.999978255616432388e-01,3.000002582897425274e-01,2.221121231818006740e-05,2.221431935377750300e+00,2.221430039579175286e+00,-1.493501895636671324e-03,3.240503706599261896e-04,2.893795700676915013e-08,2.334059365263575480e-07,2.567064357730867648e-08,-2.861281558580219646e-03,-1.461623016987935841e+00,-2.043481651936666310e+00,-2.118885342274801076e+00,1.020775198936462402e+00,-1.679990116749898732e+00,-3.141593043004171193e+00,-2.962297527119517326e-03,2.801324262691196054e-05,-5.408066499512642622e-05,2.583260902611073107e-05,1.010159685392864048e-04,0.000000000000000000e+00
4.336674213409423828e-01,-1.000202933961199941e-01,-4.999957277865939576e-01,3.000001484234592342e-01,4.290990136298911535e-05,2.221422261532203457e+00,2.221421155444126772e+00,-2.018413827051043254e-03,4.382180147728874332e-04,4.561899296935025258e-09,1.724517858341879595e-07,1.896605742285006470e-08,-3.870815678965282541e-03,-1.461642090474263966e+00,-2.043481651936666310e+00,-2.118885819111959279e+00,1.020775318145751953e+00,-1.679989639912740529e+00,-3.141593043004171193e+00,-4.004027228802442551e-03,3.798651232500560582e-05,-7.340600859606638551e-05,3.524600469972938299e-05,1.332115498371422291e-04,0.000000000000000000e+00
4.436655044555664062e-01,-1.000325718418232229e-01,-4.999930095693976284e-01,3.000002594335345329e-01,6.883247938481153140e-05,2.221410828952274930e+00,2.221409196386223694e+00,-2.421867886361182658e-03,5.260120978384737233e-04,1.175089643861658498e-08,1.520036406425664533e-07,1.677175989050950285e-08,-4.646769288228836878e-03,-1.461666409169332326e+00,-2.043481175099508107e+00,-2.118886295949117482e+00,1.020775556564331055e+00,-1.679988686238424123e+00,-3.141593043004171193e+00,-4.804730415344238281e-03,4.569787415675818920e-05,-8.826955308904871345e-05,4.241875285515561700e-05,1.579611271154135466e-04,0.000000000000000000e+00
4.537026882171630859e-01,-1.000467485586383626e-01,-4.999899912665495272e-01,3.000001386417154858e-01,9.904938317477053828e-05,2.221396988279676687e+00,2.221395882179835191e+00,-2.807253049333901119e-03,6.100837523391818180e-04,8.346828234699004597e-10,2.043717496865785842e-07,2.247676729621276379e-08,-5.390112448367270249e-03,-1.461694542561666310e+00,-2.043481175099508107e+00,-2.118886772786275685e+00,1.020775794982910156e+00,-1.679987732564107716e+00,-3.141593043004171193e+00,-5.569892004132270813e-03,5.317874092725105584e-05,-1.027709513437002897e-04,4.938660640618763864e-05,1.797795557649806142e-04,0.000000000000000000e+00
4.630045890808105469e-01,-1.000635581847812705e-01,-4.999863521434028124e-01,3.000002387260107817e-01,1.350194522422600008e-04,2.221381150252714320e+00,2.221379254442829243e+00,-3.210527848112510255e-03,6.984514511419647126e-04,3.133249829643099750e-08,1.685111766736551985e-07,1.862354930337196749e-08,-6.173222718643994050e-03,-1.461727921162740529e+00,-2.043480698262349904e+00,-2.118887249623433888e+00,1.020776152610778809e+00,-1.679986778889791310e+00,-3.141593043004171193e+00,-6.371354684233665466e-03,6.135940202511847019e-05,-1.184582288260571659e-04,5.692928971257060766e-05,1.981319655897095799e-04,0.000000000000000000e+00
4.721462726593017578e-01,-1.000827710935902753e-01,-4.999820588071861582e-01,3.000002398697843575e-01,1.763426397968340695e-04,2.221362427040782350e+00,2.221360794459160015e+00,-3.647106314403121378e-03,7.939505721141519243e-04,3.293444387034275256e-08,2.014144530426285030e-07,2.221166197507077358e-08,-7.018080417765322661e-03,-1.461766068135396779e+00,-2.043480221425191701e+00,-2.118888203297750294e+00,1.020776510238647461e+00,-1.679985825215474904e+00,-3.141593043004171193e+00,-7.238596212118864059e-03,6.999743345659226179e-05,-1.351467071799561381e-04,6.494663830380886793e-05,2.205157943535596132e-04,0.000000000000000000e+00
4.805617332458496094e-01,-1.001050988253085472e-01,-4.999774024778183001e-01,3.000001081525405233e-01,2.240201619313972325e-04,2.221340842106347857e+00,2.221339472747842603e+00,-4.124753454710113412e-03,8.984408978183289294e-04,4.450059469379248340e-08,2.598720113632066155e-07,2.858814976961404205e-08,-7.941860792925574397e-03,-1.461810413991109669e+00,-2.043480221425191701e+00,-2.118888680134908498e+00,1.020776867866516113e+00,-1.679984394704000294e+00,-3.141593043004171193e+00,-8.187354542315006256e-03,7.942788943182677031e-05,-1.533403265057131648e-04,7.365099736489355564e-05,2.454937493894249201e-04,0.000000000000000000e+00
4.886093139648437500e-01,-1.001305553593133946e-01,-4.999718524673955056e-01,3.000000983707586388e-01,2.785668011218800995e-04,2.221316281920190594e+00,2.221314912551761722e+00,-4.648781649160291761e-03,1.013538553977635492e-03,5.678690559190225309e-08,2.567835303585761457e-07,2.825102585775791698e-08,-8.961263898527249694e-03,-1.461860958729879201e+00,-2.043479744588033498e+00,-2.118889633809224904e+00,1.020777344703674316e+00,-1.679982964192525685e+00,-3.141593043004171193e+00,-9.229130111634731293e-03,9.009180939756333828e-05,-1.738948485581204295e-04,8.354470628546550870e-05,2.678662131074815989e-04,0.000000000000000000e+00
4.970202445983886719e-01,-1.001594214188221421e-01,-4.999653742355189001e-01,3.000002214497151654e-01,3.399965260327646177e-04,2.221288621103191030e+00,2.221287251723465417e+00,-5.225111780294140230e-03,1.140037589081785733e-03,6.639481745236873640e-08,2.954575263535620860e-07,3.248026443895062007e-08,-1.008001819718628775e-02,-1.461918179188863576e+00,-2.043478790913717091e+00,-2.118891064320699513e+00,1.020777821540832520e+00,-1.679981056843892873e+00,-3.141593043004171193e+00,-1.037456467747688293e-02,1.016863461700268090e-04,-1.962685200851410627e-04,9.428493649465963244e-05,2.945464802905917168e-04,0.000000000000000000e+00
5.056781768798828125e-01,-1.002134320159955572e-01,-4.999536461858278269e-01,3.000002018858388131e-01,4.559674392099336612e-04,2.221236397072714031e+00,2.221235027671662809e+00,-8.576382202964780849e-03,1.872460951870962963e-03,1.102207561125154691e-07,4.882647217514795629e-07,5.361893759443184879e-08,-1.654922190937212906e-02,-1.462025467549459279e+00,-2.043477837239400685e+00,-2.118892971669332326e+00,1.020778775215148926e+00,-1.679978195820943654e+00,-3.141593043004171193e+00,-1.702954806387424469e-02,1.671142817940562963e-04,-3.225504478905349970e-04,1.549449661979451776e-04,4.803261545021086931e-04,0.000000000000000000e+00
5.142955780029296875e-01,-1.002621966446768098e-01,-4.999429641217705278e-01,3.000001823219106689e-01,5.602836486656611855e-04,2.221189416705917186e+00,2.221188047285777234e+00,-8.023978256751098867e-03,1.753686871263370655e-03,1.004249196852706299e-07,4.815460997728434536e-07,5.281106502170171840e-08,-1.549815371981820220e-02,-1.462122265492574513e+00,-2.043476883565084279e+00,-2.118894879017965138e+00,1.020779728889465332e+00,-1.679975334797994435e+00,-3.141593043004171193e+00,-1.593515649437904358e-02,1.571508473716676235e-04,-3.033374669030308723e-04,1.457021862734109163e-04,4.370027745608240366e-04,0.000000000000000000e+00
5.228192806243896484e-01,-1.003109146854021666e-01,-4.999322910394381481e-01,3.000001736835984367e-01,6.651393245529114854e-04,2.221142070260105239e+00,2.221140964033784915e+00,-8.146440627074863841e-03,1.782499325556469909e-03,9.717756530063420975e-08,4.714020163294566478e-07,5.160154725081591760e-08,-1.575258091907012770e-02,-1.462219063435689748e+00,-2.043475929890767873e+00,-2.118896786366597951e+00,1.020780563354492188e+00,-1.679972950612203419e+00,-3.141593043004171193e+00,-1.618128642439842224e-02,1.605094876140356064e-04,-3.098321030847728252e-04,1.488483976572751999e-04,4.287055053282529116e-04,0.000000000000000000e+00
5.313367843627929688e-01,-1.003625376297128946e-01,-4.999210251971039631e-01,3.000001541195700949e-01,7.758002885301644880e-04,2.221092222854928355e+00,2.221091116603872706e+00,-8.647345015780721206e-03,1.894790215484455729e-03,9.950448570927794211e-08,5.076742748661629597e-07,5.550514589210402991e-08,-1.674692810047412675e-02,-1.462321583424703419e+00,-2.043474976216451466e+00,-2.118898693715230763e+00,1.020781517028808594e+00,-1.679970089589254201e+00,-3.141593043004171193e+00,-1.718034595251083374e-02,1.717670093057677150e-04,-3.315784852020442486e-04,1.593007764313369989e-04,4.334178520366549492e-04,0.000000000000000000e+00
5.394902229309082031e-01,-1.004188843520930491e-01,-4.999087827018612873e-01,3.000001236298208140e-01,8.975601836367348794e-04,2.221037488807349192e+00,2.221036119325650482e+00,-9.390483977656620407e-03,2.060122706010108183e-03,1.089269062577539884e-07,5.413083064202549374e-07,5.917113154875754064e-08,-1.820662984391671971e-02,-1.462433640156881154e+00,-2.043474022542135060e+00,-2.118900601063863576e+00,1.020782589912414551e+00,-1.679967705403463185e+00,-3.141593043004171193e+00,-1.866020821034908295e-02,1.876350434031337500e-04,-3.622051735874265432e-04,1.740255975164473057e-04,4.535783664323389530e-04,0.000000000000000000e+00
5.479843616485595703e-01,-1.004813063020918440e-01,-4.998950639626661419e-01,3.000002150734709105e-01,1.031476213699127975e-03,2.220977390126148698e+00,2.220975494223275781e+00,-1.031338157843967457e-02,2.265176553754168209e-03,1.157488016619015939e-07,6.036384789926899591e-07,6.601041981144631849e-08,-2.001432061661040027e-02,-1.462557617818013966e+00,-2.043472592030660451e+00,-2.118902985249654591e+00,1.020783782005310059e+00,-1.679964367543355763e+00,-3.141593043004171193e+00,-2.049732953310012817e-02,2.070531190838664770e-04,-3.997058374807238579e-04,1.920454815262928605e-04,4.830089164897799492e-04,0.000000000000000000e+00
5.562949180603027344e-01,-1.005510907884765298e-01,-4.998796747483091885e-01,3.000002075781628141e-01,1.182382618452912631e-03,2.220909152994928970e+00,2.220907783461269602e+00,-1.139005614888798090e-02,2.505014420638499578e-03,1.200059631254305653e-07,6.715371252235020741e-07,7.319680154425514034e-08,-2.212896314449604163e-02,-1.462696377431051076e+00,-2.043471161519185841e+00,-2.118905846272603810e+00,1.020784974098205566e+00,-1.679961506520406544e+00,-3.141593043004171193e+00,-2.264149114489555359e-02,2.300044288858771324e-04,-4.440410702954977751e-04,2.133611269528046250e-04,5.125280003994703293e-04,0.000000000000000000e+00
5.646581649780273438e-01,-1.006290253790902839e-01,-4.998626032240102712e-01,3.000001673056957863e-01,1.350705098777535418e-03,2.220833413065370632e+00,2.220831780315457582e+00,-1.261396324060816247e-02,2.778935792531676309e-03,1.347472249423534037e-07,7.589076509286643276e-07,8.263732740815755185e-08,-2.454645489342509659e-02,-1.462851349507467091e+00,-2.043469731007711232e+00,-2.118908707295553029e+00,1.020786523818969727e+00,-1.679958168660299123e+00,-3.141593043004171193e+00,-2.508098445832729340e-02,2.568588533904403448e-04,-4.958857898600399494e-04,2.382635429967194796e-04,5.345295649021863937e-04,0.000000000000000000e+00
5.727679729461669922e-01,-1.007168217010739886e-01,-4.998431020592253304e-01,3.000001500278456912e-01,1.540231293691620264e-03,2.220747747307457942e+00,2.220746640886668288e+00,-1.399165183555716244e-02,3.087312138747094585e-03,1.547406403544831165e-07,8.374636715366436116e-07,9.088938762589510605e-08,-2.726134756812815391e-02,-1.463025871907369435e+00,-2.043467823659078419e+00,-2.118912521992818654e+00,1.020788192749023438e+00,-1.679954353963033498e+00,-3.141593043004171193e+00,-2.782626822590827942e-02,2.867425209842622280e-04,-5.535609088838100433e-04,2.659760066308081150e-04,5.649206577800214291e-04,0.000000000000000000e+00
5.815289020538330078e-01,-1.007781934792535833e-01,-4.998295384722623580e-01,3.000002414693085928e-01,1.673053940252865667e-03,2.220688106502547221e+00,2.220686473706874775e+00,-1.604014267506955610e-02,3.542080043463134102e-03,1.788969025039956206e-07,9.588093042505575444e-07,1.040899986158916919e-07,-3.126344917109233346e-02,-1.463147942219869435e+00,-2.043466393147603810e+00,-2.118914906178609669e+00,1.020789384841918945e+00,-1.679951969777242482e+00,-3.141593043004171193e+00,-3.190264105796813965e-02,3.292823093943297863e-04,-6.356793455779552460e-04,3.054325934499502182e-04,6.391918868757784367e-04,0.000000000000000000e+00
5.892775058746337891e-01,-1.007781934792535833e-01,-4.998295384722623580e-01,3.000002414693085928e-01,1.673053940252865667e-03,2.220688106502547221e+00,2.220686473706874775e+00,0.000000000000000000e+00,0.000000000000000000e+00,0.000000000000000000e+00,0.000000000000000000e+00,0.000000000000000000e+00,0.000000000000000000e+00,-1.463147942219869435e+00,-2.043466393147603810e+00,-2.118914906178609669e+00,1.020789384841918945e+00,-1.679951969777242482e+00,-3.141593043004171193e+00,0.000000000000000000e+00,0.000000000000000000e+00,0.000000000000000000e+00,0.000000000000000000e+00,0.000000000000000000e+00,0.000000000000000000e+00
5.980300903320312500e-01,-1.007781934792535833e-01,-4.998295384722623580e-01,3.000002414693085928e-01,1.673053940252865667e-03,2.220688106502547221e+00,2.220686473706874775e+00,0.000000000000000000e+00,0.000000000000000000e+00,0.000000000000000000e+00,0.000000000000000000e+00,0.000000000000000000e+00,0.000000000000000000e+00,-1.463147942219869435e+00,-2.043466393147603810e+00,-2.118914906178609669e+00,1.020789384841918945e+00,-1.679951969777242482e+00,-3.141593043004171193e+00,0.000000000000000000e+00,0.000000000000000000e+00,0.000000000000000000e+00,0.000000000000000000e+00,0.000000000000000000e+00,0.000000000000000000e+00
6.062107086181640625e-01,-1.007781934792535833e-01,-4.998295384722623580e-01,3.000002414693085928e-01,1.673053940252865667e-03,2.220688106502547221e+00,2.220686473706874775e+00,0.000000000000000000e+00,0.000000000000000000e+00,0.000000000000000000e+00,0.000000000000000000e+00,0.000000000000000000e+00,0.000000000000000000e+00,-1.463147942219869435e+00,-2.043466393147603810e+00,-2.118914906178609669e+00,1.020789384841918945e+00,-1.679951969777242482e+00,-3.141593043004171193e+00,0.000000000000000000e+00,0.000000000000000000e+00,0.000000000000000000e+00,0.000000000000000000e+00,0.000000000000000000e+00,0.000000000000000000e+00
6.147949695587158203e-01,-1.007927980021783299e-01,-4.998264029749502901e-01,3.000001206807970111e-01,1.704838812117476102e-03,2.220673539032380184e+00,2.220672432575231170e+00,-3.780278815904595819e-03,8.373926353241883946e-04,4.176334988921498642e-08,2.252415972342261763e-07,2.439471088991815715e-08,-7.404163632600070481e-03,-1.463177029286519826e+00,-2.043466393147603810e+00,-2.118915383015767873e+00,1.020789623260498047e+00,-1.679951492940084279e+00,-3.141593043004171193e+00,-7.524000015109777451e-03,7.958380592754110694e-05,-1.536394847789779305e-04,7.382912008324638009e-05,1.198363825096748769e-04,0.000000000000000000e+00
6.231281757354736328e-01,-1.008258582906860767e-01,-4.998190075616364414e-01,3.000002328300151455e-01,1.776803747780404848e-03,2.220641211053093311e+00,2.220639841411365722e+00,-6.284359176577519746e-03,1.393578790450764439e-03,6.766917049851618860e-08,3.907058195636152565e-07,4.230068341129279320e-08,-1.232411836099340727e-02,-1.463242832814351857e+00,-2.043465439473287404e+00,-2.118916813527242482e+00,1.020790219306945801e+00,-1.679950539265767873e+00,-3.141593043004171193e+00,-1.251036021858453751e-02,1.331373787252232432e-04,-2.570381329860538244e-04,1.235077652381733060e-04,1.862418575910851359e-04,0.000000000000000000e+00
6.313939094543457031e-01,-1.008723318537952662e-01,-4.998086988922283425e-01,3.000002132649781106e-01,1.877888717766655656e-03,2.220595631536669945e+00,2.220594261876663644e+00,-8.171178840362660831e-03,1.813773963816464651e-03,9.005349773977821629e-08,5.062046605722007028e-07,5.475101660665621688e-08,-1.603892320417793504e-02,-1.463335339223043263e+00,-2.043464485798970998e+00,-2.118918720875875294e+00,1.020791172981262207e+00,-1.679949108754293263e+00,-3.141593043004171193e+00,-1.626892015337944031e-02,1.739011640893295407e-04,-3.357307577971369028e-04,1.613204367458820343e-04,2.299969492014497519e-04,0.000000000000000000e+00
6.400265693664550781e-01,-1.009300274724265201e-01,-4.997959201669373575e-01,3.000000729120527176e-01,2.003870808004622889e-03,2.220538582606690348e+00,2.220537739242902209e+00,-9.778781117944354215e-03,2.172941170911891692e-03,1.119626669856095235e-07,5.970755532765132825e-07,6.444125942933508801e-08,-1.921142279752519402e-02,-1.463450256978170216e+00,-2.043463532124654591e+00,-2.118921105061666310e+00,1.020792365074157715e+00,-1.679947678242818654e+00,-3.141593043004171193e+00,-1.947261951863765717e-02,2.090282068820670247e-04,-4.035306046716868877e-04,1.939018548000603914e-04,2.611967211123555899e-04,0.000000000000000000e+00
6.482920646667480469e-01,-1.009985277003759840e-01,-4.997806136926112308e-01,3.000002862827554906e-01,2.153058568433946409e-03,2.220471654201543021e+00,2.220470021338226463e+00,-1.128984087815225641e-02,2.511693611632798400e-03,1.296893319869355267e-07,6.767642230022759239e-07,7.304676791352395570e-08,-2.220026424038217677e-02,-1.463586632405416310e+00,-2.043461624776021779e+00,-2.118923966084615529e+00,1.020793676376342773e+00,-1.679945770894185841e+00,-3.141593043004171193e+00,-2.248520217835903168e-02,2.424096164759248495e-04,-4.679688718169927597e-04,2.248785604024305940e-04,2.849379379767924547e-04,0.000000000000000000e+00
6.568887233734130859e-01,-1.010775242134042962e-01,-4.997630552376054469e-01,3.000001470730755404e-01,2.325605058111826669e-03,2.220393467350914030e+00,2.220392623903174822e+00,-1.280911901308694201e-02,2.854228406192515707e-03,1.473664023590262437e-07,7.635255645509517970e-07,8.216353818485509270e-08,-2.522344660246730874e-02,-1.463743988667623341e+00,-2.043460194264547169e+00,-2.118927303944722951e+00,1.020795226097106934e+00,-1.679943863545553029e+00,-3.141593043004171193e+00,-2.551708556711673737e-02,2.769490238279104233e-04,-5.346465623006224632e-04,2.569296048022806644e-04,2.936389646492898464e-04,0.000000000000000000e+00
6.654939651489257812e-01,-1.011677497747579396e-01,-4.997429176283597618e-01,3.000001079423899597e-01,2.522963999114334263e-03,2.220304429520771450e+00,2.220303586021540987e+00,-1.440474029761901198e-02,3.214892323539646039e-03,1.674232404286477729e-07,8.671662161818465259e-07,9.314620983020483404e-08,-2.840103482594697609e-02,-1.463923756276265919e+00,-2.043458286915914357e+00,-2.118931118641988576e+00,1.020797133445739746e+00,-1.679941956196920216e+00,-3.141593043004171193e+00,-2.870198898017406464e-02,3.133499412797391415e-04,-6.049165967851877213e-04,2.906945010181516409e-04,3.009541542269289494e-04,0.000000000000000000e+00
6.738853454589843750e-01,-1.012280670977583202e-01,-4.997294919625347998e-01,3.000001993806170608e-01,2.654675668133884593e-03,2.220245236825833413e+00,2.220243867025551321e+00,-1.640062814886030299e-02,3.663113516868444705e-03,1.910127854452600795e-07,9.897785163131658977e-07,1.062728081761495207e-07,-3.234707424417123528e-02,-1.464043919240133107e+00,-2.043456856404439748e+00,-2.118933502827779591e+00,1.020798325538635254e+00,-1.679940525685445607e+00,-3.141593043004171193e+00,-3.268127515912055969e-02,3.573231806512922049e-04,-6.898057181388139725e-04,3.314870700705796480e-04,3.342009149491786957e-04,0.000000000000000000e+00
6.819696426391601562e-01,-1.012280670977583202e-01,-4.997294919625347998e-01,3.000001993806170608e-01,2.654675668133884593e-03,2.220245236825833413e+00,2.220243867025551321e+00,0.000000000000000000e+00,0.000000000000000000e+00,0.000000000000000000e+00,0.000000000000000000e+00,0.000000000000000000e+00,0.000000000000000000e+00,-1.464043919240133107e+00,-2.043456856404439748e+00,-2.118933502827779591e+00,1.020798325538635254e+00,-1.679940525685445607e+00,-3.141593043004171193e+00,0.000000000000000000e+00,0.000000000000000000e+00,0.000000000000000000e+00,0.000000000000000000e+00,0.000000000000000000e+00,0.000000000000000000e+00
6.906578540802001953e-01,-1.012280670977583202e-01,-4.997294919625347998e-01,3.000001993806170608e-01,2.654675668133884593e-03,2.220245236825833413e+00,2.220243867025551321e+00,0.000000000000000000e+00,0.000000000000000000e+00,0.000000000000000000e+00,0.000000000000000000e+00,0.000000000000000000e+00,0.000000000000000000e+00,-1.464043919240133107e+00,-2.043456856404439748e+00,-2.118933502827779591e+00,1.020798325538635254e+00,-1.679940525685445607e+00,-3.141593043004171193e+00,0.000000000000000000e+00,0.000000000000000000e+00,0.000000000000000000e+00,0.000000000000000000e+00,0.000000000000000000e+00,0.000000000000000000e+00
6.986129283905029297e-01,-1.012459897391135843e-01,-4.997253954830462863e-01,3.000002005234688740e-01,2.694369338483480671e-03,2.220227206388553753e+00,2.220226099712927503e+00,-4.624214209645123065e-03,1.037045925228016708e-03,5.444377897378327815e-08,2.889317320103128015e-07,3.097374278371781059e-08,-9.178850687021566923e-03,-1.464079682026998341e+00,-2.043456379567281544e+00,-2.118934456502095998e+00,1.020798683166503906e+00,-1.679940525685445607e+00,-3.141593043004171193e+00,-9.223200380802154541e-03,1.039623239194042981e-04,-2.007013827096670866e-04,9.644847159506753087e-05,4.434969378053210676e-05,0.000000000000000000e+00
7.070755958557128906e-01,-1.012885518988279471e-01,-4.997158344677957165e-01,3.000001918834268033e-01,2.788024458065199111e-03,2.220184823359081516e+00,2.220183979790859130e+00,-7.932051848548660883e-03,1.780495264636733962e-03,9.238900758694410225e-08,4.904909311718203512e-07,5.252593056804485259e-08,-1.575823045277492673e-02,-1.464164559041158498e+00,-2.043455425892965138e+00,-2.118936363850728810e+00,1.020799517631530762e+00,-1.679940048848287404e+00,-3.141593043004171193e+00,-1.582307927310466766e-02,1.790514652384445071e-04,-3.456648555584251881e-04,1.661200949456542730e-04,6.484882032964378595e-05,0.000000000000000000e+00
7.156333923339843750e-01,-1.013499705828742464e-01,-4.997021391015670777e-01,3.000002723948280159e-01,2.923410776342053128e-03,2.220124076600611840e+00,2.220122443629675590e+00,-1.055225706364472382e-02,2.371384785674883477e-03,1.267511474116143357e-07,6.453755726589115923e-07,6.905110855234433052e-08,-2.098411668703181396e-02,-1.464287106190816701e+00,-2.043453995381490529e+00,-2.118938748036519826e+00,1.020800828933715820e+00,-1.679939572011129201e+00,-3.141593043004171193e+00,-2.105346322059631348e-02,2.392972382949665189e-04,-4.619569808710366488e-04,2.220106835011392832e-04,6.934653356438502669e-05,0.000000000000000000e+00
7.241156101226806641e-01,-1.014280643840120150e-01,-4.996846569627909629e-01,3.000001222601834661e-01,3.096417927943926739e-03,2.220045746191571912e+00,2.220044639427695365e+00,-1.283967395070139544e-02,2.889390596612997214e-03,1.535667339935433880e-07,7.927912689590466366e-07,8.466637139499054245e-08,-2.556040021590872888e-02,-1.464443031941549123e+00,-2.043452564870015919e+00,-2.118942085896627248e+00,1.020802497863769531e+00,-1.679939572011129201e+00,-3.141593043004171193e+00,-2.562209032475948334e-02,2.926436136476695538e-04,-5.649467348121106625e-04,2.715058217290788889e-04,6.169010885059833527e-05,0.000000000000000000e+00
7.322676181793212891e-01,-1.015219837140689113e-01,-4.996634098358205822e-01,3.000002050558447930e-01,3.303750481545304762e-03,2.219952261870988153e+00,2.219950891954514116e+00,-1.500495619085334166e-02,3.381951832280091427e-03,1.807350348651550064e-07,9.257866852405298010e-07,9.868503312930673998e-08,-2.990578775279554777e-02,-1.464630428944722951e+00,-2.043450180684224904e+00,-2.118946377431051076e+00,1.020804524421691895e+00,-1.679939095173970998e+00,-3.141593043004171193e+00,-2.994928322732448578e-02,3.438527055550366640e-04,-6.638023187406361103e-04,3.190185816492885351e-04,4.349547452875413001e-05,0.000000000000000000e+00
7.404913902282714844e-01,-1.016314063958571462e-01,-4.996387913730048758e-01,3.000001670656975983e-01,3.545470933277436454e-03,2.219842993035120671e+00,2.219841886172725154e+00,-1.718190112498294703e-02,3.879405225016876058e-03,2.070920248715454390e-07,1.072684018201428840e-06,1.140829046503975960e-07,-3.428716246889940145e-02,-1.464848820363179982e+00,-2.043447796498433888e+00,-2.118951145802633107e+00,1.020806789398193359e+00,-1.679938618336812794e+00,-3.141593043004171193e+00,-3.430217877030372620e-02,3.960016765631735325e-04,-7.644803263247013092e-04,3.673999162856489420e-04,1.501630140410270542e-05,0.000000000000000000e+00
7.489051818847656250e-01,-1.017574635598306326e-01,-4.996102632703089963e-01,3.000001192919556359e-01,3.825242361672811023e-03,2.219716512272835285e+00,2.219715668435204403e+00,-1.946345818674386635e-02,4.403090013391136419e-03,2.373591331040096182e-07,1.199477875338651619e-06,1.272445556362029785e-07,-3.889106010137741154e-02,-1.465100590382711232e+00,-2.043444935475484669e+00,-2.118956867848531544e+00,1.020809531211853027e+00,-1.679939095173970998e+00,-3.141593043004171193e+00,-3.886663168668746948e-02,4.512859741225838661e-04,-8.711945265531539917e-04,4.187023441772907972e-04,-2.442841469019185752e-05,0.000000000000000000e+00
7.575788497924804688e-01,-1.019012352815946293e-01,-4.995776317953758427e-01,3.000000726600790535e-01,4.143594704582254963e-03,2.219572448314854451e+00,2.219572130540767851e+00,-2.192187122189203849e-02,4.969851598066525079e-03,2.751159089073970915e-07,1.335688011416947100e-06,1.413059290320523773e-07,-4.386349463311461916e-02,-1.465387646351949513e+00,-2.043441597615377248e+00,-2.118963543568746388e+00,1.020812630653381348e+00,-1.679939095173970998e+00,-3.141593043004171193e+00,-4.378730803728103638e-02,5.114708328619599342e-04,-9.873514063656330109e-04,4.745374317280948162e-04,-7.618659583386033773e-05,0.000000000000000000e+00
7.662470340728759766e-01,-1.020647124196282923e-01,-4.995406069595597076e-01,3.000001151748653005e-01,4.506786132277871421e-03,2.219408551256909057e+00,2.219407707242499583e+00,-2.462042492690212289e-02,5.594739495811817433e-03,3.159960134270859898e-07,1.484912373891466025e-06,1.565599490367989169e-07,-4.933342215372218259e-02,-1.465714279805318654e+00,-2.043437782918111623e+00,-2.118970696126119435e+00,1.020816206932067871e+00,-1.679940048848287404e+00,-3.141593043004171193e+00,-4.919117316603660583e-02,5.781379877589643002e-04,-1.116021187044680119e-03,5.363900563679635525e-04,-1.422489876858890057e-04,0.000000000000000000e+00
7.746713161468505859e-01,-1.022501235425934962e-01,-4.994982954916359907e-01,3.000002807522124670e-01,4.919082171546323122e-03,2.219222397396676261e+00,2.219221027192365359e+00,-2.762090121908837917e-02,6.292730016297633233e-03,3.538848252431807993e-07,1.694305258428055127e-06,1.779241833835972677e-07,-5.542771592445167039e-02,-1.466084782277242482e+00,-2.043433014546529591e+00,-2.118979279194967091e+00,1.020820260047912598e+00,-1.679941479359762013e+00,-3.141593043004171193e+00,-5.520245060324668884e-02,6.528823287226259708e-04,-1.260318909771740437e-03,6.057329592294991016e-04,-2.252653212053701282e-04,0.000000000000000000e+00
7.830483913421630859e-01,-1.023095197952082480e-01,-4.994848726139028972e-01,3.000003612556884081e-01,5.051180422284955000e-03,2.219163019891676747e+00,2.219160860555445147e+00,-2.856302163020008056e-02,6.511942086698467580e-03,3.657312847009730002e-07,1.757262763258196200e-06,1.842293266456191726e-07,-5.733420728938605493e-02,-1.466203514729635060e+00,-2.043431584035054982e+00,-2.118981663380758107e+00,1.020821571350097656e+00,-1.679941956196920216e+00,-3.141593043004171193e+00,-5.708911642432212830e-02,6.759525276720523834e-04,-1.304855803027749062e-03,6.271363818086683750e-04,-2.450908650644123554e-04,0.000000000000000000e+00
7.913885116577148438e-01,-1.023095197952082480e-01,-4.994848726139028972e-01,3.000003612556884081e-01,5.051180422284955000e-03,2.219163019891676747e+00,2.219160860555445147e+00,0.000000000000000000e+00,0.000000000000000000e+00,0.000000000000000000e+00,0.000000000000000000e+00,0.000000000000000000e+00,0.000000000000000000e+00,-1.466203514729635060e+00,-2.043431584035054982e+00,-2.118981663380758107e+00,1.020821571350097656e+00,-1.679941956196920216e+00,-3.141593043004171193e+00,0.000000000000000000e+00,0.000000000000000000e+00,0.000000000000000000e+00,0.000000000000000000e+00,0.000000000000000000e+00,0.000000000000000000e+00
8.000392913818359375e-01,-1.023095197952082480e-01,-4.994848726139028972e-01,3.000003612556884081e-01,5.051180422284955000e-03,2.219163019891676747e+00,2.219160860555445147e+00,0.000000000000000000e+00,0.000000000000000000e+00,0.000000000000000000e+00,0.000000000000000000e+00,0.000000000000000000e+00,0.000000000000000000e+00,-1.466203514729635060e+00,-2.043431584035054982e+00,-2.118981663380758107e+00,1.020821571350097656e+00,-1.679941956196920216e+00,-3.141593043004171193e+00,0.000000000000000000e+00,0.000000000000000000e+00,0.000000000000000000e+00,0.000000000000000000e+00,0.000000000000000000e+00,0.000000000000000000e+00
8.103203773498535156e-01,-1.023352697248654380e-01,-4.994789233498449499e-01,3.000002416163665697e-01,5.108833881531693252e-03,2.219136590809553500e+00,2.219135220571545108e+00,-6.569500848864637255e-03,1.502523316990379007e-03,8.659762130147911043e-08,3.982461126316304445e-07,4.171642642431459498e-08,-1.325082903349529030e-02,-1.466255013142720998e+00,-2.043431107197896779e+00,-2.118983093892232716e+00,1.020822167396545410e+00,-1.679942433034078419e+00,-3.141593043004171193e+00,-1.314000040292739868e-02,1.589831954333931208e-04,-3.068939840886741877e-04,1.475103636039420962e-04,-1.108286305679939687e-04,0.000000000000000000e+00
8.189024925231933594e-01,-1.024015646645600880e-01,-4.994637078153311149e-01,3.000001133352352967e-01,5.256875932293315727e-03,2.219069160114087946e+00,2.219068841960916139e+00,-1.198361486854244290e-02,2.746232413869173668e-03,1.569687507226814438e-07,7.392966694152684336e-07,7.743500218348741257e-08,-2.422636072151347283e-02,-1.466387573872701466e+00,-2.043429676686422169e+00,-2.118986431752340138e+00,1.020823597908020020e+00,-1.679943386708394826e+00,-3.141593043004171193e+00,-2.397779934108257294e-02,2.929921320173889399e-04,-5.655892891809344292e-04,2.718538162298500538e-04,-2.485613804310560226e-04,0.000000000000000000e+00
8.272690773010253906e-01,-1.025037706979298607e-01,-4.994403017966500546e-01,3.000000644154925955e-01,5.486235975238026516e-03,2.218965408892028091e+00,2.218965090660817818e+00,-1.675622632353079844e-02,3.849588480822113603e-03,2.264867291897190266e-07,1.015662162544729044e-06,1.061603408962266173e-07,-3.396336626610697157e-02,-1.466592137013570607e+00,-2.043427292500631154e+00,-2.118991200123922169e+00,1.020825982093811035e+00,-1.679945770894185841e+00,-3.141593043004171193e+00,-3.354166075587272644e-02,4.144840058870613575e-04,-8.000916568562388420e-04,3.845864557661116123e-04,-4.217055102344602346e-04,0.000000000000000000e+00
8.371455669403076172e-01,-1.026397007591668409e-01,-4.994090694921262674e-01,3.000003484807985399e-01,5.792636137300947834e-03,2.218827487798514131e+00,2.218825591428255528e+00,-2.123414759281161412e-02,4.893035256421165990e-03,2.918578044321156537e-07,1.294557196642545654e-06,1.344799679327695261e-07,-4.316644975915501226e-02,-1.466864411030904591e+00,-2.043423477803365529e+00,-2.118997399006978810e+00,1.020829081535339355e+00,-1.679950062428609669e+00,-3.141593043004171193e+00,-4.252634570002555847e-02,5.320977070368826389e-04,-1.027116784825921059e-03,4.937175544910132885e-04,-6.401040591299533844e-04,0.000000000000000000e+00
8.450222015380859375e-01,-1.028087424679455797e-01,-4.993699269754372505e-01,3.000002931976186171e-01,6.173617320777593023e-03,2.218654698909425349e+00,2.218653591473910947e+00,-2.566969709500099145e-02,5.932862777525111687e-03,3.557949518995492529e-07,1.569248128372388968e-06,1.627051741769726014e-07,-5.231119977543086802e-02,-1.467202965413228810e+00,-2.043419186268941701e+00,-2.119005982075826466e+00,1.020833015441894531e+00,-1.679955307637349904e+00,-3.141593043004171193e+00,-5.143206566572189331e-02,6.500771851278841496e-04,-1.254852395504713058e-03,6.031975499354302883e-04,-8.791341097094118595e-04,0.000000000000000000e+00
8.535220623016357422e-01,-1.030121484856273417e-01,-4.993228860418489345e-01,3.000000855001066502e-01,6.633771867340370644e-03,2.218445996817263399e+00,2.218445678195847481e+00,-3.025358630586118605e-02,7.017911857318993515e-03,4.273045797826915390e-07,1.852755441069796052e-06,1.916879145178676536e-07,-6.184028938878288056e-02,-1.467610661183492482e+00,-2.043414417897359669e+00,-2.119015995656148732e+00,1.020837903022766113e+00,-1.679962937031881154e+00,-3.141593043004171193e+00,-6.064925715327262878e-02,7.762173190712928772e-04,-1.498327008448541164e-03,7.202470442280173302e-04,-1.191032235510647297e-03,0.000000000000000000e+00
8.622305393218994141e-01,-1.032523225013279311e-01,-4.992670856843791638e-01,3.000001009269642749e-01,7.178294172451294558e-03,2.218199339773632595e+00,2.218199020967146939e+00,-3.515571620989921264e-02,8.186026348801216102e-03,4.965456583157182515e-07,2.181035262460365973e-06,2.245699183635506956e-07,-7.205782504752231143e-02,-1.468092266713277638e+00,-2.043408219014303029e+00,-2.119027916585103810e+00,1.020843625068664551e+00,-1.679972950612203419e+00,-3.141593043004171193e+00,-7.051285356283187866e-02,9.124580537900328636e-04,-1.761329360306262970e-03,8.466787403449416161e-04,-1.544971484690904617e-03,0.000000000000000000e+00
8.716080188751220703e-01,-1.035332560707115240e-01,-4.992016064438962175e-01,3.000003176164988128e-01,7.816603630412274559e-03,2.217910638908523691e+00,2.217909005272826750e+00,-4.053278078407095142e-02,9.476453870231833776e-03,5.662974017609155085e-07,2.538324265844432709e-06,2.587173940509803188e-07,-8.329602493904425531e-02,-1.468655888234273732e+00,-2.043400589619771779e+00,-2.119041744862691701e+00,1.020850419998168945e+00,-1.679985825215474904e+00,-3.141593043004171193e+00,-8.133964240550994873e-02,1.063423464074730873e-03,-2.052775351330637932e-03,9.868004126474261284e-04,-1.956382533535361290e-03,0.000000000000000000e+00
8.801851272583007812e-01,-1.038596323032507374e-01,-4.991251047558653564e-01,3.000002950272443458e-01,8.560392289089785098e-03,2.217573208983631528e+00,2.217571838140853568e+00,-4.654619890103328661e-02,1.093054414463991326e-02,6.588808037775783456e-07,2.936213454462120677e-06,2.974875657319494464e-07,-9.589939052238953543e-02,-1.469311062489644826e+00,-2.043392006550924123e+00,-2.119058434163228810e+00,1.020858407020568848e+00,-1.680002514516012013e+00,-3.141593043004171193e+00,-9.345667064189910889e-02,1.234013005159795284e-03,-2.382059348747134209e-03,1.145095098763704300e-03,-2.442719880491495132e-03,0.000000000000000000e+00
8.887526988983154297e-01,-1.042378193696572863e-01,-4.990360404513467518e-01,3.000002430716449120e-01,9.424253337272120445e-03,2.217181041128109875e+00,2.217179932991109048e+00,-5.337427913575537586e-02,1.259503349016114805e-02,7.595979015723687581e-07,3.358505868318056440e-06,3.379142941202851887e-07,-1.102506124880154315e-01,-1.470070664082662404e+00,-2.043381992970601857e+00,-2.119077984486715138e+00,1.020867824554443359e+00,-1.680023495350972951e+00,-3.141593043004171193e+00,-1.072259023785591125e-01,1.429681549780070782e-03,-2.759759081527590752e-03,1.326702069491147995e-03,-3.024710109457373619e-03,0.000000000000000000e+00
8.972067832946777344e-01,-1.046760959674959968e-01,-4.989322769205235542e-01,3.000002836531727723e-01,1.042703221375806955e-02,2.216725562821385775e+00,2.216724454468939509e+00,-6.122412515915787168e-02,1.452544042755271256e-02,8.865800374860395924e-07,3.849748250134945130e-06,3.837844228980314374e-07,-1.267965631559478390e-01,-1.470951382313863576e+00,-2.043370072041646779e+00,-2.119100872670308888e+00,1.020878791809082031e+00,-1.680049244557515919e+00,-3.141593043004171193e+00,-1.230686083436012268e-01,1.656937063671648502e-03,-3.198395017534494400e-03,1.537589123472571373e-03,-3.727954812347888947e-03,0.000000000000000000e+00
9.056560993194580078e-01,-1.051842976046853673e-01,-4.988113465746673580e-01,3.000002959926425516e-01,1.159230748180937152e-02,2.216195638716575544e+00,2.216194792879924158e+00,-7.034491051042664200e-02,1.678991231054847641e-02,1.028310631487811238e-06,4.427278208383839426e-06,4.371895438700629219e-07,-1.460773777216660407e-01,-1.471973244343892873e+00,-2.043356243764058888e+00,-2.119127575551168263e+00,1.020891547203063965e+00,-1.680081192647115529e+00,-3.141593043004171193e+00,-1.414925456047058105e-01,1.923648291267454624e-03,-3.713208483532071114e-03,1.785111380741000175e-03,-4.584832116961479187e-03,0.000000000000000000e+00
9.151015281677246094e-01,-1.057750365349557908e-01,-4.986698107701821314e-01,3.000002593693608111e-01,1.295091749870825974e-02,2.215577108693810082e+00,2.215576525218728055e+00,-8.103547943530460540e-02,1.948017787781609195e-02,1.199024506645671867e-06,5.119112858377874622e-06,4.998845536134929925e-07,-1.688578240573393729e-01,-1.473161999379293263e+00,-2.043340031300679982e+00,-2.119159046803609669e+00,1.020906686782836914e+00,-1.680121723805562794e+00,-3.141593043004171193e+00,-1.631248295307159424e-01,2.245682524517178535e-03,-4.334804601967334747e-03,2.083978615701198578e-03,-5.732994526624679565e-03,0.000000000000000000e+00
9.228703975677490234e-01,-1.064631206211085895e-01,-4.985037169275381430e-01,3.000001858355573758e-01,1.453731693867278164e-02,2.214853695289367597e+00,2.214853899270540882e+00,-9.276073447659134719e-02,2.247630796904464753e-02,1.382896540068965499e-06,5.886925602125245502e-06,5.690422249002751483e-07,-1.939565516076969531e-01,-1.474547688161031544e+00,-2.043320957814351857e+00,-2.119196240101949513e+00,1.020924448966979980e+00,-1.680172268544332326e+00,-3.141593043004171193e+00,-1.868848204612731934e-01,2.604221459478139877e-03,-5.026877392083406448e-03,2.416741568595170975e-03,-7.071731146425008774e-03,0.000000000000000000e+00
9.316165447235107422e-01,-1.072525512345176013e-01,-4.983116205246937991e-01,3.000002743174376429e-01,1.636254144677195058e-02,2.214020743192662621e+00,2.214020421270062045e+00,-1.045791787986524446e-01,2.556286521568379780e-02,1.568720697765764710e-06,6.674460736633856018e-06,6.324529320308271523e-07,-2.194311004132017962e-01,-1.476138893757955373e+00,-2.043298546467916310e+00,-2.119239155446187794e+00,1.020945191383361816e+00,-1.680234734212056935e+00,-3.141593043004171193e+00,-2.108848243951797485e-01,2.974013565108180046e-03,-5.740670952945947647e-03,2.759953029453754425e-03,-8.546276018023490906e-03,0.000000000000000000e+00
9.397459030151367188e-01,-1.081362515632468130e-01,-4.980946449886172744e-01,3.000003149115975654e-01,1.841141737735951800e-02,2.213083943261462849e+00,2.213083358165228276e+00,-1.163689412212014496e-01,2.871729254929088898e-02,1.760608516921479630e-06,7.475515256141329257e-06,6.936126069514003289e-07,-2.450424898415785036e-01,-1.477921787892476857e+00,-2.043273274098531544e+00,-2.119287792836324513e+00,1.020968675613403320e+00,-1.680309597645894826e+00,-3.141593043004171193e+00,-2.348848283290863037e-01,3.352367784827947617e-03,-6.470974534749984741e-03,3.111099125817418098e-03,-1.015766151249408722e-02,0.000000000000000000e+00
9.480357170104980469e-01,-1.081362515632468130e-01,-4.980946449886172744e-01,3.000003149115975654e-01,1.841141737735951800e-02,2.213083943261462849e+00,2.213083358165228276e+00,0.000000000000000000e+00,0.000000000000000000e+00,0.000000000000000000e+00,0.000000000000000000e+00,0.000000000000000000e+00,0.000000000000000000e+00,-1.477921787892476857e+00,-2.043273274098531544e+00,-2.119287792836324513e+00,1.020968675613403320e+00,-1.680309597645894826e+00,-3.141593043004171193e+00,0.000000000000000000e+00,0.000000000000000000e+00,0.000000000000000000e+00,0.000000000000000000e+00,0.000000000000000000e+00,0.000000000000000000e+00
9.562344551086425781e-01,-1.081362515632468130e-01,-4.980946449886172744e-01,3.000003149115975654e-01,1.841141737735951800e-02,2.213083943261462849e+00,2.213083358165228276e+00,0.000000000000000000e+00,0.000000000000000000e+00,0.000000000000000000e+00,0.000000000000000000e+00,0.000000000000000000e+00,0.000000000000000000e+00,-1.477921787892476857e+00,-2.043273274098531544e+00,-2.119287792836324513e+00,1.020968675613403320e+00,-1.680309597645894826e+00,-3.141593043004171193e+00,0.000000000000000000e+00,0.000000000000000000e+00,0.000000000000000000e+00,0.000000000000000000e+00,0.000000000000000000e+00,0.000000000000000000e+00
9.648954868316650391e-01,-1.081790421520452128e-01,-4.980838106471296989e-01,3.000002964643129766e-01,1.851393525283231631e-02,2.213036898807735575e+00,2.213036576156441004e+00,-1.089988617297126851e-02,2.744636352700685449e-03,1.899818073541892106e-07,7.264577987208794212e-07,6.736869219135761407e-08,-2.372941526118649280e-02,-1.478008572255269826e+00,-2.043271843587056935e+00,-2.119290653859273732e+00,1.020969986915588379e+00,-1.680315796528951466e+00,-3.141593043004171193e+00,-2.211599983274936676e-02,3.566687519196420908e-04,-6.884366739541292191e-04,3.310383472125977278e-04,-1.613415428437292576e-03,0.000000000000000000e+00
9.735140800476074219e-01,-1.083080156733950417e-01,-4.980513088882426165e-01,3.000003400176126100e-01,1.882403751322642843e-02,2.212895049086301746e+00,2.212894463868345429e+00,-2.213751900143199128e-02,5.590501164905379607e-03,3.788417922498107801e-07,1.489736376192237020e-06,1.373382821736887638e-07,-4.834272759035187356e-02,-1.478270355855123341e+00,-2.043267552052633107e+00,-2.119298760090963185e+00,1.020973920822143555e+00,-1.680335346852437794e+00,-3.141593043004171193e+00,-4.494203999638557434e-02,7.323861354961991310e-04,-1.413676305674016476e-03,6.797941168770194054e-04,-3.400687593966722488e-03,0.000000000000000000e+00
9.819967746734619141e-01,-1.083134089531380684e-01,-4.980499183015836273e-01,3.000002192712161175e-01,1.883720384398489614e-02,2.212888782166964496e+00,2.212888721867781072e+00,-2.157977683580898989e-02,5.450047675540378375e-03,3.693584273177922347e-07,1.452337367164382809e-06,1.346682078096572297e-07,-4.712700797244876588e-02,-1.478281323109762013e+00,-2.043267552052633107e+00,-2.119299236928121388e+00,1.020974159240722656e+00,-1.680336300526754201e+00,-3.141593043004171193e+00,-4.381019994616508484e-02,7.140512461774051189e-04,-1.378286164253950119e-03,6.627763505093753338e-04,-3.316808026283979416e-03,0.000000000000000000e+00
9.901232719421386719e-01,-1.083134089531380684e-01,-4.980499183015836273e-01,3.000002192712161175e-01,1.883720384398489614e-02,2.212888782166964496e+00,2.212888721867781072e+00,0.000000000000000000e+00,0.000000000000000000e+00,0.000000000000000000e+00,0.000000000000000000e+00,0.000000000000000000e+00,0.000000000000000000e+00,-1.478281323109762013e+00,-2.043267552052633107e+00,-2.119299236928121388e+00,1.020974159240722656e+00,-1.680336300526754201e+00,-3.141593043004171193e+00,0.000000000000000000e+00,0.000000000000000000e+00,0.000000000000000000e+00,0.000000000000000000e+00,0.000000000000000000e+00,0.000000000000000000e+00
9.985051155090332031e-01,-1.083134089531380684e-01,-4.980499183015836273e-01,3.000002192712161175e-01,1.883720384398489614e-02,2.212888782166964496e+00,2.212888721867781072e+00,0.000000000000000000e+00,0.000000000000000000e+00,0.000000000000000000e+00,0.000000000000000000e+00,0.000000000000000000e+00,0.000000000000000000e+00,-1.478281323109762013e+00,-2.043267552052633107e+00,-2.119299236928121388e+00,1.020974159240722656e+00,-1.680336300526754201e+00,-3.141593043004171193e+00,0.000000000000000000e+00,0.000000000000000000e+00,0.000000000000000000e+00,0.000000000000000000e+00,0.000000000000000000e+00,0.000000000000000000e+00
1.008489847183227539e+00,-1.083518588165904434e-01,-4.980401899956743428e-01,3.000003106442836742e-01,1.893072920725422104e-02,2.212846195057218246e+00,2.212845609807851055e+00,-9.764609163427237504e-03,2.489394849495039225e-03,1.716967318054155277e-07,6.900468155663900228e-07,6.349980090540922245e-08,-2.164963807444999014e-02,-1.478359524403707326e+00,-2.043266121541158498e+00,-2.119301621113912404e+00,1.020975351333618164e+00,-1.680342976246969044e+00,-3.141593043004171193e+00,-1.987200044095516205e-02,3.409448545426130295e-04,-6.581175839528441429e-04,3.164797672070562840e-04,-1.777637633495032787e-03,0.000000000000000000e+00
1.016695261001586914e+00,-1.084635633133151644e-01,-4.980116561377173623e-01,3.000002432400288854e-01,1.920454569861909655e-02,2.212720674068532567e+00,2.212720351184064960e+00,-1.936431276578485725e-02,4.952605968461839051e-03,3.494415876846414026e-07,1.319632205120419786e-06,1.215021647030701532e-07,-4.309823806397585638e-02,-1.478586975728170216e+00,-2.043262306843892873e+00,-2.119309250508443654e+00,1.020979046821594238e+00,-1.680363957081929982e+00,-3.141593043004171193e+00,-3.943488001823425293e-02,6.850610370747745037e-04,-1.322320429608225822e-03,6.359341787174344063e-04,-3.663358045741915703e-03,0.000000000000000000e+00
1.025824546813964844e+00,-1.086504766248621301e-01,-4.979637223632191745e-01,3.000002487556425179e-01,1.966536953970771801e-02,2.212509557194202614e+00,2.212509234154324211e+00,-2.918708298316757474e-02,7.509389552142374351e-03,5.344328871585272906e-07,2.004302177288425072e-06,1.837196265788885211e-07,-6.544027291238260768e-02,-1.478967968617574513e+00,-2.043255631123678029e+00,-2.119322125111715138e+00,1.020985245704650879e+00,-1.680401150380269826e+00,-3.141593043004171193e+00,-5.951508507132530212e-02,1.058644847944378853e-03,-2.043425338342785835e-03,9.827677858993411064e-04,-5.925187841057777405e-03,0.000000000000000000e+00
1.033596038818359375e+00,-1.089180087229154048e-01,-4.978945728789904712e-01,3.000003173896579334e-01,2.032937803002072066e-02,2.212205320490557181e+00,2.212204734830321318e+00,-3.961086011652004829e-02,1.027083884486042903e-02,7.507102182633090593e-07,2.739997878226362941e-06,2.485087151810985993e-07,-8.964403811842115710e-02,-1.479513947163717091e+00,-2.043245617543355763e+00,-2.119341198598043263e+00,1.020994424819946289e+00,-1.680457894002095998e+00,-3.141593043004171193e+00,-8.090398460626602173e-02,1.481916173361241817e-03,-2.860399661585688591e-03,1.375732244923710823e-03,-8.740053512156009674e-03,0.000000000000000000e+00
1.043749570846557617e+00,-1.092731451192902603e-01,-4.978019319843836055e-01,3.000004393329518959e-01,2.122055868435186385e-02,2.211796789814672426e+00,2.211795679178196750e+00,-5.102244431877860781e-02,1.335781419508159408e-02,1.006237238272658611e-06,3.561720818635805432e-06,3.172094893906367379e-07,-1.167777227237797866e-01,-1.480240170155660451e+00,-2.043231789265767873e+00,-2.119367424641744435e+00,1.021007061004638672e+00,-1.680540863667623341e+00,-3.141593043004171193e+00,-1.044239848852157593e-01,1.979714026674628258e-03,-3.821196500211954117e-03,1.837906660512089729e-03,-1.235373783856630325e-02,0.000000000000000000e+00
1.052128791809082031e+00,-1.097276930513545329e-01,-4.976823174795273474e-01,3.000002742028742286e-01,2.237235680299657845e-02,2.211267397620380937e+00,2.211267598282699254e+00,-6.262732966408784963e-02,1.655742623817842152e-02,1.285561490639700759e-06,4.381769697679581945e-06,3.953403110422291534e-07,-1.448194738477458776e-01,-1.481171433125631154e+00,-2.043214146290914357e+00,-2.119402233754293263e+00,1.021023631095886230e+00,-1.680655781422750294e+00,-3.141593043004171193e+00,-1.284239888191223145e-01,2.509807702153921127e-03,-4.844280891120433807e-03,2.330073621124029160e-03,-1.639548502862453461e-02,0.000000000000000000e+00
1.060027837753295898e+00,-1.102749866511652382e-01,-4.975368667972972503e-01,3.000003623738536351e-01,2.377215377763520696e-02,2.210624243779329312e+00,2.210623919357044276e+00,-7.418409535918590869e-02,1.981755143480954523e-02,1.559673331080567447e-06,5.247208635074880689e-06,4.626055337526692749e-07,-1.732869576662765809e-01,-1.482294861470357716e+00,-2.043191734944478810e+00,-2.119445149098531544e+00,1.021044373512268066e+00,-1.680804554616109669e+00,-3.141593043004171193e+00,-1.524239778518676758e-01,3.066473407670855522e-03,-5.918697919696569443e-03,2.846956951543688774e-03,-2.086297981441020966e-02,0.000000000000000000e+00
1.069950342178344727e+00,-1.109145553003338946e-01,-4.973650125923992360e-01,3.000002743652248061e-01,2.542439653615179498e-02,2.209863417419749343e+00,2.209863878957491146e+00,-8.568192124523542341e-02,2.315024181508579942e-02,1.859256677559890264e-06,6.167200681269798883e-06,5.446279283979016961e-07,-2.022779416292887211e-01,-1.483610455189840138e+00,-2.043165032063619435e+00,-2.119497124348775685e+00,1.021069288253784180e+00,-1.680991474782125294e+00,-3.141593043004171193e+00,-1.764239817857742310e-01,3.655848093330860138e-03,-7.056204136461019516e-03,3.394164843484759331e-03,-2.585395984351634979e-02,0.000000000000000000e+00
1.077855587005615234e+00,-1.116456385776925936e-01,-4.971660687930319900e-01,3.000003308785916811e-01,2.733317858882525903e-02,2.208983464210227510e+00,2.208983924851565916e+00,-9.710619444212714724e-02,2.656982742000205122e-02,2.166041636855171178e-06,7.074243274008185754e-06,6.143841938284649689e-07,-2.319319806992985733e-01,-1.485117737446920216e+00,-2.043133083974019826e+00,-2.119558636342183888e+00,1.021098852157592773e+00,-1.681221310292379201e+00,-3.141593043004171193e+00,-2.004239857196807861e-01,4.286611452698707581e-03,-8.273590356111526489e-03,3.979878034442663193e-03,-3.150799497961997986e-02,0.000000000000000000e+00
1.086497545242309570e+00,-1.124678680721350743e-01,-4.969394026459941216e-01,3.000004220398860832e-01,2.950421222468660454e-02,2.207980774356906650e+00,2.207981233977739599e+00,-1.084358903613205083e-01,3.009475562358462572e-02,2.475637653728340935e-06,8.066770864784580971e-06,6.872279204726399564e-07,-2.624607756733869368e-01,-1.486817185078756154e+00,-2.043095890675679982e+00,-2.119630161915914357e+00,1.021133184432983398e+00,-1.681499306355611623e+00,-3.141593043004171193e+00,-2.244239896535873413e-01,4.971928428858518600e-03,-9.596322663128376007e-03,4.616298247128725052e-03,-3.803678601980209351e-02,0.000000000000000000e+00
1.094653606414794922e+00,-1.133802929005499061e-01,-4.966840705619640084e-01,3.000005161225005601e-01,3.194669768606298726e-02,2.206850611697353415e+00,2.206850546410896285e+00,-1.196377561919386434e-01,3.375127058315757766e-02,2.852465907978663033e-06,8.931564541783837700e-06,7.337255442251060752e-07,-2.942133732140045921e-01,-1.488708798085347951e+00,-2.043052975331441701e+00,-2.119712654744283498e+00,1.021173000335693359e+00,-1.681834522877828419e+00,-3.141593043004171193e+00,-2.484239786863327026e-01,5.733744241297245026e-03,-1.106649357825517654e-02,5.323787685483694077e-03,-4.578939452767372131e-02,0.000000000000000000e+00
1.103313684463500977e+00,-1.143814211911459433e-01,-4.963988116707757081e-01,3.000003946097414276e-01,3.467295349625746509e-02,2.205585587748428722e+00,2.205586306690380916e+00,-1.306517015024935280e-01,3.758284063854201718e-02,3.206949711746814726e-06,1.010493448935249581e-05,8.287235540378969952e-07,-3.278423771262116704e-01,-1.490792099629537404e+00,-2.043003861104146779e+00,-2.119808022175924123e+00,1.021218895912170410e+00,-1.682239357625142873e+00,-3.141593043004171193e+00,-2.724239826202392578e-01,6.612592376768589020e-03,-1.276281476020812988e-02,6.140083540230989456e-03,-5.541839450597763062e-02,0.000000000000000000e+00
1.111559629440307617e+00,-1.154694539413686216e-01,-4.960817560877143206e-01,3.000003802767839400e-01,3.770540612020398252e-02,2.204175001445739301e+00,2.204176242049072254e+00,-1.413413533016396051e-01,4.168288137845868602e-02,3.701260269207353467e-06,1.107873278609770402e-05,9.021552416265741681e-07,-3.648654967546328121e-01,-1.493067566548482716e+00,-2.042946640645162404e+00,-2.119918648396627248e+00,1.021272063255310059e+00,-1.682734791432515919e+00,-3.141593043004171193e+00,-2.964239716529846191e-01,7.703466340899467468e-03,-1.486800890415906906e-02,7.153427228331565857e-03,-6.844152510166168213e-02,0.000000000000000000e+00
1.119676113128662109e+00,-1.166395245047579382e-01,-4.957296235099476478e-01,3.000004140781609707e-01,4.109705635843089594e-02,2.202592923845346107e+00,2.202594423828537540e+00,-1.512003956011423178e-01,4.638885627001475970e-02,4.434407309709382887e-06,1.259477578687117353e-05,1.012508570724544578e-06,-4.110132008790727265e-01,-1.495534722005025685e+00,-2.042878452931539357e+00,-2.120050255452291310e+00,1.021335363388061523e+00,-1.683370892201558888e+00,-3.141593043004171193e+00,-3.204239904880523682e-01,9.363988414406776428e-03,-1.807256974279880524e-02,8.695946075022220612e-03,-9.058921039104461670e-02,0.000000000000000000e+00
1.128328561782836914e+00,-1.177936877800728893e-01,-4.953645099897155402e-01,3.000004957224348678e-01,4.467270001029124277e-02,2.200919928095861788e+00,2.200921425701391154e+00,-1.373181707853241007e-01,4.485410786884644341e-02,4.897307592230007678e-06,1.210760445821740942e-05,9.602396860026875299e-07,-4.079564511775679581e-01,-1.498002354298726857e+00,-2.042799297963277638e+00,-2.120202843342916310e+00,1.021408796310424805e+00,-1.684179608021871388e+00,-3.141593043004171193e+00,-2.964239716529846191e-01,1.039416622370481491e-02,-2.005998603999614716e-02,9.653674438595771790e-03,-1.115324795246124268e-01,0.000000000000000000e+00
1.136641740798950195e+00,-1.179474113754418185e-01,-4.953143146629617188e-01,3.000004136581637670e-01,4.517083041846970543e-02,2.200686314331119942e+00,2.200688072867706957e+00,-1.921717999552281092e-02,6.283763070613733112e-03,6.835775546996598074e-07,1.694635573005613520e-06,1.356997262980880361e-07,-5.709956027566839148e-02,-1.498334232960836232e+00,-2.042787853871480763e+00,-2.120225254689351857e+00,1.021419644355773926e+00,-1.684304539357320607e+00,-3.141593043004171193e+00,-4.148893430829048157e-02,1.454817829653620720e-03,-2.807692857459187508e-03,1.351175014860928059e-03,-1.561062596738338470e-02,0.000000000000000000e+00
1.144978046417236328e+00,-1.179474113754418185e-01,-4.953143146629617188e-01,3.000004136581637670e-01,4.517083041846970543e-02,2.200686314331119942e+00,2.200688072867706957e+00,0.000000000000000000e+00,0.000000000000000000e+00,0.000000000000000000e+00,0.000000000000000000e+00,0.000000000000000000e+00,0.000000000000000000e+00,-1.498334232960836232e+00,-2.042787853871480763e+00,-2.120225254689351857e+00,1.021419644355773926e+00,-1.684304539357320607e+00,-3.141593043004171193e+00,0.000000000000000000e+00,0.000000000000000000e+00,0.000000000000000000e+00,0.000000000000000000e+00,0.000000000000000000e+00,0.000000000000000000e+00
1.153211832046508789e+00,-1.179474113754418185e-01,-4.953143146629617188e-01,3.000004136581637670e-01,4.517083041846970543e-02,2.200686314331119942e+00,2.200688072867706957e+00,0.000000000000000000e+00,0.000000000000000000e+00,0.000000000000000000e+00,0.000000000000000000e+00,0.000000000000000000e+00,0.000000000000000000e+00,-1.498334232960836232e+00,-2.042787853871480763e+00,-2.120225254689351857e+00,1.021419644355773926e+00,-1.684304539357320607e+00,-3.141593043004171193e+00,0.000000000000000000e+00,0.000000000000000000e+00,0.000000000000000000e+00,0.000000000000000000e+00,0.000000000000000000e+00,0.000000000000000000e+00
1.162094593048095703e+00,-1.179808755645575108e-01,-4.953008757656005012e-01,3.000005677621100930e-01,4.531896118929642364e-02,2.200617217600276732e+00,2.200618192257955297e+00,-8.547566097040290231e-03,3.447998218364236710e-03,5.580933532722116433e-07,1.011876770859702457e-06,8.017189198869184892e-08,-3.484335541724984525e-02,-1.498411957417623341e+00,-2.042783085499898732e+00,-2.120233837758199513e+00,1.021423816680908203e+00,-1.684362713490621388e+00,-3.141593043004171193e+00,-1.987200044095516205e-02,1.164741930551826954e-03,-2.247721888124942780e-03,1.081964932382106781e-03,-1.497135497629642487e-02,0.000000000000000000e+00
1.170295238494873047e+00,-1.180772231538617101e-01,-4.952602944565205334e-01,3.000004595600631041e-01,4.577229467856276657e-02,2.200404124907125780e+00,2.200406144229613670e+00,-1.658219959172731878e-02,7.096801247132632738e-03,1.157344046188618169e-06,2.255640798086554091e-06,1.947606439972186731e-07,-7.345737889407548404e-02,-1.498639408742086232e+00,-2.042768780385152638e+00,-2.120261971150533498e+00,1.021437168121337891e+00,-1.684551064168111623e+00,-3.141593043004171193e+00,-3.943488001823425293e-02,2.580518834292888641e-03,-4.980147350579500198e-03,2.397364703938364983e-03,-3.402249887585639954e-02,0.000000000000000000e+00
1.179008007049560547e+00,-1.180886160589923045e-01,-4.952554018154728954e-01,3.000005300375304662e-01,4.582787282400447443e-02,2.200378410968562015e+00,2.200379646557061086e+00,-1.677234177680624050e-02,7.195075320113051946e-03,1.172992756155295671e-06,2.294351197914890347e-06,1.856373739513835282e-07,-7.453956454991680913e-02,-1.498666588460103810e+00,-2.042766873036519826e+00,-2.120265309010640919e+00,1.021438956260681152e+00,-1.684574906026021779e+00,-3.141593043004171193e+00,-3.992351889610290527e-02,2.623226959258317947e-03,-5.062578711658716202e-03,2.437049988657236099e-03,-3.461604565382003784e-02,0.000000000000000000e+00
1.187302827835083008e+00,-1.180886160589923045e-01,-4.952554018154728954e-01,3.000005300375304662e-01,4.582787282400447443e-02,2.200378410968562015e+00,2.200379646557061086e+00,0.000000000000000000e+00,0.000000000000000000e+00,0.000000000000000000e+00,0.000000000000000000e+00,0.000000000000000000e+00,0.000000000000000000e+00,-1.498666588460103810e+00,-2.042766873036519826e+00,-2.120265309010640919e+00,1.021438956260681152e+00,-1.684574906026021779e+00,-3.141593043004171193e+00,0.000000000000000000e+00,0.000000000000000000e+00,0.000000000000000000e+00,0.000000000000000000e+00,0.000000000000000000e+00,0.000000000000000000e+00
1.195770025253295898e+00,-1.180886160589923045e-01,-4.952554018154728954e-01,3.000005300375304662e-01,4.582787282400447443e-02,2.200378410968562015e+00,2.200379646557061086e+00,0.000000000000000000e+00,0.000000000000000000e+00,0.000000000000000000e+00,0.000000000000000000e+00,0.000000000000000000e+00,0.000000000000000000e+00,-1.498666588460103810e+00,-2.042766873036519826e+00,-2.120265309010640919e+00,1.021438956260681152e+00,-1.684574906026021779e+00,-3.141593043004171193e+00,0.000000000000000000e+00,0.000000000000000000e+00,0.000000000000000000e+00,0.000000000000000000e+00,0.000000000000000000e+00,0.000000000000000000e+00
1.203668832778930664e+00,-1.180886160589923045e-01,-4.952554018154728954e-01,3.000005300375304662e-01,4.582787282400447443e-02,2.200378410968562015e+00,2.200379646557061086e+00,0.000000000000000000e+00,0.000000000000000000e+00,0.000000000000000000e+00,0.000000000000000000e+00,0.000000000000000000e+00,0.000000000000000000e+00,-1.498666588460103810e+00,-2.042766873036519826e+00,-2.120265309010640919e+00,1.021438956260681152e+00,-1.684574906026021779e+00,-3.141593043004171193e+00,0.000000000000000000e+00,0.000000000000000000e+00,0.000000000000000000e+00,0.000000000000000000e+00,0.000000000000000000e+00,0.000000000000000000e+00
1.212830781936645508e+00,-1.180886160589923045e-01,-4.952554018154728954e-01,3.000005300375304662e-01,4.582787282400447443e-02,2.200378410968562015e+00,2.200379646557061086e+00,0.000000000000000000e+00,0.000000000000000000e+00,0.000000000000000000e+00,0.000000000000000000e+00,0.000000000000000000e+00,0.000000000000000000e+00,-1.498666588460103810e+00,-2.042766873036519826e+00,-2.120265309010640919e+00,1.021438956260681152e+00,-1.684574906026021779e+00,-3.141593043004171193e+00,0.000000000000000000e+00,0.000000000000000000e+00,0.000000000000000000e+00,0.000000000000000000e+00,0.000000000000000000e+00,0.000000000000000000e+00
1.221594095230102539e+00,-1.180877827828241688e-01,-4.952512311627771946e-01,3.000004722671943957e-01,4.589701227995216654e-02,2.200345855709084475e+00,2.200347352475862994e+00,2.491571741706887898e-04,1.090884482599917358e-03,3.935738488639785086e-07,5.584898577791310582e-07,5.021159349762216116e-08,-1.623797696083432648e-02,-1.498674694691793263e+00,-2.042763535176412404e+00,-2.120271984730855763e+00,1.021442174911499023e+00,-1.684630219136373341e+00,-3.141593043004171193e+00,-2.010776661336421967e-03,9.115171851590275764e-04,-1.759114093147218227e-03,8.470362517982721329e-04,-1.422720029950141907e-02,0.000000000000000000e+00
1.229762554168701172e+00,-1.180718023780037151e-01,-4.952433580771322119e-01,3.000006707032760733e-01,4.605081518569884708e-02,2.200274052299035610e+00,2.200274765300960667e+00,3.857568447398598659e-03,1.133397881291862367e-03,6.845298199671595116e-07,7.986853548776726651e-07,6.652812778642253460e-08,-2.323733502998785033e-02,-1.498668495808736623e+00,-2.042753998433248341e+00,-2.120289627705709279e+00,1.021450638771057129e+00,-1.684777561818258107e+00,-3.141593043004171193e+00,3.120425622910261154e-03,1.609469531103968620e-03,-3.106043906882405281e-03,1.495772972702980042e-03,-2.635776065289974213e-02,0.000000000000000000e+00
1.238133430480957031e+00,-1.180185011505082426e-01,-4.952386295690276441e-01,3.000005602414492767e-01,4.622909458152078821e-02,2.200190155395853164e+00,2.200191390696566884e+00,1.051252098599906801e-02,2.884952087999364829e-04,9.420927509385492560e-07,7.863946455106499632e-07,7.830386606403017307e-08,-2.276420965790121667e-02,-1.498601738606588185e+00,-2.042740646992818654e+00,-2.120315853749410451e+00,1.021463274955749512e+00,-1.685007874165670216e+00,-3.141593043004171193e+00,1.459315419197082520e-02,2.163486788049340248e-03,-4.175045061856508255e-03,2.010768279433250427e-03,-3.735736384987831116e-02,0.000000000000000000e+00
1.246900558471679688e+00,-1.179128590452973441e-01,-4.952410068256581921e-01,3.000006136316815120e-01,4.639381330257385389e-02,2.200112968272545544e+00,2.200113942251659793e+00,1.826382617751435775e-02,-8.764309102584131152e-04,1.164227572410684424e-06,6.860388846243326287e-07,7.148388499759548502e-08,-1.955624856054277022e-02,-1.498443428670064748e+00,-2.042723004017965138e+00,-2.120349709187642873e+00,1.021479606628417969e+00,-1.685317341481344044e+00,-3.141593043004171193e+00,2.835513837635517120e-02,2.663166495040059090e-03,-5.139193031936883926e-03,2.475337125360965729e-03,-4.791138693690299988e-02,0.000000000000000000e+00
1.255050897598266602e+00,-1.177514416123309621e-01,-4.952523116936130010e-01,3.000005092872027879e-01,4.652531549127328359e-02,2.200050885003621559e+00,2.200052642394751068e+00,2.558714355364251347e-02,-2.140013787349116965e-03,1.282867509948895027e-06,5.099176563518344807e-07,8.245243302482904879e-08,-1.408876851199213076e-02,-1.498184982930318654e+00,-2.042702500020162404e+00,-2.120389763508931935e+00,1.021498799324035645e+00,-1.685696427022115529e+00,-3.141593043004171193e+00,4.172302037477493286e-02,3.001680364832282066e-03,-5.792427342385053635e-03,2.790232421830296516e-03,-5.581178888678550720e-02,0.000000000000000000e+00
1.263327360153198242e+00,-1.175356941609988076e-01,-4.952732611255110662e-01,3.000004764480386221e-01,4.660898399615172327e-02,2.200011489374563478e+00,2.200013507795465895e+00,3.266486508038071029e-02,-3.462800253221205542e-03,1.375124140127860554e-06,2.900016204876499203e-07,7.909674293811172724e-08,-7.222339510890754544e-03,-1.497826878224508107e+00,-2.042679611836568654e+00,-2.120434109364644826e+00,1.021520137786865234e+00,-1.686131302510396779e+00,-3.141593043004171193e+00,5.487945675849914551e-02,3.242148086428642273e-03,-6.256389897316694260e-03,3.013946814462542534e-03,-6.210179626941680908e-02,0.000000000000000000e+00
1.271971940994262695e+00,-1.172648195968427620e-01,-4.953045770565642214e-01,3.000005139882058192e-01,4.663389973055372811e-02,2.200000031436286196e+00,2.200001527454193084e+00,3.986502730882769685e-02,-4.861865376337457662e-03,1.445019637268950866e-06,1.365834258367341708e-07,5.699673258780645935e-08,6.783455610437499894e-04,-1.497366253529683888e+00,-2.042654816304342091e+00,-2.120481793080465138e+00,1.021543264389038086e+00,-1.686614815388814748e+00,-3.141593043004171193e+00,6.839951127767562866e-02,3.436531638726592064e-03,-6.631446536630392075e-03,3.194774501025676727e-03,-6.772116571664810181e-02,0.000000000000000000e+00
1.280110597610473633e+00,-1.169358726070578863e-01,-4.953471240849356971e-01,3.000004341203169611e-01,4.658509629374470856e-02,2.200022585262552344e+00,2.200024864640352629e+00,4.738850558011741682e-02,-6.437831177752617075e-03,1.492728705990983193e-06,-1.978427916815585128e-07,6.110364827736301253e-08,1.076803356413032209e-02,-1.496795956288472951e+00,-2.042628590260640919e+00,-2.120532814656392873e+00,1.021567702293395996e+00,-1.687140289937154591e+00,-3.141593043004171193e+00,8.279955387115478516e-02,3.539012512192130089e-03,-6.829047109931707382e-03,3.290227381512522697e-03,-7.203152030706405640e-02,0.000000000000000000e+00
1.288769245147705078e+00,-1.168941604704258619e-01,-4.953528691630189607e-01,3.000006066372707392e-01,4.657413445510099476e-02,2.200028207724725071e+00,2.200029442561700410e+00,4.699483832353201773e-02,-6.437867244816770917e-03,1.460392847512072518e-06,-2.231132321597046098e-07,2.402475426599036108e-08,1.150725781918725266e-02,-1.496723000203267873e+00,-2.042625252400533498e+00,-2.120538536702291310e+00,1.021570563316345215e+00,-1.687203232442037404e+00,-3.141593043004171193e+00,8.223556727170944214e-02,3.464176086708903313e-03,-6.684624589979648590e-03,3.220669226720929146e-03,-7.072830945253372192e-02,0.000000000000000000e+00
1.296546459197998047e+00,-1.168941604704258619e-01,-4.953528691630189607e-01,3.000006066372707392e-01,4.657413445510099476e-02,2.200028207724725071e+00,2.200029442561700410e+00,0.000000000000000000e+00,0.000000000000000000e+00,0.000000000000000000e+00,0.000000000000000000e+00,0.000000000000000000e+00,0.000000000000000000e+00,-1.496723000203267873e+00,-2.042625252400533498e+00,-2.120538536702291310e+00,1.021570563316345215e+00,-1.687203232442037404e+00,-3.141593043004171193e+00,0.000000000000000000e+00,0.000000000000000000e+00,0.000000000000000000e+00,0.000000000000000000e+00,0.000000000000000000e+00,0.000000000000000000e+00
1.304785728454589844e+00,-1.168941604704258619e-01,-4.953528691630189607e-01,3.000006066372707392e-01,4.657413445510099476e-02,2.200028207724725071e+00,2.200029442561700410e+00,0.000000000000000000e+00,0.000000000000000000e+00,0.000000000000000000e+00,0.000000000000000000e+00,0.000000000000000000e+00,0.000000000000000000e+00,-1.496723000203267873e+00,-2.042625252400533498e+00,-2.120538536702291310e+00,1.021570563316345215e+00,-1.687203232442037404e+00,-3.141593043004171193e+00,0.000000000000000000e+00,0.000000000000000000e+00,0.000000000000000000e+00,0.000000000000000000e+00,0.000000000000000000e+00,0.000000000000000000e+00
1.313390493392944336e+00,-1.168579251360214455e-01,-4.953599174164717289e-01,3.000005869990894913e-01,4.653308580484716989e-02,2.200047477098169058e+00,2.200048711955745695e+00,9.276048366954952815e-03,-1.777606673598857616e-03,1.201247655841779970e-07,-2.933219682407969887e-07,-1.737486677419939525e-08,9.647687897087340453e-03,-1.496655289326803029e+00,-2.042624298726217091e+00,-2.120540444050924123e+00,1.021571516990661621e+00,-1.687233273183004201e+00,-3.141593043004171193e+00,1.733759976923465729e-02,2.794882748275995255e-04,-5.392202874645590782e-04,2.600258158054202795e-04,-7.689911872148513794e-03,0.000000000000000000e+00
1.321565151214599609e+00,-1.167562523229590810e-01,-4.953795296540235427e-01,3.000005390008382844e-01,4.641618386261182894e-02,2.200102231123940211e+00,2.200103727178087443e+00,1.784075924222444653e-02,-3.449991658897232256e-03,2.206006095015322999e-07,-5.787686983514406690e-07,-3.314365033025565446e-08,1.905985083431336116e-02,-1.496465031300679982e+00,-2.042621437703267873e+00,-2.120546166096822560e+00,1.021574258804321289e+00,-1.687316242848531544e+00,-3.141593043004171193e+00,3.342028707265853882e-02,5.098585388623178005e-04,-9.836577810347080231e-04,4.743788740597665310e-04,-1.436043623834848404e-02,0.000000000000000000e+00
1.332165241241455078e+00,-1.165913012966853374e-01,-4.954114602849432614e-01,3.000005832642483883e-01,4.622079397627453651e-02,2.200193933249166012e+00,2.200195429407748815e+00,2.614817458441215034e-02,-5.096713997141153613e-03,2.996759306205664072e-07,-8.686614001086599215e-07,-5.078545677996435000e-08,2.864485420287126577e-02,-1.496155563985006154e+00,-2.042616669331685841e+00,-2.120555226002828419e+00,1.021578550338745117e+00,-1.687446419392720998e+00,-3.141593043004171193e+00,4.908625781536102295e-02,7.082253578118979931e-04,-1.366363256238400936e-03,6.590079283341765404e-04,-2.044140361249446869e-02,0.000000000000000000e+00
1.340569496154785156e+00,-1.163616976398221953e-01,-4.954564411366231269e-01,3.000007077713272019e-01,4.594271367189511207e-02,2.200324773834329672e+00,2.200325486693780697e+00,3.457332324060159029e-02,-6.784380613286404745e-03,3.685595595056908997e-07,-1.136108653032890459e-06,-7.665916379581172087e-08,3.876554407179477746e-02,-1.495724026356832326e+00,-2.042610470448629201e+00,-2.120566670094625294e+00,1.021584153175354004e+00,-1.687622849141256154e+00,-3.141593043004171193e+00,6.503135710954666138e-02,8.873374899849295616e-04,-1.711925840936601162e-03,8.257270092144608498e-04,-2.626581303775310516e-02,0.000000000000000000e+00
1.348693609237670898e+00,-1.163312472049396473e-01,-4.954624925105334254e-01,3.000005773292124256e-01,4.590583755115378028e-02,2.200341836658736394e+00,2.200343071836378339e+00,3.457654102069833424e-02,-6.787482718172197123e-03,3.666690252604113302e-07,-1.135817389941170992e-06,-7.045397244903808698e-08,3.883562237024713870e-02,-1.495666805897847951e+00,-2.042609993611470998e+00,-2.120568100606099904e+00,1.021584868431091309e+00,-1.687646214162008107e+00,-3.141593043004171193e+00,6.504677236080169678e-02,8.837450295686721802e-04,-1.704995403997600079e-03,8.223882759921252728e-04,-2.621114999055862427e-02,0.000000000000000000e+00
1.356898307800292969e+00,-1.163312472049396473e-01,-4.954624925105334254e-01,3.000005773292124256e-01,4.590583755115378028e-02,2.200341836658736394e+00,2.200343071836378339e+00,0.000000000000000000e+00,0.000000000000000000e+00,0.000000000000000000e+00,0.000000000000000000e+00,0.000000000000000000e+00,0.000000000000000000e+00,-1.495666805897847951e+00,-2.042609993611470998e+00,-2.120568100606099904e+00,1.021584868431091309e+00,-1.687646214162008107e+00,-3.141593043004171193e+00,0.000000000000000000e+00,0.000000000000000000e+00,0.000000000000000000e+00,0.000000000000000000e+00,0.000000000000000000e+00,0.000000000000000000e+00
1.365035533905029297e+00,-1.163312472049396473e-01,-4.954624925105334254e-01,3.000005773292124256e-01,4.590583755115378028e-02,2.200341836658736394e+00,2.200343071836378339e+00,0.000000000000000000e+00,0.000000000000000000e+00,0.000000000000000000e+00,0.000000000000000000e+00,0.000000000000000000e+00,0.000000000000000000e+00,-1.495666805897847951e+00,-2.042609993611470998e+00,-2.120568100606099904e+00,1.021584868431091309e+00,-1.687646214162008107e+00,-3.141593043004171193e+00,0.000000000000000000e+00,0.000000000000000000e+00,0.000000000000000000e+00,0.000000000000000000e+00,0.000000000000000000e+00,0.000000000000000000e+00
1.373767852783203125e+00,-1.162957357115111112e-01,-4.954696882296102389e-01,3.000006892280580040e-01,4.585592897956963093e-02,2.200365370037713930e+00,2.200366344089995874e+00,9.094349127539152686e-03,-1.889791565369203534e-03,6.331522815168958648e-08,-3.749025199034795216e-07,-2.570407235355698464e-08,1.174442609772136104e-02,-1.495599095021383107e+00,-2.042609039937154591e+00,-2.120569531117574513e+00,1.021585464477539062e+00,-1.687668148671285451e+00,-3.141593043004171193e+00,1.733759976923465729e-02,1.485738466726616025e-04,-2.865788992494344711e-04,1.383808266837149858e-04,-5.593173671513795853e-03,0.000000000000000000e+00
1.382004976272583008e+00,-1.162807399469664160e-01,-4.954728592135893006e-01,3.000005795219450877e-01,4.583465705612715241e-02,2.200374992224959581e+00,2.200376749746354665e+00,1.044899307180648974e-02,-2.170962327389035391e-03,7.275765993350410818e-08,-4.309112531666401577e-07,-2.725294386566794766e-08,1.349373580888116146e-02,-1.495570484791890919e+00,-2.042609039937154591e+00,-2.120570007954732716e+00,1.021585583686828613e+00,-1.687677208577291310e+00,-3.141593043004171193e+00,1.992000080645084381e-02,1.707036135485395789e-04,-3.292642359156161547e-04,1.589923631399869919e-04,-6.426264997571706772e-03,0.000000000000000000e+00
1.390581369400024414e+00,-1.162807399469664160e-01,-4.954728592135893006e-01,3.000005795219450877e-01,4.583465705612715241e-02,2.200374992224959581e+00,2.200376749746354665e+00,0.000000000000000000e+00,0.000000000000000000e+00,0.000000000000000000e+00,0.000000000000000000e+00,0.000000000000000000e+00,0.000000000000000000e+00,-1.495570484791890919e+00,-2.042609039937154591e+00,-2.120570007954732716e+00,1.021585583686828613e+00,-1.687677208577291310e+00,-3.141593043004171193e+00,0.000000000000000000e+00,0.000000000000000000e+00,0.000000000000000000e+00,0.000000000000000000e+00,0.000000000000000000e+00,0.000000000000000000e+00
1.399142026901245117e+00,-1.162807399469664160e-01,-4.954728592135893006e-01,3.000005795219450877e-01,4.583465705612715241e-02,2.200374992224959581e+00,2.200376749746354665e+00,0.000000000000000000e+00,0.000000000000000000e+00,0.000000000000000000e+00,0.000000000000000000e+00,0.000000000000000000e+00,0.000000000000000000e+00,-1.495570484791890919e+00,-2.042609039937154591e+00,-2.120570007954732716e+00,1.021585583686828613e+00,-1.687677208577291310e+00,-3.141593043004171193e+00,0.000000000000000000e+00,0.000000000000000000e+00,0.000000000000000000e+00,0.000000000000000000e+00,0.000000000000000000e+00,0.000000000000000000e+00
1.407656669616699219e+00,-1.162502839027906715e-01,-4.954792010880255670e-01,3.000005697021324025e-01,4.579099693686310146e-02,2.200395473897442056e+00,2.200397231445098800e+00,7.841711790701907936e-03,-1.641020852750458767e-03,5.655480761427731346e-08,-3.272325594042863023e-07,-2.088478740510176196e-08,1.030487474054244887e-02,-1.495512310658590138e+00,-2.042608563099996388e+00,-2.120570961629049123e+00,1.021586060523986816e+00,-1.687695328389303029e+00,-3.141593043004171193e+00,1.497600041329860687e-02,1.183437489089556038e-04,-2.282398781972005963e-04,1.102240057662129402e-04,-4.671125672757625580e-03,0.000000000000000000e+00
1.416263818740844727e+00,-1.161679606417622135e-01,-4.954965933342904694e-01,3.000007705705458605e-01,4.567190352726623048e-02,2.200451933582255215e+00,2.200452385412332124e+00,1.466089394330348863e-02,-3.077510872939607633e-03,9.661565246697056543e-08,-6.151238888657284338e-07,-4.464665069569732626e-08,1.943908352404840126e-02,-1.495354954396383107e+00,-2.042607132588521779e+00,-2.120572868977681935e+00,1.021587133407592773e+00,-1.687743488942281544e+00,-3.141593043004171193e+00,2.802431955933570862e-02,2.117218973580747843e-04,-4.083364619873464108e-04,1.972313039004802704e-04,-8.585236035287380219e-03,0.000000000000000000e+00
1.426257610321044922e+00,-1.160381039603297360e-01,-4.955238673027836382e-01,3.000005216987727263e-01,4.548276746098402906e-02,2.200539927562616072e+00,2.200541946460288223e+00,2.093297670077745587e-02,-4.416123994137761792e-03,1.235490501687333433e-07,-8.876173226551451802e-07,-5.620080007929413296e-08,2.815587539226313205e-02,-1.495106522236959279e+00,-2.042605702077047169e+00,-2.120576683674947560e+00,1.021588802337646484e+00,-1.687818352376119435e+00,-3.141593043004171193e+00,4.007162898778915405e-02,2.802464005071669817e-04,-5.404880503192543983e-04,2.611309755593538284e-04,-1.191575359553098679e-02,0.000000000000000000e+00
1.434959888458251953e+00,-1.158621669387078917e-01,-4.955610781582754365e-01,3.000005932203863579e-01,4.522229066764226618e-02,2.200662309065326561e+00,2.200663805785105342e+00,2.701944718910091747e-02,-5.726996890548808131e-03,1.477873424505845182e-07,-1.157105166622642065e-06,-7.779132315046181610e-08,3.687335550785397764e-02,-1.494769398366109669e+00,-2.042603317891256154e+00,-2.120580975209371388e+00,1.021590948104858398e+00,-1.687916580830709279e+00,-3.141593043004171193e+00,5.179920047521591187e-02,3.324704302940517664e-04,-6.411717040464282036e-04,3.098609449807554483e-04,-1.492584496736526489e-02,0.000000000000000000e+00
1.442830324172973633e+00,-1.156394603045226566e-01,-4.956085329259129479e-01,3.000005441197480804e-01,4.488849743814088411e-02,2.200818790636064115e+00,2.200820287548466592e+00,3.320529233591187207e-02,-7.065953963334023480e-03,1.659421013403171259e-07,-1.436094814630871128e-06,-9.766127661539276808e-08,4.593854770064750154e-02,-1.494342152272359669e+00,-2.042600933705465138e+00,-2.120585743580953419e+00,1.021593332290649414e+00,-1.688037697468892873e+00,-3.141593043004171193e+00,6.374649703502655029e-02,3.741575346793979406e-04,-7.215254008769989014e-04,3.488072252366691828e-04,-1.780794933438301086e-02,0.000000000000000000e+00
1.451683044433593750e+00,-1.153671626134719769e-01,-4.956664745806785843e-01,3.000007275358749226e-01,4.447505260801364046e-02,2.201012904605372800e+00,2.201013618167498187e+00,3.974440320836539892e-02,-8.475410091893138126e-03,1.858567922786694004e-07,-1.731755984833073931e-06,-1.266022131891063418e-07,5.556686222553334359e-02,-1.493819061909810841e+00,-2.042597595845357716e+00,-2.120591465626851857e+00,1.021596074104309082e+00,-1.688181702290670216e+00,-3.141593043004171193e+00,7.637985050678253174e-02,4.155835194978863001e-04,-8.013631450012326241e-04,3.875159891322255135e-04,-2.081298828125000000e-02,0.000000000000000000e+00
1.460115909576416016e+00,-1.150407707236714844e-01,-4.957359828869652985e-01,3.000006806233696532e-01,4.397525578953410952e-02,2.201246796172422915e+00,2.201248032400984656e+00,4.686638169841678830e-02,-1.000210456003840405e-02,1.985898913972179355e-07,-2.036932939140980676e-06,-1.445918076399973592e-07,6.609292328358049029e-02,-1.493191544209615529e+00,-2.042594257985250294e+00,-2.120598141347066701e+00,1.021599173545837402e+00,-1.688350979481832326e+00,-3.141593043004171193e+00,9.014146029949188232e-02,4.583366680890321732e-04,-8.837851346470415592e-04,4.274904786143451929e-04,-2.404853701591491699e-02,0.000000000000000000e+00
1.468996524810791016e+00,-1.146536766395578749e-01,-4.958187896093831926e-01,3.000006009641749682e-01,4.337698368676429217e-02,2.201527037228400374e+00,2.201528012551997371e+00,5.480848808770175801e-02,-1.169318782857719542e-02,2.128691612949684774e-07,-2.400424372823223937e-06,-1.759067159274862673e-07,7.786520011723276069e-02,-1.492446724568502248e+00,-2.042590920125142873e+00,-2.120604817067281544e+00,1.021602630615234375e+00,-1.688547436391012013e+00,-3.141593043004171193e+00,1.054881736636161804e-01,5.039023817516863346e-04,-9.716152562759816647e-04,4.701197030954062939e-04,-2.762297354638576508e-02,0.000000000000000000e+00
1.477948427200317383e+00,-1.141974711903861045e-01,-4.959159258974918938e-01,3.000006550277461992e-01,4.266720345412049198e-02,2.201859174826495735e+00,2.201860150515705161e+00,6.383361063421467974e-02,-1.359956699224203029e-02,2.260981455273412069e-07,-2.794345658799640928e-06,-2.074706655921369581e-07,9.127227962017325780e-02,-1.491568390523092091e+00,-2.042586628590719044e+00,-2.120612923298970998e+00,1.021606445312500000e+00,-1.688775364552633107e+00,-3.141593043004171193e+00,1.229262426495552063e-01,5.537694669328629971e-04,-1.067745033651590347e-03,5.167775670997798443e-04,-3.165396302938461304e-02,0.000000000000000000e+00
1.486065149307250977e+00,-1.136615099337086321e-01,-4.960300673097316482e-01,3.000005775539555386e-01,4.182811562106485137e-02,2.202251429953976825e+00,2.202252667359610339e+00,7.424907159376981092e-02,-1.577908494261071048e-02,2.526953509835551233e-07,-3.273660051985581411e-06,-2.424860142641785014e-07,1.067700833082252110e-01,-1.490536038075582326e+00,-2.042582337056295216e+00,-2.120621506367818654e+00,1.021610617637634277e+00,-1.689039055501119435e+00,-3.141593043004171193e+00,1.430469155311584473e-01,6.095616845414042473e-04,-1.175245735794305801e-03,5.689666140824556351e-04,-3.627683222293853760e-02,0.000000000000000000e+00
1.494958877563476562e+00,-1.130317573515469548e-01,-4.961636955536903870e-01,3.000007216752751393e-01,4.083608178660750460e-02,2.202715299730506615e+00,2.202715753729568071e+00,8.641957125202345824e-02,-1.830507846084275525e-02,2.749556037162266084e-07,-3.815938389561125011e-06,-3.026413736509941792e-07,1.250052303075792071e-01,-1.489322487507955373e+00,-2.042577091847554982e+00,-2.120631043110982716e+00,1.021615266799926758e+00,-1.689344231282369435e+00,-3.141593043004171193e+00,1.665669232606887817e-01,6.673425668850541115e-04,-1.286580692976713181e-03,6.230660364963114262e-04,-4.156169295310974121e-02,0.000000000000000000e+00
1.503197669982910156e+00,-1.122906836093841981e-01,-4.963202569512685236e-01,3.000005148483458339e-01,3.966187778644992418e-02,2.203262922801188850e+00,2.203264422751264107e+00,9.884078211984101414e-02,-2.083705079437360788e-02,2.921073930658206069e-07,-4.396538243315720612e-06,-3.328065915637479087e-07,1.437018215656383213e-01,-1.487893883381978810e+00,-2.042571846638814748e+00,-2.120642010365621388e+00,1.021620512008666992e+00,-1.689698044453756154e+00,-3.141593043004171193e+00,1.905669271945953369e-01,7.207188173197209835e-04,-1.389416167512536049e-03,6.731063476763665676e-04,-4.686510562896728516e-02,0.000000000000000000e+00
1.512002706527709961e+00,-1.114501508862156265e-01,-4.964969177306857162e-01,3.000006502322762336e-01,3.832279246584678611e-02,2.203887516942153013e+00,2.203888494870444692e+00,1.112662037291304029e-01,-2.331535902091866688e-02,3.104172887764898782e-07,-4.977973953272488261e-06,-3.980814090153547528e-07,1.624832004308743860e-01,-1.486273113881246388e+00,-2.042565647755758107e+00,-2.120653454457418263e+00,1.021625995635986328e+00,-1.690093819295064748e+00,-3.141593043004171193e+00,2.145669162273406982e-01,7.688087061978876591e-04,-1.482037594541907310e-03,7.182226981967687607e-04,-5.208371579647064209e-02,0.000000000000000000e+00
1.520378589630126953e+00,-1.105103299671686828e-01,-4.966932612615253539e-01,3.000006431669416385e-01,3.681863149931072221e-02,2.204588184220223290e+00,2.204588640023025459e+00,1.236975708723840189e-01,-2.573244670971759976e-02,3.251295351003400600e-07,-5.542317360283462692e-06,-4.673682139690898242e-07,1.813451126217844322e-01,-1.484460655842916310e+00,-2.042559448872701466e+00,-2.120665375386373341e+00,1.021631956100463867e+00,-1.690531078969137013e+00,-3.141593043004171193e+00,2.385669201612472534e-01,8.118700352497398853e-04,-1.564966165460646152e-03,7.586581050418317318e-04,-5.722180753946304321e-02,0.000000000000000000e+00
1.528270244598388672e+00,-1.094710273624554253e-01,-4.969085473385280727e-01,3.000006481003182346e-01,3.514702681208429352e-02,2.205365478088002984e+00,2.205365934640879821e+00,1.361302917674955260e-01,-2.808489051318793783e-02,3.413276176921346934e-07,-6.136229637011970742e-06,-5.300897885535734354e-07,2.003545984625818011e-01,-1.482456032429830373e+00,-2.042552773152486623e+00,-2.120678249989644826e+00,1.021638154983520508e+00,-1.691008392964498341e+00,-3.141593043004171193e+00,2.625669240951538086e-01,8.457276271656155586e-04,-1.630107290111482143e-03,7.905387319624423981e-04,-6.221232563257217407e-02,0.000000000000000000e+00
1.536871433258056641e+00,-1.094430829381037862e-01,-4.969142923269433409e-01,3.000005383933961323e-01,3.510216993610967146e-02,2.205385965652974622e+00,2.205387206746175721e+00,3.496692737718023851e-03,-7.211966275887361994e-04,8.765162220561405330e-09,-1.576642133547499780e-07,-1.305506090576084775e-08,5.146326264366736514e-03,-1.482402149830953419e+00,-2.042552773152486623e+00,-2.120678726826803029e+00,1.021638274192810059e+00,-1.691021267567769826e+00,-3.141593043004171193e+00,6.744317710399627686e-03,2.172343556594569236e-05,-4.187108424957841635e-05,2.030584983003791422e-05,-1.597991446033120155e-03,0.000000000000000000e+00
1.545213222503662109e+00,-1.094430829381037862e-01,-4.969142923269433409e-01,3.000005383933961323e-01,3.510216993610967146e-02,2.205385965652974622e+00,2.205387206746175721e+00,0.000000000000000000e+00,0.000000000000000000e+00,0.000000000000000000e+00,0.000000000000000000e+00,0.000000000000000000e+00,0.000000000000000000e+00,-1.482402149830953419e+00,-2.042552773152486623e+00,-2.120678726826803029e+00,1.021638274192810059e+00,-1.691021267567769826e+00,-3.141593043004171193e+00,0.000000000000000000e+00,0.000000000000000000e+00,0.000000000000000000e+00,0.000000000000000000e+00,0.000000000000000000e+00,0.000000000000000000e+00
1.553415536880493164e+00,-1.094430829381037862e-01,-4.969142923269433409e-01,3.000005383933961323e-01,3.510216993610967146e-02,2.205385965652974622e+00,2.205387206746175721e+00,0.000000000000000000e+00,0.000000000000000000e+00,0.000000000000000000e+00,0.000000000000000000e+00,0.000000000000000000e+00,0.000000000000000000e+00,-1.482402149830953419e+00,-2.042552773152486623e+00,-2.120678726826803029e+00,1.021638274192810059e+00,-1.691021267567769826e+00,-3.141593043004171193e+00,0.000000000000000000e+00,0.000000000000000000e+00,0.000000000000000000e+00,0.000000000000000000e+00,0.000000000000000000e+00,0.000000000000000000e+00
1.562621593475341797e+00,-1.094029746737136127e-01,-4.969227489318039925e-01,3.000007588967462113e-01,3.503475208341728930e-02,2.205417880380006412e+00,2.205417813965323326e+00,1.024688698542293268e-02,-2.162578054171743983e-03,1.111407569513059331e-08,-4.877011344769614902e-07,-4.335797879242639062e-08,1.581235276535143675e-02,-1.482324425374166310e+00,-2.042552296315328419e+00,-2.120678726826803029e+00,1.021638393402099609e+00,-1.691037480031148732e+00,-3.141593043004171193e+00,1.987200044095516205e-02,2.350201975787058473e-05,-4.519619324128143489e-05,2.218379813712090254e-05,-4.059647675603628159e-03,0.000000000000000000e+00
1.570779323577880859e+00,-1.092857018620299187e-01,-4.969475501397129236e-01,3.000006382779564773e-01,3.483637662368082449e-02,2.205509801499187184e+00,2.205510258192038275e+00,2.033192063166821759e-02,-4.289096539003482526e-03,1.970110781897225438e-08,-9.719718528836806042e-07,-8.471318947676461385e-08,3.141830861568448152e-02,-1.482096974049703419e+00,-2.042552296315328419e+00,-2.120679203663961232e+00,1.021638631820678711e+00,-1.691083733235494435e+00,-3.141593043004171193e+00,3.943488001823425293e-02,4.417009768076241016e-05,-8.492944471072405577e-05,4.173500201432034373e-05,-8.016571402549743652e-03,0.000000000000000000e+00
1.579656600952148438e+00,-1.092714745955215561e-01,-4.969505876773044895e-01,3.000006382779440428e-01,3.481183616901931815e-02,2.205521200909973611e+00,2.205521657613916275e+00,2.058383795180714071e-02,-4.341751481961688038e-03,1.985081983809234451e-08,-9.841722592225541942e-07,-8.580457641939275019e-08,3.180919215083120866e-02,-1.482069317494527638e+00,-2.042552296315328419e+00,-2.120679203663961232e+00,1.021638631820678711e+00,-1.691088978444234669e+00,-3.141593043004171193e+00,3.992351889610290527e-02,4.461898424779064953e-05,-8.579200948588550091e-05,4.216092929709702730e-05,-8.114326745271682739e-03,0.000000000000000000e+00
1.587868690490722656e+00,-1.092714745955215561e-01,-4.969505876773044895e-01,3.000006382779440428e-01,3.481183616901931815e-02,2.205521200909973611e+00,2.205521657613916275e+00,0.000000000000000000e+00,0.000000000000000000e+00,0.000000000000000000e+00,0.000000000000000000e+00,0.000000000000000000e+00,0.000000000000000000e+00,-1.482069317494527638e+00,-2.042552296315328419e+00,-2.120679203663961232e+00,1.021638631820678711e+00,-1.691088978444234669e+00,-3.141593043004171193e+00,0.000000000000000000e+00,0.000000000000000000e+00,0.000000000000000000e+00,0.000000000000000000e+00,0.000000000000000000e+00,0.000000000000000000e+00
1.596177577972412109e+00,-1.092714745955215561e-01,-4.969505876773044895e-01,3.000006382779440428e-01,3.481183616901931815e-02,2.205521200909973611e+00,2.205521657613916275e+00,0.000000000000000000e+00,0.000000000000000000e+00,0.000000000000000000e+00,0.000000000000000000e+00,0.000000000000000000e+00,0.000000000000000000e+00,-1.482069317494527638e+00,-2.042552296315328419e+00,-2.120679203663961232e+00,1.021638631820678711e+00,-1.691088978444234669e+00,-3.141593043004171193e+00,0.000000000000000000e+00,0.000000000000000000e+00,0.000000000000000000e+00,0.000000000000000000e+00,0.000000000000000000e+00,0.000000000000000000e+00
1.604474782943725586e+00,-1.092348653040059181e-01,-4.969582009277610513e-01,3.000005285708050584e-01,3.474974216633535534e-02,2.205549688700728428e+00,2.205550929989160025e+00,9.360654245411367813e-03,-1.977398408106628789e-03,6.262395912867383940e-09,-4.419507724170694459e-07,-3.725433924447251152e-08,1.451889821328273406e-02,-1.481998268757955373e+00,-2.042552296315328419e+00,-2.120679680501119435e+00,1.021638751029968262e+00,-1.691103283558980763e+00,-3.141593043004171193e+00,1.816320046782493591e-02,1.734141187625937164e-05,-3.333010681672021747e-05,1.643220821279101074e-05,-3.644302254542708397e-03,0.000000000000000000e+00
